zakjeens/yaskawa_debug_materials/t12/joints.csv
__time,/joint_states/group_1/joint_1/effort,/joint_states/group_1/joint_1/position,/joint_states/group_1/joint_1/velocity,/joint_states/group_1/joint_2/effort,/joint_states/group_1/joint_2/position,/joint_states/group_1/joint_2/velocity,/joint_states/group_1/joint_3/effort,/joint_states/group_1/joint_3/position,/joint_states/group_1/joint_3/velocity,/joint_states/group_1/joint_4/effort,/joint_states/group_1/joint_4/position,/joint_states/group_1/joint_4/velocity,/joint_states/group_1/joint_5/effort,/joint_states/group_1/joint_5/position,/joint_states/group_1/joint_5/velocity,/joint_states/group_1/joint_6/effort,/joint_states/group_1/joint_6/position,/joint_states/group_1/joint_6/velocity,/joint_states/header/stamp,/world_to_torch/header/header/stamp,/world_to_torch/transform/rotation/pitch,/world_to_torch/transform/rotation/roll,/world_to_torch/transform/rotation/w,/world_to_torch/transform/rotation/x,/world_to_torch/transform/rotation/y,/world_to_torch/transform/rotation/yaw,/world_to_torch/transform/rotation/z,/world_to_torch/transform/translation/x,/world_to_torch/transform/translation/y,/world_to_torch/transform/translation/z
1720620321.519974,,,,,,,,,,,,,,,,,,,,1720620321.514715672,-1.186824000,3.141592654,0.000000015,0.829037542,-0.000000022,-0.000000054,0.559192949,1.395152983,0.001110973,1.481517837
1720620321.580193,,,,,,,,,,,,,,,,,,,,1720620321.570715666,-1.186824000,3.141592654,0.000000015,0.829037542,-0.000000022,-0.000000054,0.559192949,1.395152983,0.001110973,1.481517837
1720620321.630083,,,,,,,,,,,,,,,,,,,,1720620321.621715784,-1.186824000,3.141592654,0.000000015,0.829037542,-0.000000022,-0.000000054,0.559192949,1.395152983,0.001110973,1.481517837
1720620321.679946,,,,,,,,,,,,,,,,,,,,1720620321.676715612,-1.186824000,3.141592654,0.000000015,0.829037542,-0.000000022,-0.000000054,0.559192949,1.395152983,0.001110973,1.481517837
1720620321.739932,,,,,,,,,,,,,,,,,,,,1720620321.733715773,-1.186824000,3.141592654,0.000000015,0.829037542,-0.000000022,-0.000000054,0.559192949,1.395152983,0.001110973,1.481517837
1720620321.800165,,,,,,,,,,,,,,,,,,,,1720620321.785715580,-1.186824000,3.141592654,0.000000015,0.829037542,-0.000000022,-0.000000054,0.559192949,1.395152983,0.001110973,1.481517837
1720620321.850173,,,,,,,,,,,,,,,,,,,,1720620321.841715813,-1.186824000,3.141592654,0.000000015,0.829037542,-0.000000022,-0.000000054,0.559192949,1.395152983,0.001110973,1.481517837
1720620321.910070,,,,,,,,,,,,,,,,,,,,1720620321.899715662,-1.186824000,3.141592654,0.000000015,0.829037542,-0.000000022,-0.000000054,0.559192949,1.395152983,0.001110973,1.481517837
1720620321.960030,,,,,,,,,,,,,,,,,,,,1720620321.949715614,-1.186824000,3.141592654,0.000000015,0.829037542,-0.000000022,-0.000000054,0.559192949,1.395152983,0.001110973,1.481517837
1720620322.010113,,,,,,,,,,,,,,,,,,,,1720620322.000715733,-1.186823998,3.141490200,0.000015924,0.829037542,0.000010709,0.000094939,0.559192948,1.395152983,0.001108959,1.481517794
1720620322.070166,,,,,,,,,,,,,,,,,,,,1720620322.056715727,-1.186824000,3.141592654,0.000000015,0.829037542,-0.000000022,-0.000000054,0.559192949,1.395152983,0.001110973,1.481517837
1720620322.120002,,,,,,,,,,,,,,,,,,,,1720620322.109715700,-1.186824000,3.141592654,0.000000015,0.829037542,-0.000000022,-0.000000054,0.559192949,1.395152983,0.001110973,1.481517837
1720620322.169957,,,,,,,,,,,,,,,,,,,,1720620322.164715767,-1.186824000,3.141592654,0.000000015,0.829037542,-0.000000022,-0.000000054,0.559192949,1.395152983,0.001110973,1.481517837
1720620322.229977,,,,,,,,,,,,,,,,,,,,1720620322.215715647,-1.186824000,3.141592654,0.000000015,0.829037542,-0.000000022,-0.000000054,0.559192949,1.395152983,0.001110973,1.481517837
1720620322.279915,,,,,,,,,,,,,,,,,,,,1720620322.272715807,-1.186824000,3.141592654,0.000000015,0.829037542,-0.000000022,-0.000000054,0.559192949,1.395152983,0.001110973,1.481517837
1720620322.340014,,,,,,,,,,,,,,,,,,,,1720620322.328715801,-1.186824000,3.141592654,0.000000015,0.829037542,-0.000000022,-0.000000054,0.559192949,1.395152983,0.001110973,1.481517837
1720620322.389922,,,,,,,,,,,,,,,,,,,,1720620322.383715630,-1.186824000,3.141592654,0.000000015,0.829037542,-0.000000022,-0.000000054,0.559192949,1.395152983,0.001110973,1.481517837
1720620322.450079,,,,,,,,,,,,,,,,,,,,1720620322.435715675,-1.186824000,3.141592654,0.000000015,0.829037542,-0.000000022,-0.000000054,0.559192949,1.395152983,0.001110973,1.481517837
1720620322.465073,-0.060346000,0.000000000,0.000000000,-1.194963000,0.000000000,0.000000000,1.021878000,0.000000000,0.000000000,-0.028128000,0.000000000,0.000000000,0.230944000,0.000000000,0.000000000,0.024288000,0.000000000,0.000000000,1720620322.459715605,,,,,,,,,,,
1720620322.469162,-0.057772000,0.000000000,0.000000000,-1.194963000,0.000000000,0.000000000,1.021878000,0.000000000,0.000000000,-0.028128000,0.000000000,0.000000000,0.230688000,0.000000000,0.000000000,0.022816000,0.000000000,0.000000000,1720620322.464715719,,,,,,,,,,,
1720620322.476547,-0.061490000,0.000000000,0.000000000,-1.194963000,0.000000000,0.000000000,1.021878000,0.000000000,0.000000000,-0.028128000,0.000000000,0.000000000,0.230624000,0.000000000,0.000000000,0.022816000,0.000000000,0.000000000,1720620322.471715689,,,,,,,,,,,
1720620322.477496,-0.061490000,0.000000000,0.000000000,-1.194963000,0.000000000,0.000000000,1.021878000,0.000000000,0.000000000,-0.028128000,0.000000000,0.000000000,0.230624000,0.000000000,0.000000000,0.022816000,0.000000000,0.000000000,1720620322.472715616,,,,,,,,,,,
1720620322.482034,-0.038324000,0.000000000,0.000000000,-1.194963000,0.000000000,0.000000000,1.021878000,0.000000000,0.000000000,-0.028128000,0.000000000,0.000000000,0.231168000,0.000000000,0.000000000,0.023552000,0.000000000,0.000000000,1720620322.476715803,,,,,,,,,,,
1720620322.488643,-0.055198000,0.000000000,0.000000000,-1.192268000,0.000000000,0.000000000,1.021878000,0.000000000,0.000000000,-0.028128000,0.000000000,0.000000000,0.231616000,0.000000000,0.000000000,0.023488000,0.000000000,0.000000000,1720620322.483715773,,,,,,,,,,,
1720620322.489494,-0.055198000,0.000000000,0.000000000,-1.192268000,0.000000000,0.000000000,1.021878000,0.000000000,0.000000000,-0.028128000,0.000000000,0.000000000,0.231616000,0.000000000,0.000000000,0.023488000,0.000000000,0.000000000,1720620322.484715700,,,,,,,,,,,
1720620322.493483,-0.054340000,0.000000000,0.000000000,-1.192268000,0.000000000,0.000000000,1.021878000,0.000000000,0.000000000,-0.028128000,0.000000000,0.000000000,0.231168000,0.000000000,0.000000000,0.023744000,0.000000000,0.000000000,1720620322.488715649,,,,,,,,,,,
1720620322.499943,,,,,,,,,,,,,,,,,,,,1720620322.488715649,-1.186824000,3.141592654,0.000000015,0.829037542,-0.000000022,-0.000000054,0.559192949,1.395152983,0.001110973,1.481517837
1720620322.500237,-0.054912000,0.000000000,0.000000000,-1.196580000,0.000000000,0.000000000,1.021878000,0.000000000,0.000000000,-0.028128000,0.000000000,0.000000000,0.230560000,0.000000000,0.000000000,0.023552000,0.000000000,0.000000000,1720620322.495715618,,,,,,,,,,,
1720620322.502105,-0.054912000,0.000000000,0.000000000,-1.196580000,0.000000000,0.000000000,1.021878000,0.000000000,0.000000000,-0.028128000,0.000000000,0.000000000,0.230560000,0.000000000,0.000000000,0.023552000,0.000000000,0.000000000,1720620322.496715784,,,,,,,,,,,
1720620322.505328,-0.055198000,0.000000000,0.000000000,-1.193885000,0.000000000,0.000000000,1.021878000,0.000000000,0.000000000,-0.028128000,0.000000000,0.000000000,0.230944000,0.000000000,0.000000000,0.023136000,0.000000000,0.000000000,1720620322.500715733,,,,,,,,,,,
1720620322.512543,-0.055770000,0.000000000,0.000000000,-1.193885000,0.000000000,0.000000000,1.021878000,0.000000000,0.000000000,-0.028128000,0.000000000,0.000000000,0.230208000,0.000000000,0.000000000,0.022944000,0.000000000,0.000000000,1720620322.507715702,,,,,,,,,,,
1720620322.513441,-0.055770000,0.000000000,0.000000000,-1.193885000,0.000000000,0.000000000,1.021878000,0.000000000,0.000000000,-0.028128000,0.000000000,0.000000000,0.230208000,0.000000000,0.000000000,0.022944000,0.000000000,0.000000000,1720620322.508715630,,,,,,,,,,,
1720620322.525457,-0.055770000,0.000000000,0.000000000,-1.193885000,0.000000000,0.000000000,1.021878000,0.000000000,0.000000000,-0.028128000,0.000000000,0.000000000,0.230880000,0.000000000,0.000000000,0.023424000,0.000000000,0.000000000,1720620322.515715599,,,,,,,,,,,
1720620322.526525,-0.055770000,0.000000000,0.000000000,-1.198197000,0.000000000,0.000000000,1.021878000,0.000000000,0.000000000,-0.028128000,0.000000000,0.000000000,0.231008000,0.000000000,0.000000000,0.023136000,0.000000000,0.000000000,1720620322.521715641,,,,,,,,,,,
1720620322.528539,-0.055770000,0.000000000,0.000000000,-1.192807000,0.000000000,0.000000000,1.021878000,0.000000000,0.000000000,-0.028128000,0.000000000,0.000000000,0.230944000,0.000000000,0.000000000,0.023616000,0.000000000,0.000000000,1720620322.523715734,,,,,,,,,,,
1720620322.532260,-0.055198000,0.000000000,0.000000000,-1.192807000,0.000000000,0.000000000,1.021878000,0.000000000,0.000000000,-0.028128000,0.000000000,0.000000000,0.230208000,0.000000000,0.000000000,0.023008000,0.000000000,0.000000000,1720620322.527715683,,,,,,,,,,,
1720620322.540657,-0.055198000,0.000000000,0.000000000,-1.192807000,0.000000000,0.000000000,1.021878000,0.000000000,0.000000000,-0.028128000,0.000000000,0.000000000,0.231360000,0.000000000,0.000000000,0.022816000,0.000000000,0.000000000,1720620322.535715580,,,,,,,,,,,
1720620322.544956,-0.055198000,0.000000000,0.000000000,-1.193885000,0.000000000,0.000000000,1.021878000,0.000000000,0.000000000,-0.028128000,0.000000000,0.000000000,0.230368000,0.000000000,0.000000000,0.023936000,0.000000000,0.000000000,1720620322.539715767,,,,,,,,,,,
1720620322.550033,,,,,,,,,,,,,,,,,,,,1720620322.539715767,-1.186824000,3.141592654,0.000000015,0.829037542,-0.000000022,-0.000000054,0.559192949,1.395152983,0.001110973,1.481517837
1720620322.552673,-0.055198000,0.000000000,0.000000000,-1.193885000,0.000000000,0.000000000,1.021878000,0.000000000,0.000000000,-0.028128000,0.000000000,0.000000000,0.230752000,0.000000000,0.000000000,0.023136000,0.000000000,0.000000000,1720620322.547715664,,,,,,,,,,,
1720620322.556530,-0.055198000,0.000000000,0.000000000,-1.193885000,0.000000000,0.000000000,1.021878000,0.000000000,0.000000000,-0.028128000,0.000000000,0.000000000,0.231552000,0.000000000,0.000000000,0.024000000,0.000000000,0.000000000,1720620322.551715612,,,,,,,,,,,
1720620322.566199,-0.055198000,0.000000000,0.000000000,-1.193885000,0.000000000,0.000000000,1.021878000,0.000000000,0.000000000,-0.028128000,0.000000000,0.000000000,0.230752000,0.000000000,0.000000000,0.023808000,0.000000000,0.000000000,1720620322.559715748,,,,,,,,,,,
1720620322.576035,-0.055198000,0.000000000,0.000000000,-1.193885000,0.000000000,0.000000000,1.021878000,0.000000000,0.000000000,-0.028128000,0.000000000,0.000000000,0.230560000,0.000000000,0.000000000,0.023680000,0.000000000,0.000000000,1720620322.570715666,,,,,,,,,,,
1720620322.576567,-0.055198000,0.000000000,0.000000000,-1.193885000,0.000000000,0.000000000,1.021878000,0.000000000,0.000000000,-0.028128000,0.000000000,0.000000000,0.230560000,0.000000000,0.000000000,0.023680000,0.000000000,0.000000000,1720620322.571715593,,,,,,,,,,,
1720620322.577629,-0.055198000,0.000000000,0.000000000,-1.193885000,0.000000000,0.000000000,1.021878000,0.000000000,0.000000000,-0.028128000,0.000000000,0.000000000,0.230560000,0.000000000,0.000000000,0.023680000,0.000000000,0.000000000,1720620322.572715759,,,,,,,,,,,
1720620322.582139,-0.055198000,0.000000000,0.000000000,-1.194963000,0.000000000,0.000000000,1.021878000,0.000000000,0.000000000,-0.028128000,0.000000000,0.000000000,0.230496000,0.000000000,0.000000000,0.022496000,0.000038380,0.009134350,1720620322.576715708,,,,,,,,,,,
1720620322.589068,-0.055198000,0.000000000,0.000000000,-1.194963000,0.000000000,0.000000000,1.021878000,0.000000000,0.000000000,-0.028128000,0.000000000,0.000000000,0.230752000,0.000000000,0.000000000,0.022432000,0.000000000,0.000000000,1720620322.583715677,,,,,,,,,,,
1720620322.589700,-0.055198000,0.000000000,0.000000000,-1.194963000,0.000000000,0.000000000,1.021878000,0.000000000,0.000000000,-0.028128000,0.000000000,0.000000000,0.230752000,0.000000000,0.000000000,0.022432000,0.000000000,0.000000000,1720620322.584715605,,,,,,,,,,,
1720620322.593792,-0.055198000,0.000000000,0.000000000,-1.194963000,0.000000000,0.000000000,1.021878000,0.000000000,0.000000000,-0.028128000,0.000000000,0.000000000,0.230752000,0.000000000,0.000000000,0.023808000,0.000000000,0.000000000,1720620322.588715792,,,,,,,,,,,
1720620322.601200,-0.055198000,0.000000000,0.000000000,-1.194963000,0.000000000,0.000000000,1.021878000,0.000000000,0.000000000,-0.028128000,0.000000000,0.000000000,0.231008000,0.000000000,0.000000000,0.023552000,0.000000000,0.000000000,1720620322.595715761,,,,,,,,,,,
1720620322.602459,-0.055198000,0.000000000,0.000000000,-1.194963000,0.000000000,0.000000000,1.021878000,0.000000000,0.000000000,-0.028128000,0.000000000,0.000000000,0.231008000,0.000000000,0.000000000,0.023552000,0.000000000,0.000000000,1720620322.596715689,,,,,,,,,,,
1720620322.605960,-0.055198000,0.000000000,0.000000000,-1.194963000,0.000000000,0.000000000,1.021878000,0.000000000,0.000000000,-0.028128000,0.000000000,0.000000000,0.230752000,0.000000000,0.000000000,0.023360000,0.000000000,0.000000000,1720620322.600715637,,,,,,,,,,,
1720620322.610068,,,,,,,,,,,,,,,,,,,,1720620322.595715761,-1.186824000,3.141592654,0.000000015,0.829037542,-0.000000022,-0.000000054,0.559192949,1.395152983,0.001110973,1.481517837
1720620322.612965,-0.055198000,0.000000000,0.000000000,-1.194963000,0.000000000,0.000000000,1.021878000,0.000000000,0.000000000,-0.028128000,0.000000000,0.000000000,0.230688000,0.000000000,0.000000000,0.022944000,0.000000000,0.000000000,1720620322.607715607,,,,,,,,,,,
1720620322.613835,-0.055198000,0.000000000,0.000000000,-1.194963000,0.000000000,0.000000000,1.021878000,0.000000000,0.000000000,-0.028128000,0.000000000,0.000000000,0.230688000,0.000000000,0.000000000,0.022944000,0.000000000,0.000000000,1720620322.608715773,,,,,,,,,,,
1720620322.617712,-0.055198000,0.000000000,0.000000000,-1.194963000,0.000000000,0.000000000,1.021878000,0.000000000,0.000000000,-0.028128000,0.000000000,0.000000000,0.231072000,0.000000000,0.000000000,0.023872000,0.000000000,0.000000000,1720620322.612715721,,,,,,,,,,,
1720620322.625088,-0.056914000,0.000000000,0.000000000,-1.195502000,0.000000000,0.000000000,1.021878000,0.000000000,0.000000000,-0.028128000,0.000000000,0.000000000,0.231008000,0.000000000,0.000000000,0.024480000,0.000000000,0.000000000,1720620322.619715691,,,,,,,,,,,
1720620322.626346,-0.056914000,0.000000000,0.000000000,-1.195502000,0.000000000,0.000000000,1.021878000,0.000000000,0.000000000,-0.028128000,0.000000000,0.000000000,0.231008000,0.000000000,0.000000000,0.024480000,0.000000000,0.000000000,1720620322.620715618,,,,,,,,,,,
1720620322.629642,-0.056342000,0.000000000,0.000000000,-1.195502000,0.000000000,0.000000000,1.019304000,0.000000000,0.000000000,-0.028128000,0.000000000,0.000000000,0.231296000,0.000000000,0.000000000,0.022080000,0.000038380,0.009134350,1720620322.624715805,,,,,,,,,,,
1720620322.637127,-0.056914000,0.000000000,0.000000000,-1.195502000,0.000000000,0.000000000,1.020448000,0.000000000,0.000000000,-0.028128000,0.000000000,0.000000000,0.231232000,0.000000000,0.000000000,0.022688000,0.000000000,0.000000000,1720620322.631715775,,,,,,,,,,,
1720620322.637691,-0.056914000,0.000000000,0.000000000,-1.195502000,0.000000000,0.000000000,1.020448000,0.000000000,0.000000000,-0.028128000,0.000000000,0.000000000,0.231232000,0.000000000,0.000000000,0.022688000,0.000000000,0.000000000,1720620322.632715702,,,,,,,,,,,
1720620322.642107,-0.056342000,0.000000000,0.000000000,-1.195502000,0.000000000,0.000000000,1.021020000,0.000000000,0.000000000,-0.028128000,0.000000000,0.000000000,0.230944000,0.000000000,0.000000000,0.023488000,0.000000000,0.000000000,1720620322.636715651,,,,,,,,,,,
1720620322.649332,-0.054912000,0.000000000,0.000000000,-1.192807000,0.000000000,0.000000000,1.021306000,0.000000000,0.000000000,-0.028128000,0.000000000,0.000000000,0.230752000,0.000000000,0.000000000,0.024608000,0.000000000,0.009134350,1720620322.643715620,,,,,,,,,,,
1720620322.649860,-0.054912000,0.000000000,0.000000000,-1.192807000,0.000000000,0.000000000,1.021306000,0.000000000,0.000000000,-0.028128000,0.000000000,0.000000000,0.230752000,0.000000000,0.000000000,0.024608000,0.000000000,0.009134350,1720620322.644715786,,,,,,,,,,,
1720620322.653780,-0.054912000,0.000000000,0.000000000,-1.192807000,0.000000000,0.000000000,1.021306000,0.000000000,0.000000000,-0.028128000,0.000000000,0.000000000,0.230880000,0.000000000,0.000000000,0.022208000,0.000038380,0.009134350,1720620322.648715734,,,,,,,,,,,
1720620322.659989,,,,,,,,,,,,,,,,,,,,1720620322.648715734,-1.186823998,3.141490200,0.000015924,0.829037542,0.000010709,0.000094939,0.559192948,1.395152983,0.001108959,1.481517794
1720620322.669243,-0.054912000,0.000000000,0.000000000,-1.191190000,0.000000000,0.000000000,1.021306000,0.000000000,0.000000000,-0.028128000,0.000000000,0.000000000,0.230944000,0.000000000,0.000000000,0.023872000,0.000000000,0.000000000,1720620322.658715725,,,,,,,,,,,
1720620322.672928,-0.055770000,0.000000000,0.000000000,-1.191190000,0.000000000,0.000000000,1.021306000,0.000000000,0.000000000,-0.028128000,0.000000000,0.000000000,0.230944000,0.000000000,0.000000000,0.024064000,0.000000000,0.000000000,1720620322.667715788,,,,,,,,,,,
1720620322.681229,-0.055770000,0.000000000,0.000000000,-1.192807000,0.000000000,0.000000000,1.021306000,0.000000000,0.000000000,-0.028128000,0.000000000,0.000000000,0.230752000,0.000000000,0.000000000,0.023872000,0.000000000,0.000000000,1720620322.675715685,,,,,,,,,,,
1720620322.682301,-0.055770000,0.000000000,0.000000000,-1.192807000,0.000000000,0.000000000,1.021306000,0.000000000,0.000000000,-0.028128000,0.000000000,0.000000000,0.230752000,0.000000000,0.000000000,0.023872000,0.000000000,0.000000000,1720620322.676715612,,,,,,,,,,,
1720620322.684038,-0.055198000,0.000000000,0.000000000,-1.193885000,0.000000000,0.000000000,1.021306000,0.000000000,0.000000000,-0.028128000,0.000000000,0.000000000,0.231008000,0.000000000,0.000000000,0.022272000,0.000038380,0.009134350,1720620322.678715706,,,,,,,,,,,
1720620322.694060,-0.055198000,0.000000000,0.000000000,-1.195502000,0.000000000,0.000000000,1.021306000,0.000000000,0.000000000,-0.028128000,0.000000000,0.000000000,0.230144000,0.000000000,0.000000000,0.021632000,0.000038380,0.009134350,1720620322.688715696,,,,,,,,,,,
1720620322.704508,-0.055198000,0.000000000,0.000000000,-1.195502000,0.000000000,0.000000000,1.021306000,0.000000000,0.000000000,-0.028128000,0.000000000,0.000000000,0.230752000,0.000000000,0.000000000,0.024288000,0.000000000,0.009134350,1720620322.698715687,,,,,,,,,,,
1720620322.704830,-0.055198000,0.000000000,0.000000000,-1.195502000,0.000000000,0.000000000,1.021306000,0.000000000,0.000000000,-0.028128000,0.000000000,0.000000000,0.230752000,0.000000000,0.000000000,0.024288000,0.000000000,0.009134350,1720620322.699715614,,,,,,,,,,,
1720620322.706445,-0.055198000,0.000000000,0.000000000,-1.195502000,0.000000000,0.000000000,1.021306000,0.000000000,0.000000000,-0.028128000,0.000000000,0.000000000,0.230752000,0.000000000,0.000000000,0.024288000,0.000000000,0.009134350,1720620322.700715780,,,,,,,,,,,
1720620322.707829,-0.055198000,0.000000000,0.000000000,-1.195502000,0.000000000,0.000000000,1.021306000,0.000000000,0.000000000,-0.028128000,0.000000000,0.000000000,0.231168000,0.000000000,0.000000000,0.022560000,0.000038380,0.009134350,1720620322.702715635,,,,,,,,,,,
1720620322.710141,,,,,,,,,,,,,,,,,,,,1720620322.698715687,-1.186824000,3.141592654,0.000000015,0.829037542,-0.000000022,-0.000000054,0.559192949,1.395152983,0.001110973,1.481517837
1720620322.717453,-0.055198000,0.000000000,0.000000000,-1.194963000,0.000000000,0.000000000,1.021306000,0.000000000,0.000000000,-0.028128000,0.000000000,0.000000000,0.231488000,0.000000000,0.000000000,0.022880000,0.000000000,0.000000000,1720620322.711715698,,,,,,,,,,,
1720620322.717841,-0.055198000,0.000000000,0.000000000,-1.194963000,0.000000000,0.000000000,1.021306000,0.000000000,0.000000000,-0.028128000,0.000000000,0.000000000,0.231488000,0.000000000,0.000000000,0.022880000,0.000000000,0.000000000,1720620322.712715626,,,,,,,,,,,
1720620322.719881,-0.055198000,0.000000000,0.000000000,-1.194963000,0.000000000,0.000000000,1.021306000,0.000000000,0.000000000,-0.028128000,0.000000000,0.000000000,0.230432000,0.000000000,0.000000000,0.023488000,0.000000000,0.000000000,1720620322.714715719,,,,,,,,,,,
1720620322.729534,-0.055198000,0.000000000,0.000000000,-1.193885000,0.000000000,0.000000000,1.021306000,0.000000000,0.000000000,-0.028128000,0.000000000,0.000000000,0.231168000,0.000000000,0.000000000,0.023136000,0.000000000,0.000000000,1720620322.723715782,,,,,,,,,,,
1720620322.729936,-0.055198000,0.000000000,0.000000000,-1.193885000,0.000000000,0.000000000,1.021306000,0.000000000,0.000000000,-0.028128000,0.000000000,0.000000000,0.231168000,0.000000000,0.000000000,0.023136000,0.000000000,0.000000000,1720620322.724715710,,,,,,,,,,,
1720620322.733222,-0.055198000,0.000000000,0.000000000,-1.193885000,0.000000000,0.000000000,1.021306000,0.000000000,0.000000000,-0.028128000,0.000000000,0.000000000,0.230816000,0.000000000,0.000000000,0.024064000,0.000000000,0.000000000,1720620322.725715637,,,,,,,,,,,
1720620322.741402,-0.055198000,0.000000000,0.000000000,-1.187417000,0.000000000,0.000000000,1.021306000,0.000000000,0.000000000,-0.028128000,0.000000000,0.000000000,0.231296000,0.000000000,0.000000000,0.023808000,0.000000000,0.000000000,1720620322.735715628,,,,,,,,,,,
1720620322.741917,-0.055198000,0.000000000,0.000000000,-1.187417000,0.000000000,0.000000000,1.021306000,0.000000000,0.000000000,-0.028128000,0.000000000,0.000000000,0.231296000,0.000000000,0.000000000,0.023808000,0.000000000,0.000000000,1720620322.736715794,,,,,,,,,,,
1720620322.744336,-0.055198000,0.000000000,0.000000000,-1.192268000,0.000000000,0.000000000,1.021306000,0.000000000,0.000000000,-0.028128000,0.000000000,0.000000000,0.230816000,0.000000000,0.000000000,0.023136000,0.000000000,0.000000000,1720620322.738715649,,,,,,,,,,,
1720620322.753198,-0.055198000,0.000000000,0.000000000,-1.196580000,0.000000000,0.000000000,1.021306000,0.000000000,0.000000000,-0.028128000,0.000000000,0.000000000,0.230560000,0.000000000,0.000000000,0.023200000,0.000000000,0.000000000,1720620322.747715712,,,,,,,,,,,
1720620322.756352,-0.055198000,0.000000000,0.000000000,-1.196580000,0.000000000,0.000000000,1.021306000,0.000000000,0.000000000,-0.028128000,0.000000000,0.000000000,0.230560000,0.000000000,0.000000000,0.023200000,0.000000000,0.000000000,1720620322.748715639,,,,,,,,,,,
1720620322.759869,,,,,,,,,,,,,,,,,,,,1720620322.748715639,-1.186824000,3.141592654,0.000000015,0.829037542,-0.000000022,-0.000000054,0.559192949,1.395152983,0.001110973,1.481517837
1720620322.766607,-0.055198000,0.000000000,0.000000000,-1.195502000,0.000000000,0.000000000,1.021306000,0.000000000,0.000000000,-0.028128000,0.000000000,0.000000000,0.231296000,0.000000000,0.000000000,0.023552000,0.000000000,0.000000000,1720620322.760715723,,,,,,,,,,,
1720620322.777204,-0.055198000,0.000000000,0.000000000,-1.165857000,0.000000000,0.000000000,1.021306000,0.000000000,0.000000000,-0.028128000,0.000000000,0.000000000,0.231488000,0.000000000,0.000000000,0.022624000,0.000000000,0.000000000,1720620322.771715641,,,,,,,,,,,
1720620322.784466,-0.055198000,0.000000000,0.000000000,-1.192268000,0.000000000,0.000000000,1.021306000,0.000000000,0.000000000,-0.028128000,0.000000000,0.000000000,0.231072000,0.000000000,0.000000000,0.022816000,0.000000000,0.000000000,1720620322.778715611,,,,,,,,,,,
1720620322.786920,-0.055198000,0.000000000,0.000000000,-1.192268000,0.000000000,0.000000000,1.021306000,0.000000000,0.000000000,-0.028128000,0.000000000,0.000000000,0.231072000,0.000000000,0.000000000,0.022816000,0.000000000,0.000000000,1720620322.780715704,,,,,,,,,,,
1720620322.790064,-0.055198000,0.000000000,0.000000000,-1.187417000,0.000000000,0.000000000,1.021306000,0.000000000,0.000000000,-0.028128000,0.000000000,0.000000000,0.230368000,0.000000000,0.000000000,0.024224000,0.000000000,0.000000000,1720620322.784715652,,,,,,,,,,,
1720620322.798449,-0.055198000,0.000000000,0.000000000,-1.190112000,0.000000000,0.000000000,1.021306000,0.000000000,0.000000000,-0.028128000,0.000000000,0.000000000,0.230496000,0.000000000,0.000000000,0.023872000,0.000000000,0.000000000,1720620322.792715788,,,,,,,,,,,
1720620322.802209,-0.055198000,0.000000000,0.000000000,-1.224069000,0.000000000,0.000000000,1.021306000,0.000000000,0.000000000,-0.028128000,0.000000000,0.000000000,0.230944000,0.000000000,0.000000000,0.022624000,0.000000000,0.000000000,1720620322.796715736,,,,,,,,,,,
1720620322.809564,-0.057486000,0.000000000,0.000000000,-1.195502000,0.000000000,0.000000000,1.021306000,0.000000000,0.000000000,-0.028128000,0.000000000,0.000000000,0.230688000,0.000000000,0.000000000,0.022688000,0.000000000,0.000000000,1720620322.803715706,,,,,,,,,,,
1720620322.810135,-0.057486000,0.000000000,0.000000000,-1.195502000,0.000000000,0.000000000,1.021306000,0.000000000,0.000000000,-0.028128000,0.000000000,0.000000000,0.230688000,0.000000000,0.000000000,0.022688000,0.000000000,0.000000000,1720620322.804715633,,,,,,,,,,,
1720620322.816432,-0.056342000,0.000000000,0.000000000,-1.195502000,0.000000000,0.000000000,1.021306000,0.000000000,0.000000000,-0.028128000,0.000000000,0.000000000,0.230688000,0.000000000,0.000000000,0.022496000,0.000038380,0.009134350,1720620322.810715675,,,,,,,,,,,
1720620322.820100,,,,,,,,,,,,,,,,,,,,1720620322.803715706,-1.186824000,3.141592654,0.000000015,0.829037542,-0.000000022,-0.000000054,0.559192949,1.395152983,0.001110973,1.481517837
1720620322.822358,-0.056342000,0.000000000,0.000000000,-1.195502000,0.000000000,0.000000000,1.021306000,0.000000000,0.000000000,-0.028128000,0.000000000,0.000000000,0.230432000,0.000000000,0.000000000,0.024224000,0.000000000,0.009134350,1720620322.816715717,,,,,,,,,,,
1720620322.824291,-0.055770000,0.000000000,0.000000000,-1.195502000,0.000000000,0.000000000,1.021306000,0.000000000,0.000000000,-0.028128000,0.000000000,0.000000000,0.231008000,0.000000000,0.000000000,0.022752000,0.000038380,0.009134350,1720620322.818715811,,,,,,,,,,,
1720620322.829463,-0.055198000,0.000000000,0.000000000,-1.195502000,0.000000000,0.000000000,1.021306000,0.000000000,0.000000000,-0.028128000,0.000000000,0.000000000,0.231008000,0.000000000,0.000000000,0.024000000,0.000000000,0.009134350,1720620322.823715687,,,,,,,,,,,
1720620322.836938,-0.055198000,0.000000000,0.000000000,-1.195502000,0.000000000,0.000000000,1.020448000,0.000000000,0.000000000,-0.028128000,0.000000000,0.000000000,0.231072000,0.000000000,0.000000000,0.023616000,0.000000000,0.000000000,1720620322.830715656,,,,,,,,,,,
1720620322.839937,-0.055198000,0.000000000,0.000000000,-1.194963000,0.000000000,0.000000000,1.020448000,0.000000000,0.000000000,-0.028128000,0.000000000,0.000000000,0.229952000,0.000000000,0.000000000,0.023296000,0.000000000,0.000000000,1720620322.834715605,,,,,,,,,,,
1720620322.853368,-0.055198000,0.000000000,0.000000000,-1.188495000,0.000000000,0.000000000,1.020448000,0.000000000,0.000000000,-0.028128000,0.000000000,0.000000000,0.230944000,0.000000000,0.000000000,0.023808000,0.000000000,0.000000000,1720620322.847715616,,,,,,,,,,,
1720620322.859839,-0.055198000,0.000000000,0.000000000,-1.221913000,0.000000000,0.000000000,1.020448000,0.000000000,0.000000000,-0.028128000,0.000000000,0.000000000,0.230816000,0.000000000,0.000000000,0.023936000,0.000000000,0.000000000,1720620322.853715658,,,,,,,,,,,
1720620322.870064,,,,,,,,,,,,,,,,,,,,1720620322.853715658,-1.186824000,3.141592654,0.000000015,0.829037542,-0.000000022,-0.000000054,0.559192949,1.395152983,0.001110973,1.481517837
1720620322.872308,-0.055198000,0.000000000,0.000000000,-1.193885000,0.000000000,0.000000000,1.020448000,0.000000000,0.000000000,-0.028128000,0.000000000,0.000000000,0.230880000,0.000000000,0.000000000,0.022336000,0.000038380,0.009134350,1720620322.866715670,,,,,,,,,,,
1720620322.879518,-0.055198000,0.000000000,0.000000000,-1.185800000,0.000000000,0.000000000,1.020448000,0.000000000,0.000000000,-0.028128000,0.000000000,0.000000000,0.230880000,0.000000000,0.000000000,0.023872000,0.000000000,0.009134350,1720620322.872715712,,,,,,,,,,,
1720620322.888613,-0.055198000,0.000000000,0.000000000,-1.190112000,0.000000000,0.000000000,1.020448000,0.000000000,0.000000000,-0.028128000,0.000000000,0.000000000,0.230880000,0.000000000,0.000000000,0.022688000,0.000000000,0.000000000,1720620322.882715702,,,,,,,,,,,
1720620322.890057,-0.055198000,0.000000000,0.000000000,-1.190112000,0.000000000,0.000000000,1.020448000,0.000000000,0.000000000,-0.028128000,0.000000000,0.000000000,0.230880000,0.000000000,0.000000000,0.022688000,0.000000000,0.000000000,1720620322.883715630,,,,,,,,,,,
1720620322.902574,-0.055198000,0.000000000,0.000000000,-1.192807000,0.000000000,0.000000000,1.020448000,0.000000000,0.000000000,-0.028128000,0.000000000,0.000000000,0.230432000,0.000000000,0.000000000,0.023872000,0.000000000,0.000000000,1720620322.896715641,,,,,,,,,,,
1720620322.914595,-0.055198000,0.000000000,0.000000000,-1.195502000,0.000000000,0.000000000,1.020448000,0.000000000,0.000000000,-0.028128000,0.000000000,0.000000000,0.230880000,0.000000000,0.000000000,0.022944000,0.000000000,0.000000000,1720620322.908715725,,,,,,,,,,,
1720620322.920062,,,,,,,,,,,,,,,,,,,,1720620322.908715725,-1.186824000,3.141592654,0.000000015,0.829037542,-0.000000022,-0.000000054,0.559192949,1.395152983,0.001110973,1.481517837
1720620322.922292,-0.055198000,0.000000000,0.000000000,-1.195502000,0.000000000,0.000000000,1.020448000,0.000000000,0.000000000,-0.028128000,0.000000000,0.000000000,0.230752000,0.000000000,0.000000000,0.023360000,0.000000000,0.000000000,1720620322.915715694,,,,,,,,,,,
1720620322.922430,-0.055198000,0.000000000,0.000000000,-1.195502000,0.000000000,0.000000000,1.020448000,0.000000000,0.000000000,-0.028128000,0.000000000,0.000000000,0.230752000,0.000000000,0.000000000,0.023360000,0.000000000,0.000000000,1720620322.916715622,,,,,,,,,,,
1720620322.928422,-0.055198000,0.000000000,0.000000000,-1.206282000,0.000000000,0.000000000,1.020448000,0.000000000,0.000000000,-0.028128000,0.000000000,0.000000000,0.231424000,0.000000000,0.000000000,0.023008000,0.000000000,0.000000000,1720620322.922715664,,,,,,,,,,,
1720620322.934943,-0.055198000,0.000000000,0.000000000,-1.195502000,0.000000000,0.000000000,1.020448000,0.000000000,0.000000000,-0.028128000,0.000000000,0.000000000,0.230368000,0.000000000,0.000000000,0.023424000,0.000000000,0.000000000,1720620322.928715706,,,,,,,,,,,
1720620322.937264,-0.055198000,0.000000000,0.000000000,-1.164779000,0.000000000,0.000000000,1.020448000,0.000000000,0.000000000,-0.028128000,0.000000000,0.000000000,0.230624000,0.000000000,0.000000000,0.023360000,0.000000000,0.000000000,1720620322.930715799,,,,,,,,,,,
1720620322.938586,-0.055198000,0.000000000,0.000000000,-1.164779000,0.000000000,0.000000000,1.020448000,0.000000000,0.000000000,-0.028128000,0.000000000,0.000000000,0.230624000,0.000000000,0.000000000,0.023360000,0.000000000,0.000000000,1720620322.932715654,,,,,,,,,,,
1720620322.940502,-0.055198000,0.000000000,0.000000000,-1.195502000,0.000000000,0.000000000,1.020448000,0.000000000,0.000000000,-0.028128000,0.000000000,0.000000000,0.230944000,0.000000000,0.000000000,0.023200000,0.000000000,0.000000000,1720620322.934715748,,,,,,,,,,,
1720620322.944428,-0.055198000,0.000000000,0.000000000,-1.193885000,0.000000000,0.000000000,1.020448000,0.000000000,0.000000000,-0.028128000,0.000000000,0.000000000,0.231232000,0.000000000,0.000000000,0.023552000,0.000000000,0.000000000,1720620322.938715696,,,,,,,,,,,
1720620322.952538,-0.055198000,0.000000000,0.000000000,-1.192807000,0.000000000,0.000000000,1.020448000,0.000000000,0.000000000,-0.028128000,0.000000000,0.000000000,0.230080000,0.000000000,0.000000000,0.023680000,0.000000000,0.000000000,1720620322.946715593,,,,,,,,,,,
1720620322.956738,-0.055198000,0.000000000,0.000000000,-1.192807000,0.000000000,0.000000000,1.020448000,0.000000000,0.000000000,-0.028128000,0.000000000,0.000000000,0.231424000,0.000000000,0.000000000,0.023072000,0.000000000,0.000000000,1720620322.950715780,,,,,,,,,,,
1720620322.968231,-0.055198000,0.000000000,0.000000000,-1.193885000,0.000000000,0.000000000,1.020448000,0.000000000,0.000000000,-0.028128000,0.000000000,0.000000000,0.230624000,0.000000000,0.000000000,0.024128000,0.000000000,0.000000000,1720620322.962715626,,,,,,,,,,,
1720620322.970050,,,,,,,,,,,,,,,,,,,,1720620322.962715626,-1.186824000,3.141592654,0.000000015,0.829037542,-0.000000022,-0.000000054,0.559192949,1.395152983,0.001110973,1.481517837
1720620322.974688,-0.055198000,0.000000000,0.000000000,-1.193885000,0.000000000,0.000000000,1.020448000,0.000000000,0.000000000,-0.028128000,0.000000000,0.000000000,0.231168000,0.000000000,0.000000000,0.022752000,0.000000000,0.000000000,1720620322.968715668,,,,,,,,,,,
1720620322.976953,-0.055198000,0.000000000,0.000000000,-1.194963000,0.000000000,0.000000000,1.020448000,0.000000000,0.000000000,-0.028128000,0.000000000,0.000000000,0.231232000,0.000000000,0.000000000,0.023936000,0.000000000,0.000000000,1720620322.970715761,,,,,,,,,,,
1720620322.980093,-0.055198000,0.000000000,0.000000000,-1.194963000,0.000000000,0.000000000,1.020448000,0.000000000,0.000000000,-0.028128000,0.000000000,0.000000000,0.230368000,0.000000000,0.000000000,0.022816000,0.000000000,0.000000000,1720620322.974715710,,,,,,,,,,,
1720620322.988511,-0.055198000,0.000000000,0.000000000,-1.194963000,0.000000000,0.000000000,1.020448000,0.000000000,0.000000000,-0.028128000,0.000000000,0.000000000,0.231360000,0.000000000,0.000000000,0.023360000,0.000000000,0.000000000,1720620322.982715607,,,,,,,,,,,
1720620322.992427,-0.055198000,0.000000000,0.000000000,-1.194963000,0.000000000,0.000000000,1.020448000,0.000000000,0.000000000,-0.028128000,0.000000000,0.000000000,0.229824000,0.000000000,0.000000000,0.023360000,0.000000000,0.000000000,1720620322.986715794,,,,,,,,,,,
1720620323.000702,-0.055198000,0.000000000,0.000000000,-1.194963000,0.000000000,0.000000000,1.020448000,0.000000000,0.000000000,-0.028128000,0.000000000,0.000000000,0.230752000,0.000000000,0.000000000,0.023072000,0.000000000,0.000000000,1720620322.994715691,,,,,,,,,,,
1720620323.004569,-0.055198000,0.000000000,0.000000000,-1.194963000,0.000000000,0.000000000,1.020448000,0.000000000,0.000000000,-0.028128000,0.000000000,0.000000000,0.230496000,0.000000000,0.000000000,0.023680000,0.000000000,0.000000000,1720620322.998715639,,,,,,,,,,,
1720620323.012531,-0.055198000,0.000000000,0.000000000,-1.194963000,0.000000000,0.000000000,1.020448000,0.000000000,0.000000000,-0.028128000,0.000000000,0.000000000,0.231008000,0.000000000,0.000000000,0.022688000,0.000000000,0.000000000,1720620323.006715775,,,,,,,,,,,
1720620323.016532,-0.055198000,0.000000000,0.000000000,-1.194963000,0.000000000,0.000000000,1.020448000,0.000000000,0.000000000,-0.028128000,0.000000000,0.000000000,0.230944000,0.000000000,0.000000000,0.023488000,0.000000000,0.000000000,1720620323.010715723,,,,,,,,,,,
1720620323.024816,-0.055198000,0.000000000,0.000000000,-1.189573000,0.000000000,0.000000000,1.020448000,0.000000000,0.000000000,-0.028128000,0.000000000,0.000000000,0.231360000,0.000000000,0.000000000,0.023552000,0.000000000,0.000000000,1720620323.018715620,,,,,,,,,,,
1720620323.028475,-0.055198000,0.000000000,0.000000000,-1.192807000,0.000000000,0.000000000,1.020448000,0.000000000,0.000000000,-0.028128000,0.000000000,0.000000000,0.230688000,0.000000000,0.000000000,0.022880000,0.000000000,0.000000000,1720620323.022715807,,,,,,,,,,,
1720620323.030023,,,,,,,,,,,,,,,,,,,,1720620323.018715620,-1.186824000,3.141592654,0.000000015,0.829037542,-0.000000022,-0.000000054,0.559192949,1.395152983,0.001110973,1.481517837
1720620323.037381,-0.055198000,0.000000000,0.000000000,-1.187417000,0.000000000,0.000000000,1.020448000,0.000000000,0.000000000,-0.028128000,0.000000000,0.000000000,0.231008000,0.000000000,0.000000000,0.023744000,0.000000000,0.000000000,1720620323.030715704,,,,,,,,,,,
1720620323.042148,-0.055198000,0.000000000,0.000000000,-1.192807000,0.000000000,0.000000000,1.017302000,0.000000000,0.000000000,-0.028128000,0.000000000,0.000000000,0.231616000,0.000000000,0.000000000,0.022816000,0.000000000,0.000000000,1720620323.035715580,,,,,,,,,,,
1720620323.048523,-0.055198000,0.000000000,0.000000000,-1.197119000,0.000000000,0.000000000,1.020448000,0.000000000,0.000000000,-0.028128000,0.000000000,0.000000000,0.231168000,0.000000000,0.000000000,0.023424000,0.000000000,0.000000000,1720620323.042715788,,,,,,,,,,,
1720620323.049549,-0.055198000,0.000000000,0.000000000,-1.197119000,0.000000000,0.000000000,1.020448000,0.000000000,0.000000000,-0.028128000,0.000000000,0.000000000,0.231168000,0.000000000,0.000000000,0.023424000,0.000000000,0.000000000,1720620323.043715715,,,,,,,,,,,
1720620323.053360,-0.055198000,0.000000000,0.000000000,-1.201970000,0.000000000,0.000000000,1.020448000,0.000000000,0.000000000,-0.028128000,0.000000000,0.000000000,0.230944000,0.000000000,0.000000000,0.023072000,0.000000000,0.000000000,1720620323.047715664,,,,,,,,,,,
1720620323.060912,-0.055198000,0.000000000,0.000000000,-1.166396000,0.000000000,0.000000000,1.020448000,0.000000000,0.000000000,-0.028128000,0.000000000,0.000000000,0.231360000,0.000000000,0.000000000,0.022688000,0.000000000,0.000000000,1720620323.054715633,,,,,,,,,,,
1720620323.062272,-0.055198000,0.000000000,0.000000000,-1.166396000,0.000000000,0.000000000,1.020448000,0.000000000,0.000000000,-0.028128000,0.000000000,0.000000000,0.231360000,0.000000000,0.000000000,0.022688000,0.000000000,0.000000000,1720620323.055715799,,,,,,,,,,,
1720620323.065610,-0.055198000,0.000000000,0.000000000,-1.190112000,0.000000000,0.000000000,1.020448000,0.000000000,0.000000000,-0.028128000,0.000000000,0.000000000,0.231232000,0.000000000,0.000000000,0.023936000,0.000000000,0.000000000,1720620323.059715748,,,,,,,,,,,
1720620323.073061,-0.055198000,0.000000000,0.000000000,-1.191190000,0.000000000,0.000000000,1.020448000,0.000000000,0.000000000,-0.028128000,0.000000000,0.000000000,0.230752000,0.000000000,0.000000000,0.023744000,0.000000000,0.000000000,1720620323.066715717,,,,,,,,,,,
1720620323.073522,-0.055198000,0.000000000,0.000000000,-1.191190000,0.000000000,0.000000000,1.020448000,0.000000000,0.000000000,-0.028128000,0.000000000,0.000000000,0.230752000,0.000000000,0.000000000,0.023744000,0.000000000,0.000000000,1720620323.067715645,,,,,,,,,,,
1720620323.077857,-0.055198000,0.000000000,0.000000000,-1.199814000,0.000000000,0.000000000,1.020448000,0.000000000,0.000000000,-0.028128000,0.000000000,0.000000000,0.231232000,0.000000000,0.000000000,0.023136000,0.000000000,0.000000000,1720620323.071715593,,,,,,,,,,,
1720620323.079903,,,,,,,,,,,,,,,,,,,,1720620323.071715593,-1.186824000,3.141592654,0.000000015,0.829037542,-0.000000022,-0.000000054,0.559192949,1.395152983,0.001110973,1.481517837
1720620323.085047,-0.055198000,0.000000000,0.000000000,-1.199814000,0.000000000,0.000000000,1.020448000,0.000000000,0.000000000,-0.028128000,0.000000000,0.000000000,0.230880000,0.000000000,0.000000000,0.023360000,0.000000000,0.000000000,1720620323.078715801,,,,,,,,,,,
1720620323.085690,-0.055198000,0.000000000,0.000000000,-1.199814000,0.000000000,0.000000000,1.020448000,0.000000000,0.000000000,-0.028128000,0.000000000,0.000000000,0.230880000,0.000000000,0.000000000,0.023360000,0.000000000,0.000000000,1720620323.079715729,,,,,,,,,,,
1720620323.089681,-0.055198000,0.000000000,0.000000000,-1.194963000,0.000000000,0.000000000,1.020448000,0.000000000,0.000000000,-0.028128000,0.000000000,0.000000000,0.230304000,0.000000000,0.000000000,0.023296000,0.000000000,0.000000000,1720620323.083715677,,,,,,,,,,,
1720620323.097181,-0.055198000,0.000000000,0.000000000,-1.194963000,0.000000000,0.000000000,1.020448000,0.000000000,0.000000000,-0.028128000,0.000000000,0.000000000,0.231808000,0.000000000,0.000000000,0.023200000,0.000000000,0.000000000,1720620323.090715647,,,,,,,,,,,
1720620323.098379,-0.055198000,0.000000000,0.000000000,-1.194963000,0.000000000,0.000000000,1.020448000,0.000000000,0.000000000,-0.028128000,0.000000000,0.000000000,0.231808000,0.000000000,0.000000000,0.023200000,0.000000000,0.000000000,1720620323.091715813,,,,,,,,,,,
1720620323.102256,-0.055198000,0.000000000,0.000000000,-1.194963000,0.000000000,0.000000000,1.020448000,0.000000000,0.000000000,-0.028128000,0.000000000,0.000000000,0.230208000,0.000000000,0.000000000,0.023072000,0.000000000,0.000000000,1720620323.095715761,,,,,,,,,,,
1720620323.109421,-0.055198000,0.000000000,0.000000000,-1.194963000,0.000000000,0.000000000,1.020448000,0.000000000,0.000000000,-0.028128000,0.000000000,0.000000000,0.230560000,0.000000000,0.000000000,0.022080000,0.000000000,0.000000000,1720620323.102715731,,,,,,,,,,,
1720620323.109853,-0.055198000,0.000000000,0.000000000,-1.194963000,0.000000000,0.000000000,1.020448000,0.000000000,0.000000000,-0.028128000,0.000000000,0.000000000,0.230560000,0.000000000,0.000000000,0.022080000,0.000000000,0.000000000,1720620323.103715658,,,,,,,,,,,
1720620323.113825,-0.055198000,0.000000000,0.000000000,-1.194963000,0.000000000,0.000000000,1.020448000,0.000000000,0.000000000,-0.028128000,0.000000000,0.000000000,0.230560000,0.000000000,0.000000000,0.024480000,0.000000000,0.000000000,1720620323.107715607,,,,,,,,,,,
1720620323.121096,-0.055198000,0.000000000,0.000000000,-1.192807000,0.000000000,0.000000000,1.020448000,0.000000000,0.000000000,-0.028128000,0.000000000,0.000000000,0.230752000,0.000000000,0.000000000,0.024672000,0.000000000,0.009134350,1720620323.114715576,,,,,,,,,,,
1720620323.122336,-0.055198000,0.000000000,0.000000000,-1.192807000,0.000000000,0.000000000,1.020448000,0.000000000,0.000000000,-0.028128000,0.000000000,0.000000000,0.230752000,0.000000000,0.000000000,0.024672000,0.000000000,0.009134350,1720620323.115715742,,,,,,,,,,,
1720620323.125801,-0.055198000,0.000000000,0.000000000,-1.192807000,0.000000000,0.000000000,1.020448000,0.000000000,0.000000000,-0.028128000,0.000000000,0.000000000,0.231072000,0.000000000,0.000000000,0.021888000,0.000038380,0.009134350,1720620323.119715691,,,,,,,,,,,
1720620323.133596,-0.055198000,0.000000000,0.000000000,-1.192807000,0.000000000,0.000000000,1.020448000,0.000000000,0.000000000,-0.028128000,0.000000000,0.000000000,0.230560000,0.000000000,0.000000000,0.021952000,0.000038380,0.009134350,1720620323.126715660,,,,,,,,,,,
1720620323.133967,-0.055198000,0.000000000,0.000000000,-1.192807000,0.000000000,0.000000000,1.020448000,0.000000000,0.000000000,-0.028128000,0.000000000,0.000000000,0.230560000,0.000000000,0.000000000,0.021952000,0.000038380,0.009134350,1720620323.127715588,,,,,,,,,,,
1720620323.138498,-0.055198000,0.000000000,0.000000000,-1.192807000,0.000000000,0.000000000,1.020448000,0.000000000,0.000000000,-0.028128000,0.000000000,0.000000000,0.230304000,0.000000000,0.000000000,0.023808000,0.000000000,0.009134350,1720620323.131715775,,,,,,,,,,,
1720620323.139856,,,,,,,,,,,,,,,,,,,,1720620323.126715660,-1.186823998,3.141490200,0.000015924,0.829037542,0.000010709,0.000094939,0.559192948,1.395152983,0.001108959,1.481517794
1720620323.145377,-0.055198000,0.000000000,0.000000000,-1.192807000,0.000000000,0.000000000,1.020448000,0.000000000,0.000000000,-0.028128000,0.000000000,0.000000000,0.231168000,0.000000000,0.000000000,0.023808000,0.000000000,0.000000000,1720620323.138715744,,,,,,,,,,,
1720620323.145745,-0.055198000,0.000000000,0.000000000,-1.192807000,0.000000000,0.000000000,1.020448000,0.000000000,0.000000000,-0.028128000,0.000000000,0.000000000,0.231168000,0.000000000,0.000000000,0.023808000,0.000000000,0.000000000,1720620323.139715672,,,,,,,,,,,
1720620323.149707,-0.055198000,0.000000000,0.000000000,-1.165857000,0.000000000,0.000000000,1.020448000,0.000000000,0.000000000,-0.028128000,0.000000000,0.000000000,0.231424000,0.000000000,0.000000000,0.022880000,0.000000000,0.000000000,1720620323.143715620,,,,,,,,,,,
1720620323.163613,-0.055198000,0.000000000,0.000000000,-1.191190000,0.000000000,0.000000000,1.020448000,0.000000000,0.000000000,-0.028128000,0.000000000,0.000000000,0.231072000,0.000000000,0.000000000,0.024736000,0.000000000,0.009134350,1720620323.153715611,,,,,,,,,,,
1720620323.168078,-0.055198000,0.000000000,0.000000000,-1.195502000,0.000000000,0.000000000,1.020448000,0.000000000,0.000000000,-0.028128000,0.000000000,0.000000000,0.230496000,0.000000000,0.000000000,0.024224000,0.000000000,0.000000000,1720620323.161715746,,,,,,,,,,,
1720620323.177138,-0.055198000,0.000000000,0.000000000,-1.194963000,0.000000000,0.000000000,1.020448000,0.000000000,0.000000000,-0.028128000,0.000000000,0.000000000,0.230752000,0.000000000,0.000000000,0.023680000,0.000000000,0.000000000,1720620323.170715809,,,,,,,,,,,
1720620323.178214,-0.055198000,0.000000000,0.000000000,-1.194963000,0.000000000,0.000000000,1.020448000,0.000000000,0.000000000,-0.028128000,0.000000000,0.000000000,0.230752000,0.000000000,0.000000000,0.023680000,0.000000000,0.000000000,1720620323.171715736,,,,,,,,,,,
1720620323.179650,-0.055198000,0.000000000,0.000000000,-1.194963000,0.000000000,0.000000000,1.020448000,0.000000000,0.000000000,-0.028128000,0.000000000,0.000000000,0.230752000,0.000000000,0.000000000,0.022432000,0.000000000,0.000000000,1720620323.173715591,,,,,,,,,,,
1720620323.189507,-0.055198000,0.000000000,0.000000000,-1.195502000,0.000000000,0.000000000,1.020448000,0.000000000,0.000000000,-0.028128000,0.000000000,0.000000000,0.230816000,0.000000000,0.000000000,0.022944000,0.000000000,0.000000000,1720620323.182715654,,,,,,,,,,,
1720620323.189851,-0.055198000,0.000000000,0.000000000,-1.195502000,0.000000000,0.000000000,1.020448000,0.000000000,0.000000000,-0.028128000,0.000000000,0.000000000,0.230816000,0.000000000,0.000000000,0.022944000,0.000000000,0.000000000,1720620323.183715582,,,,,,,,,,,
1720620323.192367,-0.055198000,0.000000000,0.000000000,-1.195502000,0.000000000,0.000000000,1.020448000,0.000000000,0.000000000,-0.028128000,0.000000000,0.000000000,0.230208000,0.000000000,0.000000000,0.023424000,0.000000000,0.000000000,1720620323.185715675,,,,,,,,,,,
1720620323.200131,,,,,,,,,,,,,,,,,,,,1720620323.182715654,-1.186824000,3.141592654,0.000000015,0.829037542,-0.000000022,-0.000000054,0.559192949,1.395152983,0.001110973,1.481517837
1720620323.201322,-0.055198000,0.000000000,0.000000000,-1.195502000,0.000000000,0.000000000,1.020448000,0.000000000,0.000000000,-0.028128000,0.000000000,0.000000000,0.231232000,0.000000000,0.000000000,0.023296000,0.000000000,0.000000000,1720620323.194715738,,,,,,,,,,,
1720620323.202548,-0.055198000,0.000000000,0.000000000,-1.195502000,0.000000000,0.000000000,1.020448000,0.000000000,0.000000000,-0.028128000,0.000000000,0.000000000,0.231232000,0.000000000,0.000000000,0.023296000,0.000000000,0.000000000,1720620323.195715666,,,,,,,,,,,
1720620323.205323,-0.055198000,0.000000000,0.000000000,-1.195502000,0.000000000,0.000000000,1.020448000,0.000000000,0.000000000,-0.028128000,0.000000000,0.000000000,0.231360000,0.000000000,0.000000000,0.023552000,0.000000000,0.000000000,1720620323.198715687,,,,,,,,,,,
1720620323.213240,-0.055198000,0.000000000,0.000000000,-1.194963000,0.000000000,0.000000000,1.020448000,0.000000000,0.000000000,-0.028128000,0.000000000,0.000000000,0.230432000,0.000000000,0.000000000,0.023424000,0.000000000,0.000000000,1720620323.206715584,,,,,,,,,,,
1720620323.213866,-0.055198000,0.000000000,0.000000000,-1.194963000,0.000000000,0.000000000,1.020448000,0.000000000,0.000000000,-0.028128000,0.000000000,0.000000000,0.230432000,0.000000000,0.000000000,0.023424000,0.000000000,0.000000000,1720620323.207715750,,,,,,,,,,,
1720620323.215727,-0.055198000,0.000000000,0.000000000,-1.222991000,0.000000000,0.000000000,1.020448000,0.000000000,0.000000000,-0.028128000,0.000000000,0.000000000,0.231232000,0.000000000,0.000000000,0.022944000,0.000000000,0.000000000,1720620323.209715605,,,,,,,,,,,
1720620323.225517,-0.055198000,0.000000000,0.000000000,-1.189573000,0.000000000,0.000000000,1.020448000,0.000000000,0.000000000,-0.028128000,0.000000000,0.000000000,0.231072000,0.000000000,0.000000000,0.022624000,0.000000000,0.000000000,1720620323.218715668,,,,,,,,,,,
1720620323.226004,-0.055198000,0.000000000,0.000000000,-1.189573000,0.000000000,0.000000000,1.020448000,0.000000000,0.000000000,-0.028128000,0.000000000,0.000000000,0.231072000,0.000000000,0.000000000,0.022624000,0.000000000,0.000000000,1720620323.219715595,,,,,,,,,,,
1720620323.228399,-0.055198000,0.000000000,0.000000000,-1.192268000,0.000000000,0.000000000,1.020448000,0.000000000,0.000000000,-0.028128000,0.000000000,0.000000000,0.230016000,0.000000000,0.000000000,0.023616000,0.000000000,0.000000000,1720620323.221715689,,,,,,,,,,,
1720620323.237222,-0.055198000,0.000000000,0.000000000,-1.192268000,0.000000000,0.000000000,1.020448000,0.000000000,0.000000000,-0.028128000,0.000000000,0.000000000,0.231296000,0.000000000,0.000000000,0.023200000,0.000000000,0.000000000,1720620323.230715752,,,,,,,,,,,
1720620323.238230,-0.055198000,0.000000000,0.000000000,-1.192268000,0.000000000,0.000000000,1.020448000,0.000000000,0.000000000,-0.028128000,0.000000000,0.000000000,0.231296000,0.000000000,0.000000000,0.023200000,0.000000000,0.000000000,1720620323.231715679,,,,,,,,,,,
1720620323.239701,-0.055198000,0.000000000,0.000000000,-1.192807000,0.000000000,0.000000000,1.020448000,0.000000000,0.000000000,-0.028128000,0.000000000,0.000000000,0.230368000,0.000000000,0.000000000,0.023808000,0.000000000,0.000000000,1720620323.233715773,,,,,,,,,,,
1720620323.249406,-0.055198000,0.000000000,0.000000000,-1.199275000,0.000000000,0.000000000,1.020448000,0.000000000,0.000000000,-0.028128000,0.000000000,0.000000000,0.231744000,0.000000000,0.000000000,0.023872000,0.000000000,0.000000000,1720620323.242715597,,,,,,,,,,,
1720620323.250057,,,,,,,,,,,,,,,,,,,,1720620323.233715773,-1.186824000,3.141592654,0.000000015,0.829037542,-0.000000022,-0.000000054,0.559192949,1.395152983,0.001110973,1.481517837
1720620323.250085,-0.055198000,0.000000000,0.000000000,-1.199275000,0.000000000,0.000000000,1.020448000,0.000000000,0.000000000,-0.028128000,0.000000000,0.000000000,0.231744000,0.000000000,0.000000000,0.023872000,0.000000000,0.000000000,1720620323.243715763,,,,,,,,,,,
1720620323.251958,-0.055198000,0.000000000,0.000000000,-1.197119000,0.000000000,0.000000000,1.020448000,0.000000000,0.000000000,-0.028128000,0.000000000,0.000000000,0.230560000,0.000000000,0.000000000,0.022560000,0.000000000,0.000000000,1720620323.245715618,,,,,,,,,,,
1720620323.261370,-0.055198000,0.000000000,0.000000000,-1.221913000,0.000000000,0.000000000,1.020448000,0.000000000,0.000000000,-0.027808000,0.000000000,0.000000000,0.231072000,0.000000000,0.000000000,0.022272000,0.000000000,0.000000000,1720620323.254715681,,,,,,,,,,,
1720620323.262334,-0.055198000,0.000000000,0.000000000,-1.221913000,0.000000000,0.000000000,1.020448000,0.000000000,0.000000000,-0.027808000,0.000000000,0.000000000,0.231072000,0.000000000,0.000000000,0.022272000,0.000000000,0.000000000,1720620323.255715609,,,,,,,,,,,
1720620323.264197,-0.055198000,0.000000000,0.000000000,-1.194963000,0.000000000,0.000000000,1.020448000,0.000000000,0.000000000,-0.028128000,0.000000000,0.000000000,0.230880000,0.000000000,0.000000000,0.024064000,0.000000000,0.000000000,1720620323.257715702,,,,,,,,,,,
1720620323.268246,-0.055198000,0.000000000,0.000000000,-1.194963000,0.000000000,0.000000000,1.020448000,0.000000000,0.000000000,-0.028128000,0.000000000,0.000000000,0.230752000,0.000000000,0.000000000,0.022688000,0.000000000,0.000000000,1720620323.261715651,,,,,,,,,,,
1720620323.276113,-0.055198000,0.000000000,0.000000000,-1.199275000,0.000000000,0.000000000,1.020448000,0.000000000,0.000000000,-0.028128000,0.000000000,0.000000000,0.230944000,0.000000000,0.000000000,0.022432000,0.000000000,0.000000000,1720620323.269715786,,,,,,,,,,,
1720620323.285636,-0.055198000,0.000000000,0.000000000,-1.192807000,0.000000000,0.000000000,1.020448000,0.000000000,0.000000000,-0.027808000,0.000000000,0.000000000,0.230944000,0.000000000,0.000000000,0.022496000,0.000000000,0.000000000,1720620323.278715611,,,,,,,,,,,
1720620323.286247,-0.055198000,0.000000000,0.000000000,-1.192807000,0.000000000,0.000000000,1.020448000,0.000000000,0.000000000,-0.027808000,0.000000000,0.000000000,0.230944000,0.000000000,0.000000000,0.022496000,0.000000000,0.000000000,1720620323.279715776,,,,,,,,,,,
1720620323.287726,-0.055198000,0.000000000,0.000000000,-1.189573000,0.000000000,0.000000000,1.020448000,0.000000000,0.000000000,-0.028128000,0.000000000,0.000000000,0.230304000,0.000000000,0.000000000,0.023744000,0.000000000,0.000000000,1720620323.280715704,,,,,,,,,,,
1720620323.288299,-0.055198000,0.000000000,0.000000000,-1.189573000,0.000000000,0.000000000,1.020448000,0.000000000,0.000000000,-0.028128000,0.000000000,0.000000000,0.230304000,0.000000000,0.000000000,0.023744000,0.000000000,0.000000000,1720620323.281715631,,,,,,,,,,,
1720620323.291944,-0.055198000,0.000000000,0.000000000,-1.192268000,0.000000000,0.000000000,1.020448000,0.000000000,0.000000000,-0.028128000,0.000000000,0.000000000,0.230944000,0.000000000,0.000000000,0.022752000,0.000000000,0.000000000,1720620323.285715580,,,,,,,,,,,
1720620323.300162,,,,,,,,,,,,,,,,,,,,1720620323.285715580,-1.186824000,3.141592654,0.000000015,0.829037542,-0.000000022,-0.000000054,0.559192949,1.395152983,0.001110973,1.481517837
1720620323.300258,-0.055198000,0.000000000,0.000000000,-1.192268000,0.000000000,0.000000000,1.020448000,0.000000000,0.000000000,-0.028128000,0.000000000,0.000000000,0.230624000,0.000000000,0.000000000,0.023136000,0.000000000,0.000000000,1720620323.293715715,,,,,,,,,,,
1720620323.305336,-0.055198000,0.000000000,0.000000000,-1.192268000,0.000000000,0.000000000,1.020448000,0.000000000,0.000000000,-0.028128000,0.000000000,0.000000000,0.230624000,0.000000000,0.000000000,0.023424000,0.000000000,0.000000000,1720620323.298715591,,,,,,,,,,,
1720620323.312467,-0.055198000,0.000000000,0.000000000,-1.197119000,0.000000000,0.000000000,1.020448000,0.000000000,0.000000000,-0.028128000,0.000000000,0.000000000,0.230144000,0.000000000,0.000000000,0.022880000,0.000000000,0.000000000,1720620323.305715799,,,,,,,,,,,
1720620323.313309,-0.055198000,0.000000000,0.000000000,-1.197119000,0.000000000,0.000000000,1.020448000,0.000000000,0.000000000,-0.028128000,0.000000000,0.000000000,0.230144000,0.000000000,0.000000000,0.022880000,0.000000000,0.000000000,1720620323.306715727,,,,,,,,,,,
1720620323.317269,-0.055198000,0.000000000,0.000000000,-1.193885000,0.000000000,0.000000000,1.015872000,0.000000000,0.000000000,-0.028128000,0.000000000,0.000000000,0.230944000,0.000000000,0.000000000,0.023360000,0.000000000,0.000000000,1720620323.310715675,,,,,,,,,,,
1720620323.325144,-0.056342000,0.000000000,0.000000000,-1.196580000,0.000000000,0.000000000,1.020448000,0.000000000,0.000000000,-0.028128000,0.000000000,0.000000000,0.230624000,0.000000000,0.000000000,0.023200000,0.000000000,0.000000000,1720620323.318715811,,,,,,,,,,,
1720620323.335921,-0.055770000,0.000000000,0.000000000,-1.195502000,0.000000000,0.000000000,1.020448000,0.000000000,0.000000000,-0.028128000,0.000000000,0.000000000,0.230816000,0.000000000,0.000000000,0.022496000,0.000000000,0.000000000,1720620323.328715801,,,,,,,,,,,
1720620323.348562,-0.055198000,0.000000000,0.000000000,-1.202509000,0.000000000,0.000000000,1.020448000,0.000000000,0.000000000,-0.028128000,0.000000000,0.000000000,0.230688000,0.000000000,0.000000000,0.023008000,0.000000000,0.000000000,1720620323.341715813,,,,,,,,,,,
1720620323.350003,,,,,,,,,,,,,,,,,,,,1720620323.341715813,-1.186824000,3.141592654,0.000000015,0.829037542,-0.000000022,-0.000000054,0.559192949,1.395152983,0.001110973,1.481517837
1720620323.356036,-0.055198000,0.000000000,0.000000000,-1.194963000,0.000000000,0.000000000,1.020448000,0.000000000,0.000000000,-0.028128000,0.000000000,0.000000000,0.230752000,0.000000000,0.000000000,0.023296000,0.000000000,0.000000000,1720620323.348715782,,,,,,,,,,,
1720620323.364571,-0.055198000,0.000000000,0.000000000,-1.194963000,0.000000000,0.000000000,1.020448000,0.000000000,0.000000000,-0.028128000,0.000000000,0.000000000,0.230496000,0.000000000,0.000000000,0.023552000,0.000000000,0.000000000,1720620323.357715607,,,,,,,,,,,
1720620323.366434,-0.055198000,0.000000000,0.000000000,-1.194963000,0.000000000,0.000000000,1.020448000,0.000000000,0.000000000,-0.028128000,0.000000000,0.000000000,0.230496000,0.000000000,0.000000000,0.023552000,0.000000000,0.000000000,1720620323.359715700,,,,,,,,,,,
1720620323.368566,-0.055770000,0.000000000,0.000000000,-1.194963000,0.000000000,0.000000000,1.020448000,0.000000000,0.000000000,-0.028128000,0.000000000,0.000000000,0.231424000,0.000000000,0.000000000,0.022944000,0.000000000,0.000000000,1720620323.361715794,,,,,,,,,,,
1720620323.372412,-0.060060000,0.000000000,0.000000000,-1.194963000,0.000000000,0.000000000,1.020448000,0.000000000,0.000000000,-0.028128000,0.000000000,0.000000000,0.230944000,0.000000000,0.000000000,0.023680000,0.000000000,0.000000000,1720620323.365715742,,,,,,,,,,,
1720620323.380617,-0.056914000,0.000000000,0.000000000,-1.194963000,0.000000000,0.000000000,1.020448000,0.000000000,0.000000000,-0.028128000,0.000000000,0.000000000,0.230496000,0.000000000,0.000000000,0.023360000,0.000000000,0.000000000,1720620323.373715639,,,,,,,,,,,
1720620323.384180,-0.058916000,0.000000000,0.000000000,-1.191190000,0.000000000,0.000000000,1.020448000,0.000000000,0.000000000,-0.028128000,0.000000000,0.000000000,0.230688000,0.000000000,0.000000000,0.023136000,0.000000000,0.000000000,1720620323.377715588,,,,,,,,,,,
1720620323.392404,-0.056342000,0.000000000,0.000000000,-1.195502000,0.000000000,0.000000000,1.020448000,0.000000000,0.000000000,-0.028128000,0.000000000,0.000000000,0.230688000,0.000000000,0.000000000,0.023008000,0.000000000,0.000000000,1720620323.385715723,,,,,,,,,,,
1720620323.396297,-0.057486000,0.000000000,0.000000000,-1.195502000,0.000000000,0.000000000,1.020448000,0.000000000,0.000000000,-0.028128000,0.000000000,0.000000000,0.231008000,0.000000000,0.000000000,0.023200000,0.000000000,0.000000000,1720620323.389715672,,,,,,,,,,,
1720620323.404621,-0.056914000,0.000000000,0.000000000,-1.190112000,0.000000000,0.000000000,1.020448000,0.000000000,0.000000000,-0.028128000,0.000000000,0.000000000,0.230432000,0.000000000,0.000000000,0.022272000,0.000038380,0.009134350,1720620323.397715807,,,,,,,,,,,
1720620323.408565,-0.056342000,0.000000000,0.000000000,-1.206282000,0.000000000,0.000000000,1.020448000,0.000000000,0.000000000,-0.028128000,0.000000000,0.000000000,0.231424000,0.000000000,0.000000000,0.024416000,0.000000000,0.009134350,1720620323.401715755,,,,,,,,,,,
1720620323.410078,,,,,,,,,,,,,,,,,,,,1720620323.397715807,-1.186823998,3.141490200,0.000015924,0.829037542,0.000010709,0.000094939,0.559192948,1.395152983,0.001108959,1.481517794
1720620323.416601,-0.055770000,0.000000000,0.000000000,-1.192807000,0.000000000,0.000000000,1.021020000,0.000000000,0.000000000,-0.028128000,0.000000000,0.000000000,0.230752000,0.000000000,0.000000000,0.024000000,0.000000000,0.009134350,1720620323.409715652,,,,,,,,,,,
1720620323.421684,-0.055198000,0.000000000,0.000000000,-1.193885000,0.000000000,0.000000000,1.021020000,0.000000000,0.000000000,-0.028128000,0.000000000,0.000000000,0.230944000,0.000000000,0.000000000,0.022336000,0.000038380,0.009134350,1720620323.414715767,,,,,,,,,,,
1720620323.429209,-0.055198000,0.000000000,0.000000000,-1.221913000,0.000000000,0.000000000,1.021020000,0.000000000,0.000000000,-0.028128000,0.000000000,0.000000000,0.230688000,0.000000000,0.000000000,0.022816000,0.000000000,0.000000000,1720620323.421715736,,,,,,,,,,,
1720620323.429243,-0.055198000,0.000000000,0.000000000,-1.221913000,0.000000000,0.000000000,1.021020000,0.000000000,0.000000000,-0.028128000,0.000000000,0.000000000,0.230688000,0.000000000,0.000000000,0.022816000,0.000000000,0.000000000,1720620323.422715664,,,,,,,,,,,
1720620323.433404,-0.055198000,0.000000000,0.000000000,-1.201970000,0.000000000,0.000000000,1.021020000,0.000000000,0.000000000,-0.028128000,0.000000000,0.000000000,0.230880000,0.000000000,0.000000000,0.023488000,0.000000000,0.000000000,1720620323.426715612,,,,,,,,,,,
1720620323.440637,-0.055198000,0.000000000,0.000000000,-1.202509000,0.000000000,0.000000000,1.021020000,0.000000000,0.000000000,-0.028128000,0.000000000,0.000000000,0.230752000,0.000000000,0.000000000,0.023136000,0.000000000,0.000000000,1720620323.433715582,,,,,,,,,,,
1720620323.442588,-0.055198000,0.000000000,0.000000000,-1.202509000,0.000000000,0.000000000,1.021020000,0.000000000,0.000000000,-0.028128000,0.000000000,0.000000000,0.230752000,0.000000000,0.000000000,0.023136000,0.000000000,0.000000000,1720620323.435715675,,,,,,,,,,,
1720620323.445482,-0.055198000,0.000000000,0.000000000,-1.193885000,0.000000000,0.000000000,1.021020000,0.000000000,0.000000000,-0.028128000,0.000000000,0.000000000,0.230944000,0.000000000,0.000000000,0.023552000,0.000000000,0.000000000,1720620323.438715696,,,,,,,,,,,
1720620323.458160,-0.055198000,0.000000000,0.000000000,-1.195502000,0.000000000,0.000000000,1.021020000,0.000000000,0.000000000,-0.028128000,0.000000000,0.000000000,0.230944000,0.000000000,0.000000000,0.023200000,0.000000000,0.000000000,1720620323.450715780,,,,,,,,,,,
1720620323.460026,,,,,,,,,,,,,,,,,,,,1720620323.450715780,-1.186824000,3.141592654,0.000000015,0.829037542,-0.000000022,-0.000000054,0.559192949,1.395152983,0.001110973,1.481517837
1720620323.464524,-0.055198000,0.000000000,0.000000000,-1.203587000,0.000000000,0.000000000,1.021020000,0.000000000,0.000000000,-0.028128000,0.000000000,0.000000000,0.230944000,0.000000000,0.000000000,0.023200000,0.000000000,0.000000000,1720620323.457715750,,,,,,,,,,,
1720620323.465526,-0.055198000,0.000000000,0.000000000,-1.203587000,0.000000000,0.000000000,1.021020000,0.000000000,0.000000000,-0.028128000,0.000000000,0.000000000,0.230944000,0.000000000,0.000000000,0.023200000,0.000000000,0.000000000,1720620323.458715677,,,,,,,,,,,
1720620323.469389,-0.055198000,0.000000000,0.000000000,-1.196580000,0.000000000,0.000000000,1.021020000,0.000000000,0.000000000,-0.028128000,0.000000000,0.000000000,0.230560000,0.000000000,0.000000000,0.023360000,0.000000000,0.000000000,1720620323.462715626,,,,,,,,,,,
1720620323.476676,-0.055198000,0.000000000,0.000000000,-1.196580000,0.000000000,0.000000000,1.021020000,0.000000000,0.000000000,-0.028128000,0.000000000,0.000000000,0.231168000,0.000000000,0.000000000,0.022944000,0.000000000,0.000000000,1720620323.469715595,,,,,,,,,,,
1720620323.478215,-0.055198000,0.000000000,0.000000000,-1.196580000,0.000000000,0.000000000,1.021020000,0.000000000,0.000000000,-0.028128000,0.000000000,0.000000000,0.231168000,0.000000000,0.000000000,0.022944000,0.000000000,0.000000000,1720620323.470715761,,,,,,,,,,,
1720620323.481428,-0.055198000,0.000000000,0.000000000,-1.169091000,0.000000000,0.000000000,1.021020000,0.000000000,0.000000000,-0.028128000,0.000000000,0.000000000,0.229952000,0.000000000,0.000000000,0.024064000,0.000000000,0.000000000,1720620323.474715710,,,,,,,,,,,
1720620323.489529,-0.055198000,0.000000000,0.000000000,-1.204665000,0.000000000,0.000000000,1.021020000,0.000000000,0.000000000,-0.028128000,0.000000000,0.000000000,0.230816000,0.000000000,0.000000000,0.023616000,0.000000000,0.000000000,1720620323.481715679,,,,,,,,,,,
1720620323.489795,-0.055198000,0.000000000,0.000000000,-1.204665000,0.000000000,0.000000000,1.021020000,0.000000000,0.000000000,-0.028128000,0.000000000,0.000000000,0.230816000,0.000000000,0.000000000,0.023616000,0.000000000,0.000000000,1720620323.482715607,,,,,,,,,,,
1720620323.493538,-0.055198000,0.000000000,0.000000000,-1.197119000,0.000000000,0.000000000,1.021020000,0.000000000,0.000000000,-0.028128000,0.000000000,0.000000000,0.231168000,0.000000000,0.000000000,0.022880000,0.000000000,0.000000000,1720620323.486715794,,,,,,,,,,,
1720620323.500608,-0.055198000,0.000000000,0.000000000,-1.201970000,0.000000000,0.000000000,1.021020000,0.000000000,0.000000000,-0.028128000,0.000000000,0.000000000,0.231808000,0.000000000,0.000000000,0.022432000,0.000000000,0.000000000,1720620323.493715763,,,,,,,,,,,
1720620323.501653,-0.055198000,0.000000000,0.000000000,-1.201970000,0.000000000,0.000000000,1.021020000,0.000000000,0.000000000,-0.028128000,0.000000000,0.000000000,0.231808000,0.000000000,0.000000000,0.022432000,0.000000000,0.000000000,1720620323.494715691,,,,,,,,,,,
1720620323.505630,-0.055198000,0.000000000,0.000000000,-1.191190000,0.000000000,0.000000000,1.021020000,0.000000000,0.000000000,-0.028128000,0.000000000,0.000000000,0.230688000,0.000000000,0.000000000,0.023808000,0.000000000,0.000000000,1720620323.498715639,,,,,,,,,,,
1720620323.512791,-0.055198000,0.000000000,0.000000000,-1.192268000,0.000000000,0.000000000,1.021020000,0.000000000,0.000000000,-0.028128000,0.000000000,0.000000000,0.230624000,0.000000000,0.000000000,0.023360000,0.000000000,0.000000000,1720620323.505715609,,,,,,,,,,,
1720620323.513631,-0.055198000,0.000000000,0.000000000,-1.192268000,0.000000000,0.000000000,1.021020000,0.000000000,0.000000000,-0.028128000,0.000000000,0.000000000,0.230624000,0.000000000,0.000000000,0.023360000,0.000000000,0.000000000,1720620323.506715775,,,,,,,,,,,
1720620323.518324,-0.055198000,0.000000000,0.000000000,-1.192807000,0.000000000,0.000000000,1.021020000,0.000000000,0.000000000,-0.028128000,0.000000000,0.000000000,0.231424000,0.000000000,0.000000000,0.023072000,0.000000000,0.000000000,1720620323.510715723,,,,,,,,,,,
1720620323.520049,,,,,,,,,,,,,,,,,,,,1720620323.505715609,-1.186824000,3.141592654,0.000000015,0.829037542,-0.000000022,-0.000000054,0.559192949,1.395152983,0.001110973,1.481517837
1720620323.524837,-0.055198000,0.000000000,0.000000000,-1.193885000,0.000000000,0.000000000,1.021020000,0.000000000,0.000000000,-0.028128000,0.000000000,0.000000000,0.231488000,0.000000000,0.000000000,0.022752000,0.000000000,0.000000000,1720620323.517715693,,,,,,,,,,,
1720620323.525646,-0.055198000,0.000000000,0.000000000,-1.193885000,0.000000000,0.000000000,1.021020000,0.000000000,0.000000000,-0.028128000,0.000000000,0.000000000,0.231488000,0.000000000,0.000000000,0.022752000,0.000000000,0.000000000,1720620323.518715620,,,,,,,,,,,
1720620323.529796,-0.055198000,0.000000000,0.000000000,-1.193885000,0.000000000,0.000000000,1.021020000,0.000000000,0.000000000,-0.028128000,0.000000000,0.000000000,0.231232000,0.000000000,0.000000000,0.024352000,0.000000000,0.000000000,1720620323.522715807,,,,,,,,,,,
1720620323.536841,-0.055198000,0.000000000,0.000000000,-1.194963000,0.000000000,0.000000000,1.021020000,0.000000000,0.000000000,-0.028128000,0.000000000,0.000000000,0.230560000,0.000000000,0.000000000,0.023936000,0.000000000,0.000000000,1720620323.529715776,,,,,,,,,,,
1720620323.540155,-0.055198000,0.000000000,0.000000000,-1.194963000,0.000000000,0.000000000,1.021020000,0.000000000,0.000000000,-0.028128000,0.000000000,0.000000000,0.230944000,0.000000000,0.000000000,0.022752000,0.000000000,0.000000000,1720620323.532715797,,,,,,,,,,,
1720620323.549610,-0.055198000,0.000000000,0.000000000,-1.194963000,0.000000000,0.000000000,1.021020000,0.000000000,0.000000000,-0.028128000,0.000000000,0.000000000,0.230560000,0.000000000,0.000000000,0.023424000,0.000000000,0.000000000,1720620323.541715622,,,,,,,,,,,
1720620323.549639,-0.055198000,0.000000000,0.000000000,-1.194963000,0.000000000,0.000000000,1.021020000,0.000000000,0.000000000,-0.028128000,0.000000000,0.000000000,0.230560000,0.000000000,0.000000000,0.023424000,0.000000000,0.000000000,1720620323.542715788,,,,,,,,,,,
1720620323.551790,-0.055198000,0.000000000,0.000000000,-1.194963000,0.000000000,0.000000000,1.021020000,0.000000000,0.000000000,-0.028128000,0.000000000,0.000000000,0.230080000,0.000000000,0.000000000,0.023424000,0.000000000,0.000000000,1720620323.544715643,,,,,,,,,,,
1720620323.561373,-0.055198000,0.000000000,0.000000000,-1.194963000,0.000000000,0.000000000,1.021020000,0.000000000,0.000000000,-0.028128000,0.000000000,0.000000000,0.231008000,0.000000000,0.000000000,0.023360000,0.000000000,0.000000000,1720620323.553715706,,,,,,,,,,,
1720620323.561758,-0.055198000,0.000000000,0.000000000,-1.194963000,0.000000000,0.000000000,1.021020000,0.000000000,0.000000000,-0.028128000,0.000000000,0.000000000,0.231008000,0.000000000,0.000000000,0.023360000,0.000000000,0.000000000,1720620323.554715633,,,,,,,,,,,
1720620323.563631,-0.055198000,0.000000000,0.000000000,-1.194963000,0.000000000,0.000000000,1.021020000,0.000000000,0.000000000,-0.028128000,0.000000000,0.000000000,0.231008000,0.000000000,0.000000000,0.023360000,0.000000000,0.000000000,1720620323.555715799,,,,,,,,,,,
1720620323.570036,,,,,,,,,,,,,,,,,,,,1720620323.555715799,-1.186824000,3.141592654,0.000000015,0.829037542,-0.000000022,-0.000000054,0.559192949,1.395152983,0.001110973,1.481517837
1720620323.572666,-0.055198000,0.000000000,0.000000000,-1.192268000,0.000000000,0.000000000,1.021020000,0.000000000,0.000000000,-0.028064000,0.000000000,0.000000000,0.231168000,0.000000000,0.000000000,0.022752000,0.000000000,0.000000000,1720620323.565715790,,,,,,,,,,,
1720620323.573845,-0.055198000,0.000000000,0.000000000,-1.192268000,0.000000000,0.000000000,1.021020000,0.000000000,0.000000000,-0.028064000,0.000000000,0.000000000,0.231168000,0.000000000,0.000000000,0.022752000,0.000000000,0.000000000,1720620323.566715717,,,,,,,,,,,
1720620323.574381,-0.055198000,0.000000000,0.000000000,-1.192268000,0.000000000,0.000000000,1.021020000,0.000000000,0.000000000,-0.028064000,0.000000000,0.000000000,0.231168000,0.000000000,0.000000000,0.022752000,0.000000000,0.000000000,1720620323.567715645,,,,,,,,,,,
1720620323.576466,-0.055198000,0.000000000,0.000000000,-1.186878000,0.000000000,0.000000000,1.021020000,0.000000000,0.000000000,-0.028064000,0.000000000,0.000000000,0.230944000,0.000000000,0.000000000,0.023360000,0.000000000,0.000000000,1720620323.569715738,,,,,,,,,,,
1720620323.580452,-0.055198000,0.000000000,0.000000000,-1.192268000,0.000000000,0.000000000,1.021020000,0.000000000,0.000000000,-0.028064000,0.000000000,0.000000000,0.230752000,0.000000000,0.000000000,0.023680000,0.000000000,0.000000000,1720620323.573715687,,,,,,,,,,,
1720620323.588849,-0.055198000,0.000000000,0.000000000,-1.192268000,0.000000000,0.000000000,1.021020000,0.000000000,0.000000000,-0.028128000,0.000000000,0.000000000,0.230944000,0.000000000,0.000000000,0.024352000,0.000000000,0.000000000,1720620323.581715584,,,,,,,,,,,
1720620323.593532,-0.055198000,0.000000000,0.000000000,-1.192807000,0.000000000,0.000000000,1.021020000,0.000000000,0.000000000,-0.028128000,0.000000000,0.000000000,0.230368000,0.000000000,0.000000000,0.022208000,0.000038380,0.009134350,1720620323.586715698,,,,,,,,,,,
1720620323.601367,-0.055198000,0.000000000,0.000000000,-1.193885000,0.000000000,0.000000000,1.021020000,0.000000000,0.000000000,-0.028128000,0.000000000,0.000000000,0.230368000,0.000000000,0.000000000,0.022944000,0.000000000,0.000000000,1720620323.593715668,,,,,,,,,,,
1720620323.601725,-0.055198000,0.000000000,0.000000000,-1.193885000,0.000000000,0.000000000,1.021020000,0.000000000,0.000000000,-0.028128000,0.000000000,0.000000000,0.230368000,0.000000000,0.000000000,0.022944000,0.000000000,0.000000000,1720620323.594715595,,,,,,,,,,,
1720620323.605901,-0.055198000,0.000000000,0.000000000,-1.192268000,0.000000000,0.000000000,1.021020000,0.000000000,0.000000000,-0.028128000,0.000000000,0.000000000,0.231072000,0.000000000,0.000000000,0.023936000,0.000000000,0.000000000,1720620323.598715782,,,,,,,,,,,
1720620323.613215,-0.055770000,0.000000000,0.000000000,-1.193885000,0.000000000,0.000000000,1.021020000,0.000000000,0.000000000,-0.028128000,0.000000000,0.000000000,0.230304000,0.000000000,0.000000000,0.023616000,0.000000000,0.000000000,1720620323.605715752,,,,,,,,,,,
1720620323.613544,-0.055770000,0.000000000,0.000000000,-1.193885000,0.000000000,0.000000000,1.021020000,0.000000000,0.000000000,-0.028128000,0.000000000,0.000000000,0.230304000,0.000000000,0.000000000,0.023616000,0.000000000,0.000000000,1720620323.606715679,,,,,,,,,,,
1720620323.618029,-0.055198000,0.000000000,0.000000000,-1.193885000,0.000000000,0.000000000,1.021020000,0.000000000,0.000000000,-0.028128000,0.000000000,0.000000000,0.231296000,0.000000000,0.000000000,0.022496000,0.000000000,0.000000000,1720620323.610715628,,,,,,,,,,,
1720620323.620083,,,,,,,,,,,,,,,,,,,,1720620323.605715752,-1.186824000,3.141592654,0.000000015,0.829037542,-0.000000022,-0.000000054,0.559192949,1.395152983,0.001110973,1.481517837
1720620323.625065,-0.054912000,0.000000000,0.000000000,-1.193885000,0.000000000,0.000000000,1.021020000,0.000000000,0.000000000,-0.028128000,0.000000000,0.000000000,0.230496000,0.000000000,0.000000000,0.022880000,0.000000000,0.000000000,1720620323.617715597,,,,,,,,,,,
1720620323.625739,-0.054912000,0.000000000,0.000000000,-1.193885000,0.000000000,0.000000000,1.021020000,0.000000000,0.000000000,-0.028128000,0.000000000,0.000000000,0.230496000,0.000000000,0.000000000,0.022880000,0.000000000,0.000000000,1720620323.618715763,,,,,,,,,,,
1720620323.630209,-0.054912000,0.000000000,0.000000000,-1.191190000,0.000000000,0.000000000,1.021020000,0.000000000,0.000000000,-0.028128000,0.000000000,0.000000000,0.230368000,0.000000000,0.000000000,0.023808000,0.000000000,0.000000000,1720620323.622715712,,,,,,,,,,,
1720620323.637377,-0.058344000,0.000000000,0.000000000,-1.193885000,0.000000000,0.000000000,1.021020000,0.000000000,0.000000000,-0.028128000,0.000000000,0.000000000,0.230880000,0.000000000,0.000000000,0.023296000,0.000000000,0.000000000,1720620323.629715681,,,,,,,,,,,
1720620323.638430,-0.058344000,0.000000000,0.000000000,-1.193885000,0.000000000,0.000000000,1.021020000,0.000000000,0.000000000,-0.028128000,0.000000000,0.000000000,0.230880000,0.000000000,0.000000000,0.023296000,0.000000000,0.000000000,1720620323.630715609,,,,,,,,,,,
1720620323.641542,-0.059488000,0.000000000,0.000000000,-1.194963000,0.000000000,0.000000000,1.021020000,0.000000000,0.000000000,-0.028128000,0.000000000,0.000000000,0.230368000,0.000000000,0.000000000,0.023552000,0.000000000,0.000000000,1720620323.634715796,,,,,,,,,,,
1720620323.649255,-0.057772000,0.000000000,0.000000000,-1.197119000,0.000000000,0.000000000,1.021020000,0.000000000,0.000000000,-0.028128000,0.000000000,0.000000000,0.230496000,0.000000000,0.000000000,0.022752000,0.000000000,0.000000000,1720620323.641715765,,,,,,,,,,,
1720620323.650263,-0.057772000,0.000000000,0.000000000,-1.197119000,0.000000000,0.000000000,1.021020000,0.000000000,0.000000000,-0.028128000,0.000000000,0.000000000,0.230496000,0.000000000,0.000000000,0.022752000,0.000000000,0.000000000,1720620323.642715693,,,,,,,,,,,
1720620323.659888,-0.055198000,0.000000000,0.000000000,-1.194963000,0.000000000,0.000000000,1.021020000,0.000000000,0.000000000,-0.028128000,0.000000000,0.000000000,0.231072000,0.000000000,0.000000000,0.022496000,0.000000000,0.000000000,1720620323.648715734,,,,,,,,,,,
1720620323.661875,-0.054340000,0.000000000,0.000000000,-1.194963000,0.000000000,0.000000000,1.021020000,0.000000000,0.000000000,-0.028128000,0.000000000,0.000000000,0.230304000,0.000000000,0.000000000,0.024128000,0.000000000,0.000000000,1720620323.654715776,,,,,,,,,,,
1720620323.663586,-0.054340000,0.000000000,0.000000000,-1.193885000,0.000000000,0.000000000,1.021020000,0.000000000,0.000000000,-0.028128000,0.000000000,0.000000000,0.230752000,0.000000000,0.000000000,0.022880000,0.000000000,0.000000000,1720620323.656715631,,,,,,,,,,,
1720620323.670047,,,,,,,,,,,,,,,,,,,,1720620323.656715631,-1.186824000,3.141592654,0.000000015,0.829037542,-0.000000022,-0.000000054,0.559192949,1.395152983,0.001110973,1.481517837
1720620323.673356,-0.054912000,0.000000000,0.000000000,-1.193885000,0.000000000,0.000000000,1.021020000,0.000000000,0.000000000,-0.028128000,0.000000000,0.000000000,0.230432000,0.000000000,0.000000000,0.023424000,0.000000000,0.000000000,1720620323.665715694,,,,,,,,,,,
1720620323.673657,-0.054912000,0.000000000,0.000000000,-1.193885000,0.000000000,0.000000000,1.021020000,0.000000000,0.000000000,-0.028128000,0.000000000,0.000000000,0.230432000,0.000000000,0.000000000,0.023424000,0.000000000,0.000000000,1720620323.666715622,,,,,,,,,,,
1720620323.676672,-0.054912000,0.000000000,0.000000000,-1.193885000,0.000000000,0.000000000,1.021020000,0.000000000,0.000000000,-0.028128000,0.000000000,0.000000000,0.230496000,0.000000000,0.000000000,0.022752000,0.000038380,0.009134350,1720620323.669715643,,,,,,,,,,,
1720620323.685272,-0.055198000,0.000000000,0.000000000,-1.194963000,0.000000000,0.000000000,1.021020000,0.000000000,0.000000000,-0.028128000,0.000000000,0.000000000,0.230624000,0.000000000,0.000000000,0.022816000,0.000000000,0.000000000,1720620323.677715778,,,,,,,,,,,
1720620323.686146,-0.055198000,0.000000000,0.000000000,-1.194963000,0.000000000,0.000000000,1.021020000,0.000000000,0.000000000,-0.028128000,0.000000000,0.000000000,0.230624000,0.000000000,0.000000000,0.022816000,0.000000000,0.000000000,1720620323.678715706,,,,,,,,,,,
1720620323.689090,-0.055198000,0.000000000,0.000000000,-1.194963000,0.000000000,0.000000000,1.021020000,0.000000000,0.000000000,-0.028128000,0.000000000,0.000000000,0.230432000,0.000000000,0.000000000,0.023936000,0.000000000,0.000000000,1720620323.679715633,,,,,,,,,,,
1720620323.697142,-0.055198000,0.000000000,0.000000000,-1.194963000,0.000000000,0.000000000,1.021020000,0.000000000,0.000000000,-0.028128000,0.000000000,0.000000000,0.230304000,0.000000000,0.000000000,0.024224000,0.000000000,0.009134350,1720620323.689715624,,,,,,,,,,,
1720620323.698234,-0.055198000,0.000000000,0.000000000,-1.194963000,0.000000000,0.000000000,1.021020000,0.000000000,0.000000000,-0.028128000,0.000000000,0.000000000,0.230304000,0.000000000,0.000000000,0.024224000,0.000000000,0.009134350,1720620323.690715790,,,,,,,,,,,
1720620323.701236,-0.055198000,0.000000000,0.000000000,-1.194963000,0.000000000,0.000000000,1.021020000,0.000000000,0.000000000,-0.028128000,0.000000000,0.000000000,0.230560000,0.000000000,0.000000000,0.022272000,0.000038380,0.009134350,1720620323.693715811,,,,,,,,,,,
1720620323.709316,-0.055198000,0.000000000,0.000000000,-1.167474000,0.000000000,0.000000000,1.021020000,0.000000000,0.000000000,-0.028128000,0.000000000,0.000000000,0.230752000,0.000000000,0.000000000,0.023296000,0.000000000,0.000000000,1720620323.701715708,,,,,,,,,,,
1720620323.710433,-0.055198000,0.000000000,0.000000000,-1.167474000,0.000000000,0.000000000,1.021020000,0.000000000,0.000000000,-0.028128000,0.000000000,0.000000000,0.230752000,0.000000000,0.000000000,0.023296000,0.000000000,0.000000000,1720620323.702715635,,,,,,,,,,,
1720620323.711842,-0.055198000,0.000000000,0.000000000,-1.195502000,0.000000000,0.000000000,1.021020000,0.000000000,0.000000000,-0.028128000,0.000000000,0.000000000,0.230496000,0.000000000,0.000000000,0.023680000,0.000000000,0.000000000,1720620323.704715729,,,,,,,,,,,
1720620323.721505,-0.055198000,0.000000000,0.000000000,-1.195502000,0.000000000,0.000000000,1.021020000,0.000000000,0.000000000,-0.028128000,0.000000000,0.000000000,0.230432000,0.000000000,0.000000000,0.023872000,0.000000000,0.009134350,1720620323.713715792,,,,,,,,,,,
1720620323.721942,-0.055198000,0.000000000,0.000000000,-1.195502000,0.000000000,0.000000000,1.021020000,0.000000000,0.000000000,-0.028128000,0.000000000,0.000000000,0.230432000,0.000000000,0.000000000,0.023872000,0.000000000,0.009134350,1720620323.714715719,,,,,,,,,,,
1720620323.725066,-0.055198000,0.000000000,0.000000000,-1.195502000,0.000000000,0.000000000,1.021020000,0.000000000,0.000000000,-0.028128000,0.000000000,0.000000000,0.230944000,0.000000000,0.000000000,0.022752000,0.000000000,0.000000000,1720620323.717715740,,,,,,,,,,,
1720620323.730079,,,,,,,,,,,,,,,,,,,,1720620323.713715792,-1.186824000,3.141592654,0.000000015,0.829037542,-0.000000022,-0.000000054,0.559192949,1.395152983,0.001110973,1.481517837
1720620323.737336,-0.055198000,0.000000000,0.000000000,-1.194963000,0.000000000,0.000000000,1.021020000,0.000000000,0.000000000,-0.028128000,0.000000000,0.000000000,0.230752000,0.000000000,0.000000000,0.023008000,0.000038380,0.009134350,1720620323.727715731,,,,,,,,,,,
1720620323.748468,-0.055198000,0.000000000,0.000000000,-1.194963000,0.000000000,0.000000000,1.021020000,0.000000000,0.000000000,-0.028128000,0.000000000,0.000000000,0.231424000,0.000000000,0.000000000,0.022880000,0.000000000,0.000000000,1720620323.738715649,,,,,,,,,,,
1720620323.753487,-0.055198000,0.000000000,0.000000000,-1.194963000,0.000000000,0.000000000,1.021020000,0.000000000,0.000000000,-0.028128000,0.000000000,0.000000000,0.230208000,0.000000000,0.000000000,0.022496000,0.000000000,0.000000000,1720620323.745715618,,,,,,,,,,,
1720620323.754102,-0.055198000,0.000000000,0.000000000,-1.194963000,0.000000000,0.000000000,1.021020000,0.000000000,0.000000000,-0.028128000,0.000000000,0.000000000,0.230208000,0.000000000,0.000000000,0.022496000,0.000000000,0.000000000,1720620323.746715784,,,,,,,,,,,
1720620323.755729,-0.055198000,0.000000000,0.000000000,-1.201970000,0.000000000,0.000000000,1.021020000,0.000000000,0.000000000,-0.028128000,0.000000000,0.000000000,0.231072000,0.000000000,0.000000000,0.024288000,0.000000000,0.000000000,1720620323.747715712,,,,,,,,,,,
1720620323.765554,-0.055198000,0.000000000,0.000000000,-1.170169000,0.000000000,0.000000000,1.021020000,0.000000000,0.000000000,-0.028128000,0.000000000,0.000000000,0.231360000,0.000000000,0.000000000,0.023808000,0.000000000,0.000000000,1720620323.757715702,,,,,,,,,,,
1720620323.766281,-0.055198000,0.000000000,0.000000000,-1.170169000,0.000000000,0.000000000,1.021020000,0.000000000,0.000000000,-0.028128000,0.000000000,0.000000000,0.231360000,0.000000000,0.000000000,0.023808000,0.000000000,0.000000000,1720620323.758715630,,,,,,,,,,,
1720620323.768688,-0.055198000,0.000000000,0.000000000,-1.184183000,0.000000000,0.000000000,1.021020000,0.000000000,0.000000000,-0.028128000,0.000000000,0.000000000,0.231008000,0.000000000,0.000000000,0.022496000,0.000000000,0.000000000,1720620323.760715723,,,,,,,,,,,
1720620323.773261,-0.055198000,0.000000000,0.000000000,-1.232693000,0.000000000,0.000000000,1.021020000,0.000000000,0.000000000,-0.028128000,0.000000000,0.000000000,0.231008000,0.000000000,0.000000000,0.023872000,0.000000000,0.000000000,1720620323.765715599,,,,,,,,,,,
1720620323.780007,,,,,,,,,,,,,,,,,,,,1720620323.765715599,-1.186824000,3.141592654,0.000000015,0.829037542,-0.000000022,-0.000000054,0.559192949,1.395152983,0.001110973,1.481517837
1720620323.781298,-0.055198000,0.000000000,0.000000000,-1.198197000,0.000000000,0.000000000,1.021020000,0.000000000,0.000000000,-0.028128000,0.000000000,0.000000000,0.230496000,0.000000000,0.000000000,0.023360000,0.000000000,0.000000000,1720620323.773715734,,,,,,,,,,,
1720620323.784941,-0.055198000,0.000000000,0.000000000,-1.198197000,0.000000000,0.000000000,1.021020000,0.000000000,0.000000000,-0.028128000,0.000000000,0.000000000,0.230560000,0.000000000,0.000000000,0.023424000,0.000000000,0.000000000,1720620323.777715683,,,,,,,,,,,
1720620323.792055,-0.055198000,0.000000000,0.000000000,-1.197119000,0.000000000,0.000000000,1.021020000,0.000000000,0.000000000,-0.028128000,0.000000000,0.000000000,0.231008000,0.000000000,0.000000000,0.023296000,0.000000000,0.000000000,1720620323.784715652,,,,,,,,,,,
1720620323.793142,-0.055198000,0.000000000,0.000000000,-1.197119000,0.000000000,0.000000000,1.021020000,0.000000000,0.000000000,-0.028128000,0.000000000,0.000000000,0.231008000,0.000000000,0.000000000,0.023296000,0.000000000,0.000000000,1720620323.785715580,,,,,,,,,,,
1720620323.797103,-0.055198000,0.000000000,0.000000000,-1.196580000,0.000000000,0.000000000,1.021020000,0.000000000,0.000000000,-0.028128000,0.000000000,0.000000000,0.230496000,0.000000000,0.000000000,0.023872000,0.000000000,0.000000000,1720620323.789715767,,,,,,,,,,,
1720620323.804449,-0.055198000,0.000000000,0.000000000,-1.190112000,0.000000000,0.000000000,1.021020000,0.000000000,0.000000000,-0.028128000,0.000000000,0.000000000,0.231008000,0.000000000,0.000000000,0.024288000,0.000000000,0.000000000,1720620323.796715736,,,,,,,,,,,
1720620323.806365,-0.055198000,0.000000000,0.000000000,-1.190112000,0.000000000,0.000000000,1.021020000,0.000000000,0.000000000,-0.028128000,0.000000000,0.000000000,0.231008000,0.000000000,0.000000000,0.024288000,0.000000000,0.000000000,1720620323.798715591,,,,,,,,,,,
1720620323.809127,-0.055198000,0.000000000,0.000000000,-1.193885000,0.000000000,0.000000000,1.021020000,0.000000000,0.000000000,-0.028128000,0.000000000,0.000000000,0.230560000,0.000000000,0.000000000,0.022016000,0.000038380,0.009134350,1720620323.801715612,,,,,,,,,,,
1720620323.817406,-0.055198000,0.000000000,0.000000000,-1.192807000,0.000000000,0.000000000,1.036178000,0.000000000,0.000000000,-0.028064000,0.000000000,0.000000000,0.230944000,0.000000000,0.000000000,0.021216000,0.000038380,0.009134350,1720620323.809715748,,,,,,,,,,,
1720620323.821458,-0.055198000,0.000000000,0.000000000,-1.185261000,0.000000000,0.000000000,1.020448000,0.000000000,0.000000000,-0.028128000,0.000000000,0.000000000,0.230880000,0.000000000,0.000000000,0.025408000,0.000000000,0.009134350,1720620323.813715696,,,,,,,,,,,
1720620323.828451,-0.055198000,0.000000000,0.000000000,-1.168013000,0.000000000,0.000000000,1.020448000,0.000000000,0.000000000,-0.028128000,0.000000000,0.000000000,0.230752000,0.000000000,0.000000000,0.024992000,0.000000000,0.009134350,1720620323.820715666,,,,,,,,,,,
1720620323.829076,-0.055198000,0.000000000,0.000000000,-1.168013000,0.000000000,0.000000000,1.020448000,0.000000000,0.000000000,-0.028128000,0.000000000,0.000000000,0.230752000,0.000000000,0.000000000,0.024992000,0.000000000,0.009134350,1720620323.821715593,,,,,,,,,,,
1720620323.829957,,,,,,,,,,,,,,,,,,,,1720620323.820715666,-1.186824000,3.141592654,0.000000015,0.829037542,-0.000000022,-0.000000054,0.559192949,1.395152983,0.001110973,1.481517837
1720620323.833244,-0.055198000,0.000000000,0.000000000,-1.186878000,0.000000000,0.000000000,1.020448000,0.000000000,0.000000000,-0.028128000,0.000000000,0.000000000,0.230752000,0.000000000,0.000000000,0.022432000,0.000000000,0.000000000,1720620323.825715780,,,,,,,,,,,
1720620323.840517,-0.055198000,0.000000000,0.000000000,-1.186878000,0.000000000,0.000000000,1.021020000,0.000000000,0.000000000,-0.028128000,0.000000000,0.000000000,0.231168000,0.000000000,0.000000000,0.023616000,0.000000000,0.000000000,1720620323.832715750,,,,,,,,,,,
1720620323.841402,-0.055198000,0.000000000,0.000000000,-1.186878000,0.000000000,0.000000000,1.021020000,0.000000000,0.000000000,-0.028128000,0.000000000,0.000000000,0.231168000,0.000000000,0.000000000,0.023616000,0.000000000,0.000000000,1720620323.833715677,,,,,,,,,,,
1720620323.845318,-0.055198000,0.000000000,0.000000000,-1.198197000,0.000000000,0.000000000,1.021020000,0.000000000,0.000000000,-0.028128000,0.000000000,0.000000000,0.230752000,0.000000000,0.000000000,0.023136000,0.000000000,0.000000000,1720620323.837715626,,,,,,,,,,,
1720620323.852596,-0.055198000,0.000000000,0.000000000,-1.198197000,0.000000000,0.000000000,1.021020000,0.000000000,0.000000000,-0.028128000,0.000000000,0.000000000,0.230624000,0.000000000,0.000000000,0.023552000,0.000000000,0.000000000,1720620323.844715595,,,,,,,,,,,
1720620323.853666,-0.055198000,0.000000000,0.000000000,-1.198197000,0.000000000,0.000000000,1.021020000,0.000000000,0.000000000,-0.028128000,0.000000000,0.000000000,0.230624000,0.000000000,0.000000000,0.023552000,0.000000000,0.000000000,1720620323.845715761,,,,,,,,,,,
1720620323.860730,-0.055198000,0.000000000,0.000000000,-1.197119000,0.000000000,0.000000000,1.021020000,0.000000000,0.000000000,-0.028128000,0.000000000,0.000000000,0.231072000,0.000000000,0.000000000,0.022560000,0.000038380,0.009134350,1720620323.852715731,,,,,,,,,,,
1720620323.866782,-0.055198000,0.000000000,0.000000000,-1.201970000,0.000000000,0.000000000,1.021020000,0.000000000,0.000000000,-0.028128000,0.000000000,0.000000000,0.230688000,0.000000000,0.000000000,0.024480000,0.000000000,0.009134350,1720620323.858715773,,,,,,,,,,,
1720620323.868458,-0.055198000,0.000000000,0.000000000,-1.170169000,0.000000000,0.000000000,1.021020000,0.000000000,0.000000000,-0.028128000,0.000000000,0.000000000,0.230368000,0.000000000,0.000000000,0.022144000,0.000038380,0.009134350,1720620323.860715628,,,,,,,,,,,
1720620323.873215,-0.056914000,0.000000000,0.000000000,-1.189573000,0.000000000,0.000000000,1.021020000,0.000000000,0.000000000,-0.028128000,0.000000000,0.000000000,0.231232000,0.000000000,0.000000000,0.024352000,0.000000000,0.009134350,1720620323.865715742,,,,,,,,,,,
1720620323.880764,-0.056342000,0.000000000,0.000000000,-1.191190000,0.000000000,0.000000000,1.021020000,0.000000000,0.000000000,-0.028128000,0.000000000,0.000000000,0.231424000,0.000000000,0.000000000,0.024352000,0.000000000,0.009134350,1720620323.872715712,,,,,,,,,,,
1720620323.884418,-0.055770000,0.000000000,0.000000000,-1.187417000,0.000000000,0.000000000,1.021020000,0.000000000,0.000000000,-0.028128000,0.000000000,0.000000000,0.231072000,0.000000000,0.000000000,0.022496000,0.000038380,0.009134350,1720620323.876715660,,,,,,,,,,,
1720620323.890052,,,,,,,,,,,,,,,,,,,,1720620323.872715712,-1.186824000,3.141592654,0.000000015,0.829037542,-0.000000022,-0.000000054,0.559192949,1.395152983,0.001110973,1.481517837
1720620323.892545,-0.055198000,0.000000000,0.000000000,-1.192807000,0.000000000,0.000000000,1.021020000,0.000000000,0.000000000,-0.028128000,0.000000000,0.000000000,0.231360000,0.000000000,0.000000000,0.022752000,0.000000000,0.000000000,1720620323.884715796,,,,,,,,,,,
1720620323.897367,-0.055198000,0.000000000,0.000000000,-1.192807000,0.000000000,0.000000000,1.021020000,0.000000000,0.000000000,-0.028128000,0.000000000,0.000000000,0.230752000,0.000000000,0.000000000,0.023936000,0.000000000,0.000000000,1720620323.889715672,,,,,,,,,,,
1720620323.904555,-0.055198000,0.000000000,0.000000000,-1.193885000,0.000000000,0.000000000,1.021020000,0.000000000,0.000000000,-0.028128000,0.000000000,0.000000000,0.230496000,0.000000000,0.000000000,0.024064000,0.000000000,0.000000000,1720620323.896715641,,,,,,,,,,,
1720620323.908509,-0.055198000,0.000000000,0.000000000,-1.193885000,0.000000000,0.000000000,1.021020000,0.000000000,0.000000000,-0.028128000,0.000000000,0.000000000,0.230688000,0.000000000,0.000000000,0.022752000,0.000000000,0.000000000,1720620323.900715590,,,,,,,,,,,
1720620323.916559,-0.055770000,0.000000000,0.000000000,-1.193885000,0.000000000,0.000000000,1.021020000,0.000000000,0.000000000,-0.028128000,0.000000000,0.000000000,0.231296000,0.000000000,0.000000000,0.022496000,0.000000000,0.000000000,1720620323.908715725,,,,,,,,,,,
1720620323.920657,-0.055770000,0.000000000,0.000000000,-1.193885000,0.000000000,0.000000000,1.021020000,0.000000000,0.000000000,-0.028128000,0.000000000,0.000000000,0.230752000,0.000000000,0.000000000,0.023872000,0.000000000,0.000000000,1720620323.912715673,,,,,,,,,,,
1720620323.928807,-0.055198000,0.000000000,0.000000000,-1.193885000,0.000000000,0.000000000,1.021020000,0.000000000,0.000000000,-0.028128000,0.000000000,0.000000000,0.230944000,0.000000000,0.000000000,0.023936000,0.000000000,0.000000000,1720620323.920715809,,,,,,,,,,,
1720620323.932471,-0.055198000,0.000000000,0.000000000,-1.196580000,0.000000000,0.000000000,1.021020000,0.000000000,0.000000000,-0.028128000,0.000000000,0.000000000,0.231168000,0.000000000,0.000000000,0.023136000,0.000000000,0.000000000,1720620323.924715757,,,,,,,,,,,
1720620323.940047,,,,,,,,,,,,,,,,,,,,1720620323.924715757,-1.186824000,3.141592654,0.000000015,0.829037542,-0.000000022,-0.000000054,0.559192949,1.395152983,0.001110973,1.481517837
1720620323.941159,-0.055198000,0.000000000,0.000000000,-1.194963000,0.000000000,0.000000000,1.021020000,0.000000000,0.000000000,-0.028128000,0.000000000,0.000000000,0.231168000,0.000000000,0.000000000,0.023200000,0.000000000,0.000000000,1720620323.932715654,,,,,,,,,,,
1720620323.946147,-0.055198000,0.000000000,0.000000000,-1.194963000,0.000000000,0.000000000,1.021020000,0.000000000,0.000000000,-0.028128000,0.000000000,0.000000000,0.230368000,0.000000000,0.000000000,0.023488000,0.000000000,0.000000000,1720620323.937715769,,,,,,,,,,,
1720620323.952654,-0.055198000,0.000000000,0.000000000,-1.185261000,0.000000000,0.000000000,1.021020000,0.000000000,0.000000000,-0.028128000,0.000000000,0.000000000,0.230752000,0.000000000,0.000000000,0.023872000,0.000000000,0.009134350,1720620323.944715738,,,,,,,,,,,
1720620323.953611,-0.055198000,0.000000000,0.000000000,-1.185261000,0.000000000,0.000000000,1.021020000,0.000000000,0.000000000,-0.028128000,0.000000000,0.000000000,0.230752000,0.000000000,0.000000000,0.023872000,0.000000000,0.009134350,1720620323.945715666,,,,,,,,,,,
1720620323.957565,-0.055198000,0.000000000,0.000000000,-1.200892000,0.000000000,0.000000000,1.021020000,0.000000000,0.000000000,-0.028128000,0.000000000,0.000000000,0.231168000,0.000000000,0.000000000,0.023136000,0.000000000,0.000000000,1720620323.949715614,,,,,,,,,,,
1720620323.964798,-0.055198000,0.000000000,0.000000000,-1.192807000,0.000000000,0.000000000,1.021020000,0.000000000,0.000000000,-0.028128000,0.000000000,0.000000000,0.231232000,0.000000000,0.000000000,0.023360000,0.000000000,0.000000000,1720620323.956715584,,,,,,,,,,,
1720620323.966408,-0.055198000,0.000000000,0.000000000,-1.192807000,0.000000000,0.000000000,1.021020000,0.000000000,0.000000000,-0.028128000,0.000000000,0.000000000,0.231232000,0.000000000,0.000000000,0.023360000,0.000000000,0.000000000,1720620323.957715750,,,,,,,,,,,
1720620323.969616,-0.055198000,0.000000000,0.000000000,-1.187417000,0.000000000,0.000000000,1.021020000,0.000000000,0.000000000,-0.028128000,0.000000000,0.000000000,0.230880000,0.000000000,0.000000000,0.023136000,0.000000000,0.000000000,1720620323.961715698,,,,,,,,,,,
1720620323.976449,-0.056914000,0.000000000,0.000000000,-1.192807000,0.000000000,0.000000000,1.021020000,0.000000000,0.000000000,-0.028128000,0.000000000,0.000000000,0.230944000,0.000000000,0.000000000,0.022624000,0.000000000,0.000000000,1720620323.968715668,,,,,,,,,,,
1720620323.977448,-0.056914000,0.000000000,0.000000000,-1.192807000,0.000000000,0.000000000,1.021020000,0.000000000,0.000000000,-0.028128000,0.000000000,0.000000000,0.230944000,0.000000000,0.000000000,0.022624000,0.000000000,0.000000000,1720620323.969715595,,,,,,,,,,,
1720620323.981503,-0.056342000,0.000000000,0.000000000,-1.192807000,0.000000000,0.000000000,1.021020000,0.000000000,0.000000000,-0.028128000,0.000000000,0.000000000,0.230688000,0.000000000,0.000000000,0.023872000,0.000000000,0.000000000,1720620323.973715782,,,,,,,,,,,
1720620323.988666,-0.055770000,0.000000000,0.000000000,-1.192807000,0.000000000,0.000000000,1.021020000,0.000000000,0.000000000,-0.028128000,0.000000000,0.000000000,0.230208000,0.000000000,0.000000000,0.023936000,0.000000000,0.000000000,1720620323.980715752,,,,,,,,,,,
1720620323.989696,-0.055770000,0.000000000,0.000000000,-1.192807000,0.000000000,0.000000000,1.021020000,0.000000000,0.000000000,-0.028128000,0.000000000,0.000000000,0.230208000,0.000000000,0.000000000,0.023936000,0.000000000,0.000000000,1720620323.981715679,,,,,,,,,,,
1720620323.989776,,,,,,,,,,,,,,,,,,,,1720620323.980715752,-1.186824000,3.141592654,0.000000015,0.829037542,-0.000000022,-0.000000054,0.559192949,1.395152983,0.001110973,1.481517837
1720620323.993353,-0.055770000,0.000000000,0.000000000,-1.192807000,0.000000000,0.000000000,1.021020000,0.000000000,0.000000000,-0.028128000,0.000000000,0.000000000,0.230944000,0.000000000,0.000000000,0.022752000,0.000000000,0.000000000,1720620323.985715628,,,,,,,,,,,
1720620324.001301,-0.055770000,0.000000000,0.000000000,-1.183105000,0.000000000,0.000000000,1.021020000,0.000000000,0.000000000,-0.028128000,0.000000000,0.000000000,0.230368000,0.000000000,0.000000000,0.022880000,0.000000000,0.000000000,1720620323.992715597,,,,,,,,,,,
1720620324.001859,-0.055770000,0.000000000,0.000000000,-1.183105000,0.000000000,0.000000000,1.021020000,0.000000000,0.000000000,-0.028128000,0.000000000,0.000000000,0.230368000,0.000000000,0.000000000,0.022880000,0.000000000,0.000000000,1720620323.993715763,,,,,,,,,,,
1720620324.006074,-0.055770000,0.000000000,0.000000000,-1.200892000,0.000000000,0.000000000,1.021020000,0.000000000,0.000000000,-0.028128000,0.000000000,0.000000000,0.230624000,0.000000000,0.000000000,0.023488000,0.000000000,0.000000000,1720620323.997715712,,,,,,,,,,,
1720620324.012656,-0.055770000,0.000000000,0.000000000,-1.196580000,0.000000000,0.000000000,1.021020000,0.000000000,0.000000000,-0.028128000,0.000000000,0.000000000,0.231424000,0.000000000,0.000000000,0.023552000,0.000000000,0.000000000,1720620324.004715681,,,,,,,,,,,
1720620324.013645,-0.055770000,0.000000000,0.000000000,-1.196580000,0.000000000,0.000000000,1.021020000,0.000000000,0.000000000,-0.028128000,0.000000000,0.000000000,0.231424000,0.000000000,0.000000000,0.023552000,0.000000000,0.000000000,1720620324.005715609,,,,,,,,,,,
1720620324.017677,-0.055770000,0.000000000,0.000000000,-1.196580000,0.000000000,0.000000000,1.021020000,0.000000000,0.000000000,-0.028128000,0.000000000,0.000000000,0.230496000,0.000000000,0.000000000,0.022624000,0.000000000,0.000000000,1720620324.009715796,,,,,,,,,,,
1720620324.024779,-0.055770000,0.000000000,0.000000000,-1.196580000,0.000000000,0.000000000,1.021020000,0.000000000,0.000000000,-0.028128000,0.000000000,0.000000000,0.231168000,0.000000000,0.000000000,0.022560000,0.000000000,0.000000000,1720620324.016715765,,,,,,,,,,,
1720620324.026219,-0.055770000,0.000000000,0.000000000,-1.196580000,0.000000000,0.000000000,1.021020000,0.000000000,0.000000000,-0.028128000,0.000000000,0.000000000,0.231168000,0.000000000,0.000000000,0.022560000,0.000000000,0.000000000,1720620324.017715693,,,,,,,,,,,
1720620324.029577,-0.055770000,0.000000000,0.000000000,-1.195502000,0.000000000,0.000000000,1.021020000,0.000000000,0.000000000,-0.028128000,0.000000000,0.000000000,0.231232000,0.000000000,0.000000000,0.024000000,0.000000000,0.000000000,1720620324.021715641,,,,,,,,,,,
1720620324.037141,-0.055770000,0.000000000,0.000000000,-1.198197000,0.000000000,0.000000000,1.021020000,0.000000000,0.000000000,-0.028128000,0.000000000,0.000000000,0.230496000,0.000000000,0.000000000,0.023936000,0.000000000,0.000000000,1720620324.028715611,,,,,,,,,,,
1720620324.037828,-0.055770000,0.000000000,0.000000000,-1.198197000,0.000000000,0.000000000,1.021020000,0.000000000,0.000000000,-0.028128000,0.000000000,0.000000000,0.230496000,0.000000000,0.000000000,0.023936000,0.000000000,0.000000000,1720620324.029715776,,,,,,,,,,,
1720620324.041785,-0.055770000,0.000000000,0.000000000,-1.190112000,0.000000000,0.000000000,1.021020000,0.000000000,0.000000000,-0.028128000,0.000000000,0.000000000,0.230944000,0.000000000,0.000000000,0.022496000,0.000000000,0.000000000,1720620324.033715725,,,,,,,,,,,
1720620324.049021,-0.055770000,0.000000000,0.000000000,-1.192268000,0.000000000,0.000000000,1.021020000,0.000000000,0.000000000,-0.028128000,0.000000000,0.000000000,0.231232000,0.000000000,0.000000000,0.022560000,0.000000000,0.000000000,1720620324.040715694,,,,,,,,,,,
1720620324.049631,-0.055770000,0.000000000,0.000000000,-1.192268000,0.000000000,0.000000000,1.021020000,0.000000000,0.000000000,-0.028128000,0.000000000,0.000000000,0.231232000,0.000000000,0.000000000,0.022560000,0.000000000,0.000000000,1720620324.041715622,,,,,,,,,,,
1720620324.049869,,,,,,,,,,,,,,,,,,,,1720620324.033715725,-1.186824000,3.141592654,0.000000015,0.829037542,-0.000000022,-0.000000054,0.559192949,1.395152983,0.001110973,1.481517837
1720620324.054994,-0.057486000,0.000000000,0.000000000,-1.213289000,0.000000000,0.000000000,1.021020000,0.000000000,0.000000000,-0.028128000,0.000000000,0.000000000,0.230944000,0.000000000,0.000000000,0.024224000,0.000000000,0.000000000,1720620324.046715736,,,,,,,,,,,
