zakjeens/yaskawa_debug_materials/t13/joints.csv
__time,/joint_states/group_1/joint_1/effort,/joint_states/group_1/joint_1/position,/joint_states/group_1/joint_1/velocity,/joint_states/group_1/joint_2/effort,/joint_states/group_1/joint_2/position,/joint_states/group_1/joint_2/velocity,/joint_states/group_1/joint_3/effort,/joint_states/group_1/joint_3/position,/joint_states/group_1/joint_3/velocity,/joint_states/group_1/joint_4/effort,/joint_states/group_1/joint_4/position,/joint_states/group_1/joint_4/velocity,/joint_states/group_1/joint_5/effort,/joint_states/group_1/joint_5/position,/joint_states/group_1/joint_5/velocity,/joint_states/group_1/joint_6/effort,/joint_states/group_1/joint_6/position,/joint_states/group_1/joint_6/velocity,/joint_states/header/stamp,/world_to_torch/header/header/stamp,/world_to_torch/transform/rotation/pitch,/world_to_torch/transform/rotation/roll,/world_to_torch/transform/rotation/w,/world_to_torch/transform/rotation/x,/world_to_torch/transform/rotation/y,/world_to_torch/transform/rotation/yaw,/world_to_torch/transform/rotation/z,/world_to_torch/transform/translation/x,/world_to_torch/transform/translation/y,/world_to_torch/transform/translation/z
1720620441.811516,0.042328000,0.000000000,0.000000000,-1.226764000,0.000000000,0.000000000,0.986414000,0.000000000,0.000000000,0.058848000,0.000000000,0.000000000,0.236544000,0.000000000,0.000000000,-0.054336000,0.000000000,0.000000000,1720620441.800062656,,,,,,,,,,,
1720620441.811531,0.042328000,0.000000000,0.000000000,-1.225686000,0.000000000,0.000000000,0.986414000,0.000000000,0.000000000,0.058848000,0.000000000,0.000000000,0.236800000,0.000000000,0.000000000,-0.053824000,0.000000000,0.000000000,1720620441.804062605,,,,,,,,,,,
1720620441.813257,0.042328000,0.000000000,0.000000000,-1.225686000,0.000000000,0.000000000,0.986414000,0.000000000,0.000000000,0.058848000,0.000000000,0.000000000,0.237120000,0.000000000,0.000000000,-0.054144000,0.000000000,0.000000000,1720620441.811062574,,,,,,,,,,,
1720620441.816266,0.042328000,0.000000000,0.000000000,-1.225686000,0.000000000,0.000000000,0.986414000,0.000000000,0.000000000,0.058848000,0.000000000,0.000000000,0.237120000,0.000000000,0.000000000,-0.054144000,0.000000000,0.000000000,1720620441.812062740,,,,,,,,,,,
1720620441.819200,0.042328000,0.000000000,0.000000000,-1.225686000,0.000000000,0.000000000,0.986414000,0.000000000,0.000000000,0.058848000,0.000000000,0.000000000,0.236928000,0.000000000,0.000000000,-0.053952000,0.000000000,0.000000000,1720620441.817062616,,,,,,,,,,,
1720620441.826619,0.042328000,0.000000000,0.000000000,-1.225686000,0.000000000,0.000000000,0.986414000,0.000000000,0.000000000,0.058848000,0.000000000,0.000000000,0.236800000,0.000000000,0.000000000,-0.053824000,0.000000000,0.000000000,1720620441.824062586,,,,,,,,,,,
1720620441.828313,0.042328000,0.000000000,0.000000000,-1.225686000,0.000000000,0.000000000,0.986414000,0.000000000,0.000000000,0.058848000,0.000000000,0.000000000,0.236800000,0.000000000,0.000000000,-0.053824000,0.000000000,0.000000000,1720620441.825062752,,,,,,,,,,,
1720620441.837895,0.042328000,0.000000000,0.000000000,-1.225686000,0.000000000,0.000000000,0.986414000,0.000000000,0.000000000,0.058848000,0.000000000,0.000000000,0.236928000,0.000000000,0.000000000,-0.053664000,0.000000000,0.000000000,1720620441.835062742,,,,,,,,,,,
1720620441.838445,0.042328000,0.000000000,0.000000000,-1.225686000,0.000000000,0.000000000,0.986414000,0.000000000,0.000000000,0.058848000,0.000000000,0.000000000,0.236928000,0.000000000,0.000000000,-0.053664000,0.000000000,0.000000000,1720620441.836062670,,,,,,,,,,,
1720620441.840436,0.042328000,0.000000000,0.000000000,-1.225686000,0.000000000,0.000000000,0.988416000,0.000000000,0.000000000,0.058784000,0.000000000,0.000000000,0.237312000,0.000000000,0.000000000,-0.054336000,0.000000000,0.000000000,1720620441.838062763,,,,,,,,,,,
1720620441.850083,0.042328000,0.000000000,0.000000000,-1.225686000,0.000000000,0.000000000,0.987558000,0.000000000,0.000000000,0.058784000,0.000000000,0.000000000,0.236864000,0.000000000,0.000000000,-0.054016000,0.000000000,0.000000000,1720620441.847062588,,,,,,,,,,,
1720620441.850479,0.042328000,0.000000000,0.000000000,-1.225686000,0.000000000,0.000000000,0.987558000,0.000000000,0.000000000,0.058784000,0.000000000,0.000000000,0.236864000,0.000000000,0.000000000,-0.054016000,0.000000000,0.000000000,1720620441.848062754,,,,,,,,,,,
1720620441.852164,0.042328000,0.000000000,0.000000000,-1.225686000,0.000000000,0.000000000,0.987558000,0.000000000,0.000000000,0.058784000,0.000000000,0.000000000,0.236864000,0.000000000,0.000000000,-0.054016000,0.000000000,0.000000000,1720620441.849062681,,,,,,,,,,,
1720620441.861716,0.042328000,0.000000000,0.000000000,-1.224608000,0.000000000,0.000000000,0.986986000,0.000000000,0.000000000,0.058784000,0.000000000,0.000000000,0.236672000,0.000000000,0.000000000,-0.054016000,0.000000000,0.000000000,1720620441.859062672,,,,,,,,,,,
1720620441.862994,0.042328000,0.000000000,0.000000000,-1.224608000,0.000000000,0.000000000,0.986986000,0.000000000,0.000000000,0.058784000,0.000000000,0.000000000,0.236672000,0.000000000,0.000000000,-0.054016000,0.000000000,0.000000000,1720620441.860062599,,,,,,,,,,,
1720620441.864244,0.042328000,0.000000000,0.000000000,-1.227303000,0.000000000,0.000000000,0.985842000,0.000000000,0.000000000,0.058784000,0.000000000,0.000000000,0.236672000,0.000000000,0.000000000,-0.053888000,0.000000000,0.000000000,1720620441.862062693,,,,,,,,,,,
1720620441.873742,0.042328000,0.000000000,0.000000000,-1.226764000,0.000000000,0.000000000,0.985556000,0.000000000,0.000000000,0.058848000,0.000000000,0.000000000,0.236384000,0.000000000,0.000000000,-0.054016000,0.000000000,0.000000000,1720620441.871062756,,,,,,,,,,,
1720620441.874406,0.042328000,0.000000000,0.000000000,-1.226764000,0.000000000,0.000000000,0.985556000,0.000000000,0.000000000,0.058848000,0.000000000,0.000000000,0.236384000,0.000000000,0.000000000,-0.054016000,0.000000000,0.000000000,1720620441.872062683,,,,,,,,,,,
1720620441.876095,0.042328000,0.000000000,0.000000000,-1.226764000,0.000000000,0.000000000,0.985556000,0.000000000,0.000000000,0.058848000,0.000000000,0.000000000,0.237184000,0.000000000,0.000000000,-0.053824000,0.000000000,0.000000000,1720620441.874062777,,,,,,,,,,,
1720620441.879275,,,,,,,,,,,,,,,,,,,,1720620441.874062777,-1.186824000,3.141592654,0.000000015,0.829037542,-0.000000022,-0.000000054,0.559192949,1.395152983,0.001110973,1.481517837
1720620441.885798,0.042328000,0.000000000,0.000000000,-1.226764000,0.000000000,0.000000000,0.985842000,0.000000000,0.000000000,0.058848000,0.000000000,0.000000000,0.236320000,0.000000000,0.000000000,-0.054688000,0.000000000,0.000000000,1720620441.883062601,,,,,,,,,,,
1720620441.886810,0.042328000,0.000000000,0.000000000,-1.226764000,0.000000000,0.000000000,0.985842000,0.000000000,0.000000000,0.058848000,0.000000000,0.000000000,0.236320000,0.000000000,0.000000000,-0.054688000,0.000000000,0.000000000,1720620441.884062767,,,,,,,,,,,
1720620441.888430,0.042328000,0.000000000,0.000000000,-1.231615000,0.000000000,0.000000000,0.985842000,0.000000000,0.000000000,0.058848000,0.000000000,0.000000000,0.236448000,0.000000000,0.000000000,-0.053088000,0.000000000,0.000000000,1720620441.886062622,,,,,,,,,,,
1720620441.898133,0.042328000,0.000000000,0.000000000,-1.224069000,0.000000000,0.000000000,0.985842000,0.000000000,0.000000000,0.058528000,0.000000000,0.000000000,0.236000000,0.000000000,0.000000000,-0.053088000,0.000000000,0.000000000,1720620441.895062685,,,,,,,,,,,
1720620441.898468,0.042328000,0.000000000,0.000000000,-1.224069000,0.000000000,0.000000000,0.985842000,0.000000000,0.000000000,0.058528000,0.000000000,0.000000000,0.236000000,0.000000000,0.000000000,-0.053088000,0.000000000,0.000000000,1720620441.896062613,,,,,,,,,,,
1720620441.900461,0.042328000,0.000000000,0.000000000,-1.224069000,0.000000000,0.000000000,0.985842000,0.000000000,0.000000000,0.058848000,0.000000000,0.000000000,0.237120000,0.000000000,0.000000000,-0.054752000,0.000000000,0.000000000,1720620441.898062706,,,,,,,,,,,
1720620441.910225,0.042328000,0.000000000,0.000000000,-1.221374000,0.000000000,0.000000000,0.985842000,0.000000000,0.000000000,0.058848000,0.000000000,0.000000000,0.236800000,0.000000000,0.000000000,-0.054944000,0.000038380,0.009134350,1720620441.907062769,,,,,,,,,,,
1720620441.910886,0.042328000,0.000000000,0.000000000,-1.221374000,0.000000000,0.000000000,0.985842000,0.000000000,0.000000000,0.058848000,0.000000000,0.000000000,0.236800000,0.000000000,0.000000000,-0.054944000,0.000038380,0.009134350,1720620441.908062696,,,,,,,,,,,
1720620441.913071,0.042328000,0.000000000,0.000000000,-1.224069000,0.000000000,0.000000000,0.985842000,0.000000000,0.000000000,0.058848000,0.000000000,0.000000000,0.236384000,0.000000000,0.000000000,-0.052608000,0.000000000,0.009134350,1720620441.910062551,,,,,,,,,,,
1720620441.924736,0.042328000,0.000000000,0.000000000,-1.224069000,0.000000000,0.000000000,0.985842000,0.000000000,0.000000000,0.058784000,0.000000000,0.000000000,0.236544000,0.000000000,0.000000000,-0.054944000,0.000038380,0.009134350,1720620441.922062635,,,,,,,,,,,
1720620441.933402,0.042328000,0.000000000,0.000000000,-1.224608000,0.000000000,0.000000000,0.985842000,0.000000000,0.000000000,0.058784000,0.000000000,0.000000000,0.235936000,0.000000000,0.000000000,-0.054016000,0.000000000,0.000000000,1720620441.930062771,,,,,,,,,,,
1720620441.939601,,,,,,,,,,,,,,,,,,,,1720620441.930062771,-1.186824000,3.141592654,0.000000015,0.829037542,-0.000000022,-0.000000054,0.559192949,1.395152983,0.001110973,1.481517837
1720620441.942125,0.042328000,0.000000000,0.000000000,-1.237005000,0.000000000,0.000000000,0.985842000,0.000000000,0.000000000,0.058784000,0.000000000,0.000000000,0.236864000,0.000000000,0.000000000,-0.053824000,0.000000000,0.000000000,1720620441.939062595,,,,,,,,,,,
1720620441.943369,0.042328000,0.000000000,0.000000000,-1.237005000,0.000000000,0.000000000,0.985842000,0.000000000,0.000000000,0.058784000,0.000000000,0.000000000,0.236864000,0.000000000,0.000000000,-0.053824000,0.000000000,0.000000000,1720620441.940062761,,,,,,,,,,,
1720620441.944588,0.042328000,0.000000000,0.000000000,-1.228920000,0.000000000,0.000000000,0.985842000,0.000000000,0.000000000,0.058784000,0.000000000,0.000000000,0.236000000,0.000000000,0.000000000,-0.054080000,0.000000000,0.000000000,1720620441.942062616,,,,,,,,,,,
1720620441.954548,0.042328000,0.000000000,0.000000000,-1.229998000,0.000000000,0.000000000,0.984984000,0.000000000,0.000000000,0.058848000,0.000000000,0.000000000,0.237184000,0.000000000,0.000000000,-0.054144000,0.000000000,0.000000000,1720620441.951062679,,,,,,,,,,,
1720620441.954881,0.042328000,0.000000000,0.000000000,-1.229998000,0.000000000,0.000000000,0.984984000,0.000000000,0.000000000,0.058848000,0.000000000,0.000000000,0.237184000,0.000000000,0.000000000,-0.054144000,0.000000000,0.000000000,1720620441.952062607,,,,,,,,,,,
1720620441.956605,0.042328000,0.000000000,0.000000000,-1.229998000,0.000000000,0.000000000,0.985556000,0.000000000,0.000000000,0.058848000,0.000000000,0.000000000,0.236320000,0.000000000,0.000000000,-0.053344000,0.000000000,0.000000000,1720620441.953062773,,,,,,,,,,,
1720620441.966224,0.042328000,0.000000000,0.000000000,-1.229998000,0.000000000,0.000000000,0.985556000,0.000000000,0.000000000,0.058848000,0.000000000,0.000000000,0.236256000,0.000000000,0.000000000,-0.053472000,0.000000000,0.000000000,1720620441.963062763,,,,,,,,,,,
1720620441.967131,0.042328000,0.000000000,0.000000000,-1.229998000,0.000000000,0.000000000,0.985556000,0.000000000,0.000000000,0.058848000,0.000000000,0.000000000,0.236256000,0.000000000,0.000000000,-0.053472000,0.000000000,0.000000000,1720620441.964062691,,,,,,,,,,,
1720620441.968706,0.042328000,0.000000000,0.000000000,-1.228920000,0.000000000,0.000000000,0.985556000,0.000000000,0.000000000,0.058848000,0.000000000,0.000000000,0.236384000,0.000000000,0.000000000,-0.054272000,0.000000000,0.000000000,1720620441.966062546,,,,,,,,,,,
1720620441.978598,0.042328000,0.000000000,0.000000000,-1.226764000,0.000000000,0.000000000,0.985556000,0.000000000,0.000000000,0.058848000,0.000000000,0.000000000,0.237120000,0.000000000,0.000000000,-0.054080000,0.000000000,0.000000000,1720620441.975062609,,,,,,,,,,,
1720620441.979042,0.042328000,0.000000000,0.000000000,-1.226764000,0.000000000,0.000000000,0.985556000,0.000000000,0.000000000,0.058848000,0.000000000,0.000000000,0.237120000,0.000000000,0.000000000,-0.054080000,0.000000000,0.000000000,1720620441.976062775,,,,,,,,,,,
1720620441.982409,0.042328000,0.000000000,0.000000000,-1.225686000,0.000000000,0.000000000,0.985556000,0.000000000,0.000000000,0.058848000,0.000000000,0.000000000,0.236256000,0.000000000,0.000000000,-0.054208000,0.000000000,0.000000000,1720620441.979062557,,,,,,,,,,,
1720620441.990544,0.042328000,0.000000000,0.000000000,-1.225686000,0.000000000,0.000000000,0.985556000,0.000000000,0.000000000,0.058848000,0.000000000,0.000000000,0.237248000,0.000000000,0.000000000,-0.053664000,0.000000000,0.000000000,1720620441.987062693,,,,,,,,,,,
1720620441.990927,0.042328000,0.000000000,0.000000000,-1.225686000,0.000000000,0.000000000,0.985556000,0.000000000,0.000000000,0.058848000,0.000000000,0.000000000,0.237248000,0.000000000,0.000000000,-0.053664000,0.000000000,0.000000000,1720620441.988062620,,,,,,,,,,,
1720620441.994053,0.042328000,0.000000000,0.000000000,-1.225686000,0.000000000,0.000000000,0.985556000,0.000000000,0.000000000,0.058848000,0.000000000,0.000000000,0.236864000,0.000000000,0.000000000,-0.054208000,0.000000000,0.000000000,1720620441.991062641,,,,,,,,,,,
1720620441.999369,,,,,,,,,,,,,,,,,,,,1720620441.987062693,-1.186824000,3.141592654,0.000000015,0.829037542,-0.000000022,-0.000000054,0.559192949,1.395152983,0.001110973,1.481517837
1720620442.002252,0.042328000,0.000000000,0.000000000,-1.224069000,0.000000000,0.000000000,0.985556000,0.000000000,0.000000000,0.058848000,0.000000000,0.000000000,0.236800000,0.000000000,0.000000000,-0.054336000,0.000000000,0.000000000,1720620441.999062777,,,,,,,,,,,
1720620442.003405,0.042328000,0.000000000,0.000000000,-1.224069000,0.000000000,0.000000000,0.985556000,0.000000000,0.000000000,0.058848000,0.000000000,0.000000000,0.236800000,0.000000000,0.000000000,-0.054336000,0.000000000,0.000000000,1720620442.000062704,,,,,,,,,,,
1720620442.004623,0.042328000,0.000000000,0.000000000,-1.224608000,0.000000000,0.000000000,0.985556000,0.000000000,0.000000000,0.058848000,0.000000000,0.000000000,0.235808000,0.000000000,0.000000000,-0.053280000,0.000000000,0.000000000,1720620442.002062559,,,,,,,,,,,
1720620442.014404,0.042328000,0.000000000,0.000000000,-1.224069000,0.000000000,0.000000000,0.985556000,0.000000000,0.000000000,0.058848000,0.000000000,0.000000000,0.237184000,0.000000000,0.000000000,-0.053344000,0.000000000,0.000000000,1720620442.011062622,,,,,,,,,,,
1720620442.015025,0.042328000,0.000000000,0.000000000,-1.224069000,0.000000000,0.000000000,0.985556000,0.000000000,0.000000000,0.058848000,0.000000000,0.000000000,0.237184000,0.000000000,0.000000000,-0.053344000,0.000000000,0.000000000,1720620442.012062550,,,,,,,,,,,
1720620442.018154,0.042328000,0.000000000,0.000000000,-1.200892000,0.000000000,0.000000000,0.985556000,0.000000000,0.000000000,0.058848000,0.000000000,0.000000000,0.236736000,0.000000000,0.000000000,-0.054944000,0.000000000,0.000000000,1720620442.015062571,,,,,,,,,,,
1720620442.026407,0.042328000,0.000000000,0.000000000,-1.238622000,0.000000000,0.000000000,0.985556000,0.000000000,0.000000000,0.058848000,0.000000000,0.000000000,0.236992000,0.000000000,0.000000000,-0.053824000,0.000000000,0.000000000,1720620442.023062706,,,,,,,,,,,
1720620442.027450,0.042328000,0.000000000,0.000000000,-1.238622000,0.000000000,0.000000000,0.985556000,0.000000000,0.000000000,0.058848000,0.000000000,0.000000000,0.236992000,0.000000000,0.000000000,-0.053824000,0.000000000,0.000000000,1720620442.024062634,,,,,,,,,,,
1720620442.028619,0.042328000,0.000000000,0.000000000,-1.221374000,0.000000000,0.000000000,0.985556000,0.000000000,0.000000000,0.058848000,0.000000000,0.000000000,0.236992000,0.000000000,0.000000000,-0.053888000,0.000000000,0.000000000,1720620442.026062727,,,,,,,,,,,
1720620442.038402,0.042328000,0.000000000,0.000000000,-1.224608000,0.000000000,0.000000000,0.985556000,0.000000000,0.000000000,0.058848000,0.000000000,0.000000000,0.236608000,0.000000000,0.000000000,-0.053760000,0.000000000,0.000000000,1720620442.035062551,,,,,,,,,,,
1720620442.038718,0.042328000,0.000000000,0.000000000,-1.224608000,0.000000000,0.000000000,0.985556000,0.000000000,0.000000000,0.058848000,0.000000000,0.000000000,0.236608000,0.000000000,0.000000000,-0.053760000,0.000000000,0.000000000,1720620442.036062717,,,,,,,,,,,
1720620442.040675,0.042328000,0.000000000,0.000000000,-1.224608000,0.000000000,0.000000000,0.985556000,0.000000000,0.000000000,0.058784000,0.000000000,0.000000000,0.236800000,0.000000000,0.000000000,-0.054336000,0.000000000,0.000000000,1720620442.038062572,,,,,,,,,,,
1720620442.049510,,,,,,,,,,,,,,,,,,,,1720620442.038062572,-1.186824000,3.141592654,0.000000015,0.829037542,-0.000000022,-0.000000054,0.559192949,1.395152983,0.001110973,1.481517837
1720620442.050351,0.042328000,0.000000000,0.000000000,-1.224069000,0.000000000,0.000000000,0.985556000,0.000000000,0.000000000,0.058784000,0.000000000,0.000000000,0.236544000,0.000000000,0.000000000,-0.054208000,0.000000000,0.000000000,1720620442.047062635,,,,,,,,,,,
1720620442.050883,0.042328000,0.000000000,0.000000000,-1.224069000,0.000000000,0.000000000,0.985556000,0.000000000,0.000000000,0.058784000,0.000000000,0.000000000,0.236544000,0.000000000,0.000000000,-0.054208000,0.000000000,0.000000000,1720620442.048062563,,,,,,,,,,,
1720620442.052530,0.042328000,0.000000000,0.000000000,-1.213289000,0.000000000,0.000000000,0.985556000,0.000000000,0.000000000,0.058784000,0.000000000,0.000000000,0.237248000,0.000000000,0.000000000,-0.053152000,0.000000000,0.000000000,1720620442.049062729,,,,,,,,,,,
1720620442.052608,0.042328000,0.000000000,0.000000000,-1.213289000,0.000000000,0.000000000,0.985556000,0.000000000,0.000000000,0.058784000,0.000000000,0.000000000,0.237248000,0.000000000,0.000000000,-0.053152000,0.000000000,0.000000000,1720620442.050062656,,,,,,,,,,,
1720620442.054947,0.042328000,0.000000000,0.000000000,-1.213289000,0.000000000,0.000000000,0.985556000,0.000000000,0.000000000,0.058784000,0.000000000,0.000000000,0.237248000,0.000000000,0.000000000,-0.053152000,0.000000000,0.000000000,1720620442.052062750,,,,,,,,,,,
1720620442.063007,0.042328000,0.000000000,0.000000000,-1.226764000,0.000000000,0.000000000,0.985556000,0.000000000,0.000000000,0.058784000,0.000000000,0.000000000,0.236672000,0.000000000,0.000000000,-0.054400000,0.000000000,0.000000000,1720620442.056062698,,,,,,,,,,,
1720620442.066379,0.042328000,0.000000000,0.000000000,-1.227303000,0.000000000,0.000000000,0.985556000,0.000000000,0.000000000,0.058848000,0.000000000,0.000000000,0.236384000,0.000000000,0.000000000,-0.055008000,0.000038380,0.009134350,1720620442.063062668,,,,,,,,,,,
1720620442.070044,0.042328000,0.000000000,0.000000000,-1.227303000,0.000000000,0.000000000,0.985556000,0.000000000,0.000000000,0.058848000,0.000000000,0.000000000,0.236384000,0.000000000,0.000000000,-0.052896000,0.000000000,0.009134350,1720620442.065062761,,,,,,,,,,,
1720620442.078592,0.042328000,0.000000000,0.000000000,-1.248324000,0.000000000,0.000000000,0.985556000,0.000000000,0.000000000,0.058848000,0.000000000,0.000000000,0.236000000,0.000000000,0.000000000,-0.052672000,0.000000000,0.009134350,1720620442.075062752,,,,,,,,,,,
1720620442.079215,0.042328000,0.000000000,0.000000000,-1.248324000,0.000000000,0.000000000,0.985556000,0.000000000,0.000000000,0.058848000,0.000000000,0.000000000,0.236000000,0.000000000,0.000000000,-0.052672000,0.000000000,0.009134350,1720620442.076062679,,,,,,,,,,,
1720620442.081087,0.042328000,0.000000000,0.000000000,-1.211672000,0.000000000,0.000000000,0.985556000,0.000000000,0.000000000,0.058848000,0.000000000,0.000000000,0.237184000,0.000000000,0.000000000,-0.054752000,0.000000000,0.000000000,1720620442.078062773,,,,,,,,,,,
1720620442.082273,0.042328000,0.000000000,0.000000000,-1.211672000,0.000000000,0.000000000,0.985556000,0.000000000,0.000000000,0.058848000,0.000000000,0.000000000,0.237184000,0.000000000,0.000000000,-0.054752000,0.000000000,0.000000000,1720620442.079062700,,,,,,,,,,,
1720620442.086036,0.042328000,0.000000000,0.000000000,-1.220296000,0.000000000,0.000000000,0.985556000,0.000000000,0.000000000,0.058848000,0.000000000,0.000000000,0.236256000,0.000000000,0.000000000,-0.053472000,0.000000000,0.000000000,1720620442.083062649,,,,,,,,,,,
1720620442.093273,0.042328000,0.000000000,0.000000000,-1.232693000,0.000000000,0.000000000,0.985556000,0.000000000,0.000000000,0.058848000,0.000000000,0.000000000,0.236992000,0.000000000,0.000000000,-0.053600000,0.000000000,0.000000000,1720620442.090062618,,,,,,,,,,,
1720620442.093939,0.042328000,0.000000000,0.000000000,-1.232693000,0.000000000,0.000000000,0.985556000,0.000000000,0.000000000,0.058848000,0.000000000,0.000000000,0.236992000,0.000000000,0.000000000,-0.053600000,0.000000000,0.000000000,1720620442.091062546,,,,,,,,,,,
1720620442.099005,0.042328000,0.000000000,0.000000000,-1.225686000,0.000000000,0.000000000,0.985556000,0.000000000,0.000000000,0.058848000,0.000000000,0.000000000,0.237248000,0.000000000,0.000000000,-0.054464000,0.000000000,0.000000000,1720620442.096062660,,,,,,,,,,,
1720620442.099274,,,,,,,,,,,,,,,,,,,,1720620442.090062618,-1.186824000,3.141592654,0.000000015,0.829037542,-0.000000022,-0.000000054,0.559192949,1.395152983,0.001110973,1.481517837
1720620442.106312,0.042328000,0.000000000,0.000000000,-1.224608000,0.000000000,0.000000000,0.985556000,0.000000000,0.000000000,0.058848000,0.000000000,0.000000000,0.236608000,0.000000000,0.000000000,-0.054688000,0.000000000,0.000000000,1720620442.103062630,,,,,,,,,,,
1720620442.107371,0.042328000,0.000000000,0.000000000,-1.224608000,0.000000000,0.000000000,0.985556000,0.000000000,0.000000000,0.058848000,0.000000000,0.000000000,0.236608000,0.000000000,0.000000000,-0.054688000,0.000000000,0.000000000,1720620442.104062557,,,,,,,,,,,
1720620442.118212,0.042328000,0.000000000,0.000000000,-1.224608000,0.000000000,0.000000000,0.985556000,0.000000000,0.000000000,0.058848000,0.000000000,0.000000000,0.236672000,0.000000000,0.000000000,-0.054688000,0.000000000,0.000000000,1720620442.110062599,,,,,,,,,,,
1720620442.119170,0.042328000,0.000000000,0.000000000,-1.237005000,0.000000000,0.000000000,0.985556000,0.000000000,0.000000000,0.058848000,0.000000000,0.000000000,0.236800000,0.000000000,0.000000000,-0.053600000,0.000000000,0.000000000,1720620442.116062641,,,,,,,,,,,
1720620442.121187,0.042328000,0.000000000,0.000000000,-1.218679000,0.000000000,0.000000000,0.985556000,0.000000000,0.000000000,0.058848000,0.000000000,0.000000000,0.236928000,0.000000000,0.000000000,-0.054528000,0.000000000,0.000000000,1720620442.118062735,,,,,,,,,,,
1720620442.127361,0.042328000,0.000000000,0.000000000,-1.224608000,0.000000000,0.000000000,0.985556000,0.000000000,0.000000000,0.058848000,0.000000000,0.000000000,0.236256000,0.000000000,0.000000000,-0.053600000,0.000000000,0.000000000,1720620442.124062777,,,,,,,,,,,
1720620442.133372,0.042328000,0.000000000,0.000000000,-1.231076000,0.000000000,0.000000000,0.985556000,0.000000000,0.000000000,0.059200000,0.000000000,0.000000000,0.236064000,0.000000000,0.000000000,-0.054400000,0.000000000,0.000000000,1720620442.130062580,,,,,,,,,,,
1720620442.137491,0.042328000,0.000000000,0.000000000,-1.199814000,0.000000000,0.000000000,0.985556000,0.000000000,0.000000000,0.058784000,0.000000000,0.000000000,0.236992000,0.000000000,0.000000000,-0.052960000,0.000000000,0.000000000,1720620442.134062767,,,,,,,,,,,
1720620442.145510,0.042328000,0.000000000,0.000000000,-1.224069000,0.000000000,0.000000000,0.985556000,0.000000000,0.000000000,0.058848000,0.000000000,0.000000000,0.236320000,0.000000000,0.000000000,-0.051872000,0.000000000,0.009134350,1720620442.142062664,,,,,,,,,,,
1720620442.149423,,,,,,,,,,,,,,,,,,,,1720620442.142062664,-1.186824000,3.141592654,0.000000015,0.829037542,-0.000000022,-0.000000054,0.559192949,1.395152983,0.001110973,1.481517837
1720620442.150332,0.042328000,0.000000000,0.000000000,-1.227303000,0.000000000,0.000000000,0.985556000,0.000000000,0.000000000,0.058848000,0.000000000,0.000000000,0.236928000,0.000000000,0.000000000,-0.055680000,0.000038380,0.009134350,1720620442.147062778,,,,,,,,,,,
1720620442.157751,0.042328000,0.000000000,0.000000000,-1.221913000,0.000000000,0.000000000,0.985556000,0.000000000,0.000000000,0.058784000,0.000000000,0.000000000,0.236800000,0.000000000,0.000000000,-0.054688000,0.000000000,0.000000000,1720620442.154062748,,,,,,,,,,,
1720620442.158236,0.042328000,0.000000000,0.000000000,-1.221913000,0.000000000,0.000000000,0.985556000,0.000000000,0.000000000,0.058784000,0.000000000,0.000000000,0.236800000,0.000000000,0.000000000,-0.054688000,0.000000000,0.000000000,1720620442.155062675,,,,,,,,,,,
1720620442.170490,0.042328000,0.000000000,0.000000000,-1.222991000,0.000000000,0.000000000,0.985556000,0.000000000,0.000000000,0.058784000,0.000000000,0.000000000,0.237248000,0.000000000,0.000000000,-0.054880000,0.000038380,0.009134350,1720620442.162062645,,,,,,,,,,,
1720620442.171329,0.042328000,0.000000000,0.000000000,-1.225686000,0.000000000,0.000000000,0.985556000,0.000000000,0.000000000,0.058784000,0.000000000,0.000000000,0.236128000,0.000000000,0.000000000,-0.053664000,0.000000000,0.009134350,1720620442.168062687,,,,,,,,,,,
1720620442.173356,0.042328000,0.000000000,0.000000000,-1.225686000,0.000000000,0.000000000,0.985556000,0.000000000,0.000000000,0.058784000,0.000000000,0.000000000,0.236672000,0.000000000,0.000000000,-0.054080000,0.000000000,0.000000000,1720620442.170062542,,,,,,,,,,,
1720620442.177188,0.042328000,0.000000000,0.000000000,-1.225686000,0.000000000,0.000000000,0.985556000,0.000000000,0.000000000,0.058784000,0.000000000,0.000000000,0.236448000,0.000000000,0.000000000,-0.053600000,0.000000000,0.000000000,1720620442.174062729,,,,,,,,,,,
1720620442.185512,0.042328000,0.000000000,0.000000000,-1.221374000,0.000000000,0.000000000,0.985556000,0.000000000,0.000000000,0.058848000,0.000000000,0.000000000,0.236256000,0.000000000,0.000000000,-0.053344000,0.000000000,0.000000000,1720620442.182062626,,,,,,,,,,,
1720620442.190199,0.042328000,0.000000000,0.000000000,-1.258026000,0.000000000,0.000000000,0.985556000,0.000000000,0.000000000,0.058784000,0.000000000,0.000000000,0.236320000,0.000000000,0.000000000,-0.054688000,0.000038380,0.009134350,1720620442.187062740,,,,,,,,,,,
1720620442.201391,0.042328000,0.000000000,0.000000000,-1.225686000,0.000000000,0.000000000,0.985556000,0.000000000,0.000000000,0.058784000,0.000000000,0.000000000,0.236736000,0.000000000,0.000000000,-0.053536000,0.000000000,0.000000000,1720620442.198062658,,,,,,,,,,,
1720620442.209401,,,,,,,,,,,,,,,,,,,,1720620442.198062658,-1.186824000,3.141592654,0.000000015,0.829037542,-0.000000022,-0.000000054,0.559192949,1.395152983,0.001110973,1.481517837
1720620442.213297,0.042328000,0.000000000,0.000000000,-1.234310000,0.000000000,0.000000000,0.984984000,0.000000000,0.000000000,0.058784000,0.000000000,0.000000000,0.236544000,0.000000000,0.000000000,-0.053536000,0.000000000,0.000000000,1720620442.206062555,,,,,,,,,,,
1720620442.217964,0.042328000,0.000000000,0.000000000,-1.266111000,0.000000000,0.000000000,0.984984000,0.000000000,0.000000000,0.058784000,0.000000000,0.000000000,0.236800000,0.000000000,0.000000000,-0.054144000,0.000000000,0.000000000,1720620442.214062691,,,,,,,,,,,
1720620442.219059,0.042328000,0.000000000,0.000000000,-1.266111000,0.000000000,0.000000000,0.984984000,0.000000000,0.000000000,0.058784000,0.000000000,0.000000000,0.236800000,0.000000000,0.000000000,-0.054144000,0.000000000,0.000000000,1720620442.215062618,,,,,,,,,,,
1720620442.219074,0.042328000,0.000000000,0.000000000,-1.266111000,0.000000000,0.000000000,0.984984000,0.000000000,0.000000000,0.058784000,0.000000000,0.000000000,0.236800000,0.000000000,0.000000000,-0.054144000,0.000000000,0.000000000,1720620442.216062546,,,,,,,,,,,
1720620442.221353,0.042328000,0.000000000,0.000000000,-1.233771000,0.000000000,0.000000000,0.984984000,0.000000000,0.000000000,0.058784000,0.000000000,0.000000000,0.236544000,0.000000000,0.000000000,-0.053344000,0.000000000,0.000000000,1720620442.218062639,,,,,,,,,,,
1720620442.225405,0.042328000,0.000000000,0.000000000,-1.224069000,0.000000000,0.000000000,0.984984000,0.000000000,0.000000000,0.058784000,0.000000000,0.000000000,0.236736000,0.000000000,0.000000000,-0.054208000,0.000000000,0.000000000,1720620442.222062588,,,,,,,,,,,
1720620442.233548,0.042328000,0.000000000,0.000000000,-1.221374000,0.000000000,0.000000000,0.984984000,0.000000000,0.000000000,0.058784000,0.000000000,0.000000000,0.236800000,0.000000000,0.000000000,-0.053824000,0.000000000,0.000000000,1720620442.230062723,,,,,,,,,,,
1720620442.237731,0.042328000,0.000000000,0.000000000,-1.221374000,0.000000000,0.000000000,0.984984000,0.000000000,0.000000000,0.058784000,0.000000000,0.000000000,0.236800000,0.000000000,0.000000000,-0.053952000,0.000000000,0.000000000,1720620442.234062672,,,,,,,,,,,
1720620442.245608,0.042328000,0.000000000,0.000000000,-1.221913000,0.000000000,0.000000000,0.984984000,0.000000000,0.000000000,0.058784000,0.000000000,0.000000000,0.236128000,0.000000000,0.000000000,-0.052960000,0.000000000,0.000000000,1720620442.242062569,,,,,,,,,,,
1720620442.249330,0.042328000,0.000000000,0.000000000,-1.253714000,0.000000000,0.000000000,0.984984000,0.000000000,0.000000000,0.058784000,0.000000000,0.000000000,0.236320000,0.000000000,0.000000000,-0.054944000,0.000000000,0.000000000,1720620442.246062756,,,,,,,,,,,
1720620442.258038,0.042328000,0.000000000,0.000000000,-1.226764000,0.000000000,0.000000000,0.984984000,0.000000000,0.000000000,0.058400000,0.000000000,0.000000000,0.236928000,0.000000000,0.000000000,-0.054464000,0.000000000,0.000000000,1720620442.254062653,,,,,,,,,,,
1720620442.259446,,,,,,,,,,,,,,,,,,,,1720620442.254062653,-1.186824000,3.141592654,0.000000015,0.829037542,-0.000000022,-0.000000054,0.559192949,1.395152983,0.001110973,1.481517837
1720620442.259456,0.042328000,0.000000000,0.000000000,-1.226764000,0.000000000,0.000000000,0.984984000,0.000000000,0.000000000,0.058400000,0.000000000,0.000000000,0.236928000,0.000000000,0.000000000,-0.054464000,0.000000000,0.000000000,1720620442.256062746,,,,,,,,,,,
1720620442.260679,0.042328000,0.000000000,0.000000000,-1.232693000,0.000000000,0.000000000,0.984984000,0.000000000,0.000000000,0.058784000,0.000000000,0.000000000,0.235456000,0.000000000,0.000000000,-0.053824000,0.000000000,0.000000000,1720620442.257062674,,,,,,,,,,,
1720620442.261361,0.042328000,0.000000000,0.000000000,-1.232693000,0.000000000,0.000000000,0.984984000,0.000000000,0.000000000,0.058784000,0.000000000,0.000000000,0.235456000,0.000000000,0.000000000,-0.053824000,0.000000000,0.000000000,1720620442.258062601,,,,,,,,,,,
1720620442.262319,0.042328000,0.000000000,0.000000000,-1.232693000,0.000000000,0.000000000,0.984984000,0.000000000,0.000000000,0.058784000,0.000000000,0.000000000,0.235456000,0.000000000,0.000000000,-0.053824000,0.000000000,0.000000000,1720620442.259062767,,,,,,,,,,,
1720620442.266453,0.042328000,0.000000000,0.000000000,-1.225686000,0.000000000,0.000000000,0.984984000,0.000000000,0.000000000,0.058784000,0.000000000,0.000000000,0.237472000,0.000000000,0.000000000,-0.053824000,0.000000000,0.000000000,1720620442.263062716,,,,,,,,,,,
1720620442.273376,0.042328000,0.000000000,0.000000000,-1.228381000,0.000000000,0.000000000,0.984984000,0.000000000,0.000000000,0.058784000,0.000000000,0.000000000,0.236192000,0.000000000,0.000000000,-0.052800000,0.000000000,0.000000000,1720620442.270062685,,,,,,,,,,,
1720620442.274280,0.042328000,0.000000000,0.000000000,-1.228381000,0.000000000,0.000000000,0.984984000,0.000000000,0.000000000,0.058784000,0.000000000,0.000000000,0.236192000,0.000000000,0.000000000,-0.052800000,0.000000000,0.000000000,1720620442.271062613,,,,,,,,,,,
1720620442.279077,0.042328000,0.000000000,0.000000000,-1.229998000,0.000000000,0.000000000,0.984984000,0.000000000,0.000000000,0.058784000,0.000000000,0.000000000,0.236064000,0.000000000,0.000000000,-0.054464000,0.000000000,0.000000000,1720620442.275062561,,,,,,,,,,,
1720620442.285464,0.042328000,0.000000000,0.000000000,-1.227303000,0.000000000,0.000000000,0.984984000,0.000000000,0.000000000,0.058784000,0.000000000,0.000000000,0.236320000,0.000000000,0.000000000,-0.054464000,0.000000000,0.000000000,1720620442.282062769,,,,,,,,,,,
1720620442.286289,0.042328000,0.000000000,0.000000000,-1.227303000,0.000000000,0.000000000,0.984984000,0.000000000,0.000000000,0.058784000,0.000000000,0.000000000,0.236320000,0.000000000,0.000000000,-0.054464000,0.000000000,0.000000000,1720620442.283062696,,,,,,,,,,,
1720620442.291096,0.042328000,0.000000000,0.000000000,-1.227303000,0.000000000,0.000000000,0.984984000,0.000000000,0.000000000,0.058784000,0.000000000,0.000000000,0.237120000,0.000000000,0.000000000,-0.053536000,0.000000000,0.000000000,1720620442.288062572,,,,,,,,,,,
1720620442.298901,0.042328000,0.000000000,0.000000000,-1.227303000,0.000000000,0.000000000,0.984984000,0.000000000,0.000000000,0.058784000,0.000000000,0.000000000,0.236928000,0.000000000,0.000000000,-0.053024000,0.000000000,0.009134350,1720620442.295062542,,,,,,,,,,,
1720620442.299362,0.042328000,0.000000000,0.000000000,-1.227303000,0.000000000,0.000000000,0.984984000,0.000000000,0.000000000,0.058784000,0.000000000,0.000000000,0.236928000,0.000000000,0.000000000,-0.053024000,0.000000000,0.009134350,1720620442.296062708,,,,,,,,,,,
1720620442.305339,0.042328000,0.000000000,0.000000000,-1.226764000,0.000000000,0.000000000,0.984984000,0.000000000,0.000000000,0.058784000,0.000000000,0.000000000,0.236384000,0.000000000,0.000000000,-0.053760000,0.000000000,0.000000000,1720620442.302062750,,,,,,,,,,,
1720620442.312436,0.042328000,0.000000000,0.000000000,-1.226764000,0.000000000,0.000000000,0.984984000,0.000000000,0.000000000,0.058784000,0.000000000,0.000000000,0.236800000,0.000000000,0.000000000,-0.053952000,0.000000000,0.000000000,1720620442.308062553,,,,,,,,,,,
1720620442.319429,,,,,,,,,,,,,,,,,,,,1720620442.308062553,-1.186824000,3.141592654,0.000000015,0.829037542,-0.000000022,-0.000000054,0.559192949,1.395152983,0.001110973,1.481517837
1720620442.321418,0.042328000,0.000000000,0.000000000,-1.224069000,0.000000000,0.000000000,0.984984000,0.000000000,0.000000000,0.058784000,0.000000000,0.000000000,0.236736000,0.000000000,0.000000000,-0.054336000,0.000000000,0.000000000,1720620442.318062544,,,,,,,,,,,
1720620442.322370,0.042328000,0.000000000,0.000000000,-1.224069000,0.000000000,0.000000000,0.984984000,0.000000000,0.000000000,0.058784000,0.000000000,0.000000000,0.236736000,0.000000000,0.000000000,-0.054336000,0.000000000,0.000000000,1720620442.319062710,,,,,,,,,,,
1720620442.323307,0.042328000,0.000000000,0.000000000,-1.224069000,0.000000000,0.000000000,0.984984000,0.000000000,0.000000000,0.058784000,0.000000000,0.000000000,0.236736000,0.000000000,0.000000000,-0.054336000,0.000000000,0.000000000,1720620442.320062637,,,,,,,,,,,
1720620442.325866,0.042328000,0.000000000,0.000000000,-1.228381000,0.000000000,0.000000000,0.984984000,0.000000000,0.000000000,0.058784000,0.000000000,0.000000000,0.236736000,0.000000000,0.000000000,-0.053408000,0.000000000,0.000000000,1720620442.322062731,,,,,,,,,,,
1720620442.329590,0.042328000,0.000000000,0.000000000,-1.224608000,0.000000000,0.000000000,0.984984000,0.000000000,0.000000000,0.058784000,0.000000000,0.000000000,0.236672000,0.000000000,0.000000000,-0.053408000,0.000000000,0.000000000,1720620442.326062679,,,,,,,,,,,
1720620442.336716,0.042328000,0.000000000,0.000000000,-1.225686000,0.000000000,0.000000000,0.984984000,0.000000000,0.000000000,0.058784000,0.000000000,0.000000000,0.237376000,0.000000000,0.000000000,-0.054016000,0.000000000,0.000000000,1720620442.333062649,,,,,,,,,,,
1720620442.341441,0.042328000,0.000000000,0.000000000,-1.234310000,0.000000000,0.000000000,0.984984000,0.000000000,0.000000000,0.058784000,0.000000000,0.000000000,0.237312000,0.000000000,0.000000000,-0.053472000,0.000000000,0.000000000,1720620442.338062763,,,,,,,,,,,
1720620442.348926,0.042328000,0.000000000,0.000000000,-1.229998000,0.000000000,0.000000000,0.984984000,0.000000000,0.000000000,0.058848000,0.000000000,0.000000000,0.235936000,0.000000000,0.000000000,-0.053280000,0.000000000,0.000000000,1720620442.345062733,,,,,,,,,,,
1720620442.358773,0.042328000,0.000000000,0.000000000,-1.229998000,0.000000000,0.000000000,0.984984000,0.000000000,0.000000000,0.058848000,0.000000000,0.000000000,0.236448000,0.000000000,0.000000000,-0.054880000,0.000038380,0.009134350,1720620442.351062775,,,,,,,,,,,
1720620442.361580,0.042328000,0.000000000,0.000000000,-1.231076000,0.000000000,0.000000000,0.984984000,0.000000000,0.000000000,0.058848000,0.000000000,0.000000000,0.236608000,0.000000000,0.000000000,-0.053824000,0.000000000,0.000000000,1720620442.358062744,,,,,,,,,,,
1720620442.362532,0.042328000,0.000000000,0.000000000,-1.231076000,0.000000000,0.000000000,0.984984000,0.000000000,0.000000000,0.058848000,0.000000000,0.000000000,0.236608000,0.000000000,0.000000000,-0.053824000,0.000000000,0.000000000,1720620442.359062672,,,,,,,,,,,
1720620442.366344,0.042328000,0.000000000,0.000000000,-1.231076000,0.000000000,0.000000000,0.984984000,0.000000000,0.000000000,0.058848000,0.000000000,0.000000000,0.237184000,0.000000000,0.000000000,-0.053952000,0.000000000,0.000000000,1720620442.363062620,,,,,,,,,,,
1720620442.369307,,,,,,,,,,,,,,,,,,,,1720620442.358062744,-1.186824000,3.141592654,0.000000015,0.829037542,-0.000000022,-0.000000054,0.559192949,1.395152983,0.001110973,1.481517837
1720620442.373670,0.042328000,0.000000000,0.000000000,-1.236466000,0.000000000,0.000000000,0.984984000,0.000000000,0.000000000,0.058848000,0.000000000,0.000000000,0.236320000,0.000000000,0.000000000,-0.054016000,0.000000000,0.000000000,1720620442.370062590,,,,,,,,,,,
1720620442.374439,0.042328000,0.000000000,0.000000000,-1.236466000,0.000000000,0.000000000,0.984984000,0.000000000,0.000000000,0.058848000,0.000000000,0.000000000,0.236320000,0.000000000,0.000000000,-0.054016000,0.000000000,0.000000000,1720620442.371062756,,,,,,,,,,,
1720620442.378673,0.042328000,0.000000000,0.000000000,-1.227303000,0.000000000,0.000000000,0.984984000,0.000000000,0.000000000,0.058848000,0.000000000,0.000000000,0.236000000,0.000000000,0.000000000,-0.053280000,0.000000000,0.000000000,1720620442.375062704,,,,,,,,,,,
1720620442.385920,0.042328000,0.000000000,0.000000000,-1.225686000,0.000000000,0.000000000,0.984984000,0.000000000,0.000000000,0.058848000,0.000000000,0.000000000,0.236928000,0.000000000,0.000000000,-0.053088000,0.000000000,0.000000000,1720620442.382062674,,,,,,,,,,,
1720620442.386618,0.042328000,0.000000000,0.000000000,-1.225686000,0.000000000,0.000000000,0.984984000,0.000000000,0.000000000,0.058848000,0.000000000,0.000000000,0.236928000,0.000000000,0.000000000,-0.053088000,0.000000000,0.000000000,1720620442.383062601,,,,,,,,,,,
1720620442.391071,0.042328000,0.000000000,0.000000000,-1.225686000,0.000000000,0.000000000,0.984984000,0.000000000,0.000000000,0.058848000,0.000000000,0.000000000,0.236672000,0.000000000,0.000000000,-0.054816000,0.000038380,0.009134350,1720620442.387062550,,,,,,,,,,,
1720620442.397974,0.042328000,0.000000000,0.000000000,-1.225686000,0.000000000,0.000000000,0.984984000,0.000000000,0.000000000,0.058848000,0.000000000,0.000000000,0.236128000,0.000000000,0.000000000,-0.054144000,0.000000000,0.000000000,1720620442.394062757,,,,,,,,,,,
1720620442.398969,0.042328000,0.000000000,0.000000000,-1.225686000,0.000000000,0.000000000,0.984984000,0.000000000,0.000000000,0.058848000,0.000000000,0.000000000,0.236128000,0.000000000,0.000000000,-0.054144000,0.000000000,0.000000000,1720620442.395062685,,,,,,,,,,,
1720620442.402507,0.042328000,0.000000000,0.000000000,-1.225686000,0.000000000,0.000000000,0.984984000,0.000000000,0.000000000,0.058848000,0.000000000,0.000000000,0.236800000,0.000000000,0.000000000,-0.053760000,0.000000000,0.000000000,1720620442.399062634,,,,,,,,,,,
1720620442.409760,0.042328000,0.000000000,0.000000000,-1.225686000,0.000000000,0.000000000,0.984984000,0.000000000,0.000000000,0.058848000,0.000000000,0.000000000,0.236608000,0.000000000,0.000000000,-0.054944000,0.000038380,0.009134350,1720620442.406062603,,,,,,,,,,,
1720620442.418882,0.042328000,0.000000000,0.000000000,-1.225686000,0.000000000,0.000000000,0.984984000,0.000000000,0.000000000,0.058848000,0.000000000,0.000000000,0.236608000,0.000000000,0.000000000,-0.054944000,0.000038380,0.009134350,1720620442.407062769,,,,,,,,,,,
1720620442.421746,0.042328000,0.000000000,0.000000000,-1.225686000,0.000000000,0.000000000,0.984984000,0.000000000,0.000000000,0.058784000,0.000000000,0.000000000,0.236320000,0.000000000,0.000000000,-0.053344000,0.000000000,0.000000000,1720620442.418062687,,,,,,,,,,,
1720620442.422605,0.042328000,0.000000000,0.000000000,-1.225686000,0.000000000,0.000000000,0.984984000,0.000000000,0.000000000,0.058784000,0.000000000,0.000000000,0.236320000,0.000000000,0.000000000,-0.053344000,0.000000000,0.000000000,1720620442.419062614,,,,,,,,,,,
1720620442.424403,0.042328000,0.000000000,0.000000000,-1.225686000,0.000000000,0.000000000,0.984984000,0.000000000,0.000000000,0.058784000,0.000000000,0.000000000,0.236928000,0.000000000,0.000000000,-0.054944000,0.000038380,0.009134350,1720620442.421062708,,,,,,,,,,,
1720620442.429641,,,,,,,,,,,,,,,,,,,,1720620442.418062687,-1.186824000,3.141592654,0.000000015,0.829037542,-0.000000022,-0.000000054,0.559192949,1.395152983,0.001110973,1.481517837
1720620442.434065,0.042328000,0.000000000,0.000000000,-1.217601000,0.000000000,0.000000000,0.984984000,0.000000000,0.000000000,0.058784000,0.000000000,0.000000000,0.236192000,0.000000000,0.000000000,-0.054816000,0.000000000,0.000000000,1720620442.430062771,,,,,,,,,,,
1720620442.434723,0.042328000,0.000000000,0.000000000,-1.217601000,0.000000000,0.000000000,0.984984000,0.000000000,0.000000000,0.058784000,0.000000000,0.000000000,0.236192000,0.000000000,0.000000000,-0.054816000,0.000000000,0.000000000,1720620442.431062698,,,,,,,,,,,
1720620442.436373,0.042328000,0.000000000,0.000000000,-1.228381000,0.000000000,0.000000000,0.984984000,0.000000000,0.000000000,0.058784000,0.000000000,0.000000000,0.237600000,0.000000000,0.000000000,-0.052800000,0.000000000,0.000000000,1720620442.433062553,,,,,,,,,,,
1720620442.446279,0.042328000,0.000000000,0.000000000,-1.227303000,0.000000000,0.000000000,0.984984000,0.000000000,0.000000000,0.058784000,0.000000000,0.000000000,0.236544000,0.000000000,0.000000000,-0.052544000,0.000000000,0.000000000,1720620442.442062616,,,,,,,,,,,
1720620442.446506,0.042328000,0.000000000,0.000000000,-1.227303000,0.000000000,0.000000000,0.984984000,0.000000000,0.000000000,0.058784000,0.000000000,0.000000000,0.236544000,0.000000000,0.000000000,-0.052544000,0.000000000,0.000000000,1720620442.443062544,,,,,,,,,,,
1720620442.448360,0.042328000,0.000000000,0.000000000,-1.227303000,0.000000000,0.000000000,0.984984000,0.000000000,0.000000000,0.058784000,0.000000000,0.000000000,0.237312000,0.000000000,0.000000000,-0.055008000,0.000000000,0.000000000,1720620442.444062710,,,,,,,,,,,
1720620442.461415,0.042328000,0.000000000,0.000000000,-1.227303000,0.000000000,0.000000000,0.984984000,0.000000000,0.000000000,0.058848000,0.000000000,0.000000000,0.236448000,0.000000000,0.000000000,-0.054592000,0.000000000,0.000000000,1720620442.456062555,,,,,,,,,,,
1720620442.469197,0.040898000,0.000000000,0.000000000,-1.227303000,0.000000000,0.000000000,0.984984000,0.000000000,0.000000000,0.058848000,0.000000000,0.000000000,0.236800000,0.000000000,0.000000000,-0.053536000,0.000000000,0.000000000,1720620442.465062618,,,,,,,,,,,
1720620442.481313,0.042328000,0.000000000,0.000000000,-1.257487000,0.000000000,0.000000000,0.984984000,0.000000000,0.000000000,0.058848000,0.000000000,0.000000000,0.236544000,0.000000000,0.000000000,-0.053824000,0.000000000,0.000000000,1720620442.477062702,,,,,,,,,,,
1720620442.489009,0.042328000,0.000000000,0.000000000,-1.221913000,0.000000000,0.000000000,0.984984000,0.000000000,0.000000000,0.058784000,0.000000000,0.000000000,0.236320000,0.000000000,0.000000000,-0.054016000,0.000000000,0.000000000,1720620442.485062599,,,,,,,,,,,
1720620442.489268,,,,,,,,,,,,,,,,,,,,1720620442.477062702,-1.186824000,3.141592654,0.000000015,0.829037542,-0.000000022,-0.000000054,0.559192949,1.395152983,0.001110973,1.481517837
1720620442.498347,0.042328000,0.000000000,0.000000000,-1.224608000,0.000000000,0.000000000,0.984984000,0.000000000,0.000000000,0.058784000,0.000000000,0.000000000,0.237120000,0.000000000,0.000000000,-0.054752000,0.000000000,0.000000000,1720620442.494062662,,,,,,,,,,,
1720620442.499197,0.042328000,0.000000000,0.000000000,-1.224608000,0.000000000,0.000000000,0.984984000,0.000000000,0.000000000,0.058784000,0.000000000,0.000000000,0.237120000,0.000000000,0.000000000,-0.054752000,0.000000000,0.000000000,1720620442.495062590,,,,,,,,,,,
1720620442.501562,0.042328000,0.000000000,0.000000000,-1.225686000,0.000000000,0.000000000,0.984984000,0.000000000,0.000000000,0.058784000,0.000000000,0.000000000,0.236608000,0.000000000,0.000000000,-0.052736000,0.000000000,0.000000000,1720620442.497062683,,,,,,,,,,,
1720620442.510113,0.042328000,0.000000000,0.000000000,-1.226764000,0.000000000,0.000000000,0.984984000,0.000000000,0.000000000,0.058784000,0.000000000,0.000000000,0.237248000,0.000000000,0.000000000,-0.053600000,0.000000000,0.000000000,1720620442.506062746,,,,,,,,,,,
1720620442.512621,0.042328000,0.000000000,0.000000000,-1.201970000,0.000000000,0.000000000,0.984984000,0.000000000,0.000000000,0.058784000,0.000000000,0.000000000,0.236800000,0.000000000,0.000000000,-0.054208000,0.000000000,0.000000000,1720620442.507062674,,,,,,,,,,,
1720620442.523085,0.042328000,0.000000000,0.000000000,-1.199275000,0.000000000,0.000000000,0.984984000,0.000000000,0.000000000,0.058784000,0.000000000,0.000000000,0.236320000,0.000000000,0.000000000,-0.054528000,0.000000000,0.000000000,1720620442.517062664,,,,,,,,,,,
1720620442.532974,0.042328000,0.000000000,0.000000000,-1.228920000,0.000000000,0.000000000,0.984984000,0.000000000,0.000000000,0.058784000,0.000000000,0.000000000,0.236928000,0.000000000,0.000000000,-0.054272000,0.000000000,0.000000000,1720620442.529062748,,,,,,,,,,,
1720620442.539306,,,,,,,,,,,,,,,,,,,,1720620442.529062748,-1.186824000,3.141592654,0.000000015,0.829037542,-0.000000022,-0.000000054,0.559192949,1.395152983,0.001110973,1.481517837
1720620442.547025,0.042328000,0.000000000,0.000000000,-1.228381000,0.000000000,0.000000000,0.984984000,0.000000000,0.000000000,0.058784000,0.000000000,0.000000000,0.236064000,0.000000000,0.000000000,-0.053600000,0.000000000,0.000000000,1720620442.539062738,,,,,,,,,,,
1720620442.554251,0.042328000,0.000000000,0.000000000,-1.227303000,0.000000000,0.000000000,0.984984000,0.000000000,0.000000000,0.058848000,0.000000000,0.000000000,0.236672000,0.000000000,0.000000000,-0.054272000,0.000000000,0.000000000,1720620442.550062656,,,,,,,,,,,
1720620442.562247,0.042328000,0.000000000,0.000000000,-1.227303000,0.000000000,0.000000000,0.984984000,0.000000000,0.000000000,0.058848000,0.000000000,0.000000000,0.236608000,0.000000000,0.000000000,-0.054752000,0.000000000,0.000000000,1720620442.558062553,,,,,,,,,,,
1720620442.572649,0.042328000,0.000000000,0.000000000,-1.229998000,0.000000000,0.000000000,0.984984000,0.000000000,0.000000000,0.058784000,0.000000000,0.000000000,0.236192000,0.000000000,0.000000000,-0.053280000,0.000000000,0.000000000,1720620442.568062544,,,,,,,,,,,
1720620442.585100,0.042042000,0.000000000,0.000000000,-1.226764000,0.000000000,0.000000000,0.984984000,0.000000000,0.000000000,0.058784000,0.000000000,0.000000000,0.236672000,0.000000000,0.000000000,-0.052800000,0.000000000,0.000000000,1720620442.581062555,,,,,,,,,,,
1720620442.589428,,,,,,,,,,,,,,,,,,,,1720620442.581062555,-1.186824000,3.141592654,0.000000015,0.829037542,-0.000000022,-0.000000054,0.559192949,1.395152983,0.001110973,1.481517837
1720620442.592673,0.042328000,0.000000000,0.000000000,-1.231076000,0.000000000,0.000000000,0.984984000,0.000000000,0.000000000,0.058784000,0.000000000,0.000000000,0.236608000,0.000000000,0.000000000,-0.052800000,0.000000000,0.009134350,1720620442.588062763,,,,,,,,,,,
1720620442.602341,0.042328000,0.000000000,0.000000000,-1.227303000,0.000000000,0.000000000,0.984984000,0.000000000,0.000000000,0.058784000,0.000000000,0.000000000,0.237056000,0.000000000,0.000000000,-0.053152000,0.000000000,0.009134350,1720620442.598062754,,,,,,,,,,,
1720620442.615083,0.042328000,0.000000000,0.000000000,-1.227303000,0.000000000,0.000000000,0.984984000,0.000000000,0.000000000,0.058784000,0.000000000,0.000000000,0.236544000,0.000000000,0.000000000,-0.054208000,0.000000000,0.000000000,1720620442.611062765,,,,,,,,,,,
1720620442.622139,0.042328000,0.000000000,0.000000000,-1.227303000,0.000000000,0.000000000,0.984984000,0.000000000,0.000000000,0.058784000,0.000000000,0.000000000,0.236672000,0.000000000,0.000000000,-0.053472000,0.000000000,0.000000000,1720620442.618062735,,,,,,,,,,,
1720620442.623035,0.042328000,0.000000000,0.000000000,-1.227303000,0.000000000,0.000000000,0.984984000,0.000000000,0.000000000,0.058784000,0.000000000,0.000000000,0.236672000,0.000000000,0.000000000,-0.053472000,0.000000000,0.000000000,1720620442.619062662,,,,,,,,,,,
1720620442.629414,0.042328000,0.000000000,0.000000000,-1.227303000,0.000000000,0.000000000,0.984984000,0.000000000,0.000000000,0.058784000,0.000000000,0.000000000,0.237120000,0.000000000,0.000000000,-0.052800000,0.000000000,0.000000000,1720620442.625062704,,,,,,,,,,,
1720620442.635382,0.042328000,0.000000000,0.000000000,-1.227303000,0.000000000,0.000000000,0.984984000,0.000000000,0.000000000,0.058784000,0.000000000,0.000000000,0.235872000,0.000000000,0.000000000,-0.054944000,0.000000000,0.000000000,1720620442.631062746,,,,,,,,,,,
1720620442.637142,0.042328000,0.000000000,0.000000000,-1.227303000,0.000000000,0.000000000,0.984984000,0.000000000,0.000000000,0.058784000,0.000000000,0.000000000,0.236992000,0.000000000,0.000000000,-0.053600000,0.000000000,0.000000000,1720620442.633062601,,,,,,,,,,,
1720620442.639403,,,,,,,,,,,,,,,,,,,,1720620442.631062746,-1.186824000,3.141592654,0.000000015,0.829037542,-0.000000022,-0.000000054,0.559192949,1.395152983,0.001110973,1.481517837
1720620442.649598,0.042328000,0.000000000,0.000000000,-1.226764000,0.000000000,0.000000000,0.984984000,0.000000000,0.000000000,0.058784000,0.000000000,0.000000000,0.237536000,0.000000000,0.000000000,-0.054016000,0.000000000,0.000000000,1720620442.637062550,,,,,,,,,,,
1720620442.653107,0.042328000,0.000000000,0.000000000,-1.226764000,0.000000000,0.000000000,0.984984000,0.000000000,0.000000000,0.058784000,0.000000000,0.000000000,0.236544000,0.000000000,0.000000000,-0.055136000,0.000038380,0.009134350,1720620442.649062634,,,,,,,,,,,
1720620442.661372,0.042328000,0.000000000,0.000000000,-1.226764000,0.000000000,0.000000000,0.984984000,0.000000000,0.000000000,0.058848000,0.000000000,0.000000000,0.236864000,0.000000000,0.000000000,-0.054688000,0.000000000,0.000000000,1720620442.657062769,,,,,,,,,,,
1720620442.666045,0.042328000,0.000000000,0.000000000,-1.226764000,0.000000000,0.000000000,0.984984000,0.000000000,0.000000000,0.058848000,0.000000000,0.000000000,0.236448000,0.000000000,0.000000000,-0.053216000,0.000000000,0.000000000,1720620442.662062645,,,,,,,,,,,
1720620442.674466,0.042328000,0.000000000,0.000000000,-1.228381000,0.000000000,0.000000000,0.984984000,0.000000000,0.000000000,0.058848000,0.000000000,0.000000000,0.236928000,0.000000000,0.000000000,-0.053824000,0.000000000,0.000000000,1720620442.670062542,,,,,,,,,,,
1720620442.679303,0.041470000,0.000000000,0.000000000,-1.228381000,0.000000000,0.000000000,0.984984000,0.000000000,0.000000000,0.058848000,0.000000000,0.000000000,0.236448000,0.000000000,0.000000000,-0.053824000,0.000000000,0.000000000,1720620442.675062656,,,,,,,,,,,
1720620442.685141,0.042328000,0.000000000,0.000000000,-1.228381000,0.000000000,0.000000000,0.984984000,0.000000000,0.000000000,0.058784000,0.000000000,0.000000000,0.236672000,0.000000000,0.000000000,-0.052960000,0.000000000,0.000000000,1720620442.681062698,,,,,,,,,,,
1720620442.686218,0.042328000,0.000000000,0.000000000,-1.228381000,0.000000000,0.000000000,0.984984000,0.000000000,0.000000000,0.058784000,0.000000000,0.000000000,0.236672000,0.000000000,0.000000000,-0.052960000,0.000000000,0.000000000,1720620442.682062626,,,,,,,,,,,
1720620442.689414,,,,,,,,,,,,,,,,,,,,1720620442.681062698,-1.186824000,3.141592654,0.000000015,0.829037542,-0.000000022,-0.000000054,0.559192949,1.395152983,0.001110973,1.481517837
1720620442.689688,0.042900000,0.000000000,0.000000000,-1.236466000,0.000000000,0.000000000,0.986414000,0.000000000,0.000000000,0.058784000,0.000000000,0.000000000,0.236864000,0.000000000,0.000000000,-0.054688000,0.000000000,0.000000000,1720620442.685062647,,,,,,,,,,,
1720620442.695250,0.043472000,0.000000000,0.000000000,-1.228381000,0.000000000,0.000000000,0.986414000,0.000000000,0.000000000,0.058784000,0.000000000,0.000000000,0.236864000,0.000000000,0.000000000,-0.053472000,0.000000000,0.000000000,1720620442.689062595,,,,,,,,,,,
1720620442.705108,0.043472000,0.000000000,0.000000000,-1.228920000,0.000000000,0.000000000,0.986414000,0.000000000,0.000000000,0.058848000,0.000000000,0.000000000,0.236128000,0.000000000,0.000000000,-0.053536000,0.000000000,0.000000000,1720620442.701062679,,,,,,,,,,,
1720620442.711376,0.043472000,0.000000000,0.000000000,-1.193885000,0.000000000,0.000000000,0.985842000,0.000000000,0.000000000,0.058848000,0.000000000,0.000000000,0.236672000,0.000000000,0.000000000,-0.054528000,0.000038380,0.009134350,1720620442.707062721,,,,,,,,,,,
1720620442.713213,0.043472000,0.000000000,0.000000000,-1.215984000,0.000000000,0.000000000,0.985842000,0.000000000,0.000000000,0.058848000,0.000000000,0.000000000,0.237312000,0.000000000,0.000000000,-0.053344000,0.000000000,0.009134350,1720620442.709062576,,,,,,,,,,,
1720620442.717260,0.043472000,0.000000000,0.000000000,-1.227303000,0.000000000,0.000000000,0.985842000,0.000000000,0.000000000,0.058848000,0.000000000,0.000000000,0.236608000,0.000000000,0.000000000,-0.054880000,0.000038380,0.009134350,1720620442.713062763,,,,,,,,,,,
1720620442.725235,0.043472000,0.000000000,0.000000000,-1.222991000,0.000000000,0.000000000,0.985842000,0.000000000,0.000000000,0.058784000,0.000000000,0.000000000,0.236672000,0.000000000,0.000000000,-0.055008000,0.000038380,0.009134350,1720620442.721062660,,,,,,,,,,,
1720620442.729484,0.043472000,0.000000000,0.000000000,-1.224069000,0.000000000,0.000000000,0.985842000,0.000000000,0.000000000,0.058784000,0.000000000,0.000000000,0.236928000,0.000000000,0.000000000,-0.052544000,0.000000000,0.009134350,1720620442.725062609,,,,,,,,,,,
1720620442.737336,0.043472000,0.000000000,0.000000000,-1.225686000,0.000000000,0.000000000,0.985842000,0.000000000,0.000000000,0.058848000,0.000000000,0.000000000,0.236384000,0.000000000,0.000000000,-0.053344000,0.000000000,0.009134350,1720620442.733062744,,,,,,,,,,,
1720620442.739281,,,,,,,,,,,,,,,,,,,,1720620442.733062744,-1.186824000,3.141592654,0.000000015,0.829037542,-0.000000022,-0.000000054,0.559192949,1.395152983,0.001110973,1.481517837
1720620442.741386,0.043472000,0.000000000,0.000000000,-1.225686000,0.000000000,0.000000000,0.985842000,0.000000000,0.000000000,0.058848000,0.000000000,0.000000000,0.236448000,0.000000000,0.000000000,-0.054080000,0.000000000,0.000000000,1720620442.737062693,,,,,,,,,,,
1720620442.750194,0.043472000,0.000000000,0.000000000,-1.225686000,0.000000000,0.000000000,0.985842000,0.000000000,0.000000000,0.058848000,0.000000000,0.000000000,0.236256000,0.000000000,0.000000000,-0.053664000,0.000000000,0.000000000,1720620442.745062590,,,,,,,,,,,
1720620442.755028,0.043472000,0.000000000,0.000000000,-1.225686000,0.000000000,0.000000000,0.985842000,0.000000000,0.000000000,0.058848000,0.000000000,0.000000000,0.237056000,0.000000000,0.000000000,-0.054688000,0.000038380,0.009134350,1720620442.750062704,,,,,,,,,,,
1720620442.761728,0.043472000,0.000000000,0.000000000,-1.225686000,0.000000000,0.000000000,0.965822000,0.000000000,0.000000000,0.058848000,0.000000000,0.000000000,0.237120000,0.000000000,0.000000000,-0.054592000,0.000000000,0.000000000,1720620442.757062674,,,,,,,,,,,
1720620442.762537,0.043472000,0.000000000,0.000000000,-1.225686000,0.000000000,0.000000000,0.965822000,0.000000000,0.000000000,0.058848000,0.000000000,0.000000000,0.237120000,0.000000000,0.000000000,-0.054592000,0.000000000,0.000000000,1720620442.758062601,,,,,,,,,,,
1720620442.766335,0.043472000,0.000000000,0.000000000,-1.225686000,0.000000000,0.000000000,0.986414000,0.000000000,0.000000000,0.058848000,0.000000000,0.000000000,0.236544000,0.000000000,0.000000000,-0.053600000,0.000000000,0.000000000,1720620442.762062550,,,,,,,,,,,
1720620442.773452,0.043472000,0.000000000,0.000000000,-1.225686000,0.000000000,0.000000000,0.986414000,0.000000000,0.000000000,0.058848000,0.000000000,0.000000000,0.236672000,0.000000000,0.000000000,-0.054144000,0.000000000,0.000000000,1720620442.769062757,,,,,,,,,,,
1720620442.774791,0.043472000,0.000000000,0.000000000,-1.225686000,0.000000000,0.000000000,0.986414000,0.000000000,0.000000000,0.058848000,0.000000000,0.000000000,0.236672000,0.000000000,0.000000000,-0.054144000,0.000000000,0.000000000,1720620442.770062685,,,,,,,,,,,
1720620442.777995,0.043472000,0.000000000,0.000000000,-1.226764000,0.000000000,0.000000000,0.986414000,0.000000000,0.000000000,0.058848000,0.000000000,0.000000000,0.236384000,0.000000000,0.000000000,-0.053280000,0.000000000,0.000000000,1720620442.774062634,,,,,,,,,,,
1720620442.785239,0.043472000,0.000000000,0.000000000,-1.228920000,0.000000000,0.000000000,0.986414000,0.000000000,0.000000000,0.058848000,0.000000000,0.000000000,0.236864000,0.000000000,0.000000000,-0.053824000,0.000000000,0.000000000,1720620442.781062603,,,,,,,,,,,
1720620442.786227,0.043472000,0.000000000,0.000000000,-1.228920000,0.000000000,0.000000000,0.986414000,0.000000000,0.000000000,0.058848000,0.000000000,0.000000000,0.236864000,0.000000000,0.000000000,-0.053824000,0.000000000,0.000000000,1720620442.782062769,,,,,,,,,,,
1720620442.789921,0.043472000,0.000000000,0.000000000,-1.226764000,0.000000000,0.000000000,0.986414000,0.000000000,0.000000000,0.058848000,0.000000000,0.000000000,0.235680000,0.000000000,0.000000000,-0.054080000,0.000000000,0.000000000,1720620442.786062717,,,,,,,,,,,
1720620442.797192,0.043472000,0.000000000,0.000000000,-1.227303000,0.000000000,0.000000000,0.986414000,0.000000000,0.000000000,0.058848000,0.000000000,0.000000000,0.237120000,0.000000000,0.000000000,-0.053952000,0.000000000,0.000000000,1720620442.793062687,,,,,,,,,,,
1720620442.798169,0.043472000,0.000000000,0.000000000,-1.227303000,0.000000000,0.000000000,0.986414000,0.000000000,0.000000000,0.058848000,0.000000000,0.000000000,0.237120000,0.000000000,0.000000000,-0.053952000,0.000000000,0.000000000,1720620442.794062614,,,,,,,,,,,
1720620442.799262,,,,,,,,,,,,,,,,,,,,1720620442.786062717,-1.186824000,3.141592654,0.000000015,0.829037542,-0.000000022,-0.000000054,0.559192949,1.395152983,0.001110973,1.481517837
1720620442.803000,0.043472000,0.000000000,0.000000000,-1.234310000,0.000000000,0.000000000,0.986414000,0.000000000,0.000000000,0.058848000,0.000000000,0.000000000,0.236800000,0.000000000,0.000000000,-0.053824000,0.000000000,0.000000000,1720620442.799062729,,,,,,,,,,,
1720620442.810523,0.043472000,0.000000000,0.000000000,-1.228381000,0.000000000,0.000000000,0.986414000,0.000000000,0.000000000,0.058848000,0.000000000,0.000000000,0.236608000,0.000000000,0.000000000,-0.054880000,0.000038380,0.009134350,1720620442.806062698,,,,,,,,,,,
1720620442.811240,0.043472000,0.000000000,0.000000000,-1.228381000,0.000000000,0.000000000,0.986414000,0.000000000,0.000000000,0.058848000,0.000000000,0.000000000,0.236608000,0.000000000,0.000000000,-0.054880000,0.000038380,0.009134350,1720620442.807062626,,,,,,,,,,,
1720620442.822178,0.043472000,0.000000000,0.000000000,-1.221913000,0.000000000,0.000000000,0.986414000,0.000000000,0.000000000,0.058848000,0.000000000,0.000000000,0.236736000,0.000000000,0.000000000,-0.054592000,0.000000000,0.000000000,1720620442.813062668,,,,,,,,,,,
1720620442.823143,0.043472000,0.000000000,0.000000000,-1.233771000,0.000000000,0.000000000,0.986414000,0.000000000,0.000000000,0.058848000,0.000000000,0.000000000,0.236320000,0.000000000,0.000000000,-0.053344000,0.000000000,0.000000000,1720620442.819062710,,,,,,,,,,,
1720620442.825264,0.043472000,0.000000000,0.000000000,-1.227303000,0.000000000,0.000000000,0.986414000,0.000000000,0.000000000,0.058848000,0.000000000,0.000000000,0.236672000,0.000000000,0.000000000,-0.054336000,0.000000000,0.000000000,1720620442.821062565,,,,,,,,,,,
1720620442.829804,0.043472000,0.000000000,0.000000000,-1.226764000,0.000000000,0.000000000,0.986414000,0.000000000,0.000000000,0.058848000,0.000000000,0.000000000,0.236384000,0.000000000,0.000000000,-0.053152000,0.000000000,0.000000000,1720620442.825062752,,,,,,,,,,,
1720620442.837660,0.043472000,0.000000000,0.000000000,-1.224608000,0.000000000,0.000000000,0.986414000,0.000000000,0.000000000,0.058784000,0.000000000,0.000000000,0.236928000,0.000000000,0.000000000,-0.053408000,0.000000000,0.000000000,1720620442.833062649,,,,,,,,,,,
1720620442.841548,0.043472000,0.000000000,0.000000000,-1.224608000,0.000000000,0.000000000,0.986414000,0.000000000,0.000000000,0.058784000,0.000000000,0.000000000,0.235584000,0.000000000,0.000000000,-0.054528000,0.000000000,0.000000000,1720620442.837062597,,,,,,,,,,,
1720620442.849475,,,,,,,,,,,,,,,,,,,,1720620442.837062597,-1.186824000,3.141592654,0.000000015,0.829037542,-0.000000022,-0.000000054,0.559192949,1.395152983,0.001110973,1.481517837
1720620442.850179,0.043472000,0.000000000,0.000000000,-1.259104000,0.000000000,0.000000000,0.986414000,0.000000000,0.000000000,0.058848000,0.000000000,0.000000000,0.237184000,0.000000000,0.000000000,-0.053536000,0.000000000,0.000000000,1720620442.845062733,,,,,,,,,,,
1720620442.854954,0.043472000,0.000000000,0.000000000,-1.199814000,0.000000000,0.000000000,0.986414000,0.000000000,0.000000000,0.058848000,0.000000000,0.000000000,0.236128000,0.000000000,0.000000000,-0.054208000,0.000000000,0.000000000,1720620442.850062609,,,,,,,,,,,
1720620442.861699,0.043472000,0.000000000,0.000000000,-1.231076000,0.000000000,0.000000000,0.986414000,0.000000000,0.000000000,0.058848000,0.000000000,0.000000000,0.236800000,0.000000000,0.000000000,-0.054208000,0.000000000,0.000000000,1720620442.857062578,,,,,,,,,,,
1720620442.862215,0.043472000,0.000000000,0.000000000,-1.231076000,0.000000000,0.000000000,0.986414000,0.000000000,0.000000000,0.058848000,0.000000000,0.000000000,0.236800000,0.000000000,0.000000000,-0.054208000,0.000000000,0.000000000,1720620442.858062744,,,,,,,,,,,
1720620442.866252,0.043472000,0.000000000,0.000000000,-1.228381000,0.000000000,0.000000000,0.986414000,0.000000000,0.000000000,0.058848000,0.000000000,0.000000000,0.236320000,0.000000000,0.000000000,-0.053760000,0.000000000,0.000000000,1720620442.862062693,,,,,,,,,,,
1720620442.873762,0.043472000,0.000000000,0.000000000,-1.228381000,0.000000000,0.000000000,0.986414000,0.000000000,0.000000000,0.058784000,0.000000000,0.000000000,0.237120000,0.000000000,0.000000000,-0.054336000,0.000000000,0.000000000,1720620442.869062662,,,,,,,,,,,
1720620442.874986,0.043472000,0.000000000,0.000000000,-1.228381000,0.000000000,0.000000000,0.986414000,0.000000000,0.000000000,0.058784000,0.000000000,0.000000000,0.237120000,0.000000000,0.000000000,-0.054336000,0.000000000,0.000000000,1720620442.870062590,,,,,,,,,,,
1720620442.878233,0.043472000,0.000000000,0.000000000,-1.231076000,0.000000000,0.000000000,0.986414000,0.000000000,0.000000000,0.058784000,0.000000000,0.000000000,0.236544000,0.000000000,0.000000000,-0.054272000,0.000000000,0.000000000,1720620442.874062777,,,,,,,,,,,
1720620442.885666,0.043472000,0.000000000,0.000000000,-1.228920000,0.000000000,0.000000000,0.986414000,0.000000000,0.000000000,0.058784000,0.000000000,0.000000000,0.236608000,0.000000000,0.000000000,-0.053824000,0.000000000,0.000000000,1720620442.881062746,,,,,,,,,,,
1720620442.886395,0.043472000,0.000000000,0.000000000,-1.228920000,0.000000000,0.000000000,0.986414000,0.000000000,0.000000000,0.058784000,0.000000000,0.000000000,0.236608000,0.000000000,0.000000000,-0.053824000,0.000000000,0.000000000,1720620442.882062674,,,,,,,,,,,
1720620442.890457,0.043472000,0.000000000,0.000000000,-1.241317000,0.000000000,0.000000000,0.986414000,0.000000000,0.000000000,0.058784000,0.000000000,0.000000000,0.236800000,0.000000000,0.000000000,-0.054144000,0.000000000,0.000000000,1720620442.886062622,,,,,,,,,,,
1720620442.897871,0.043472000,0.000000000,0.000000000,-1.228920000,0.000000000,0.000000000,0.986414000,0.000000000,0.000000000,0.058528000,0.000000000,0.000000000,0.236672000,0.000000000,0.000000000,-0.054144000,0.000000000,0.000000000,1720620442.893062592,,,,,,,,,,,
1720620442.898381,0.043472000,0.000000000,0.000000000,-1.228920000,0.000000000,0.000000000,0.986414000,0.000000000,0.000000000,0.058528000,0.000000000,0.000000000,0.236672000,0.000000000,0.000000000,-0.054144000,0.000000000,0.000000000,1720620442.894062757,,,,,,,,,,,
1720620442.899233,,,,,,,,,,,,,,,,,,,,1720620442.893062592,-1.186824000,3.141592654,0.000000015,0.829037542,-0.000000022,-0.000000054,0.559192949,1.395152983,0.001110973,1.481517837
1720620442.902111,0.043472000,0.000000000,0.000000000,-1.225686000,0.000000000,0.000000000,0.986414000,0.000000000,0.000000000,0.058848000,0.000000000,0.000000000,0.236608000,0.000000000,0.000000000,-0.053664000,0.000000000,0.000000000,1720620442.898062706,,,,,,,,,,,
1720620442.909893,0.043472000,0.000000000,0.000000000,-1.225686000,0.000000000,0.000000000,0.986414000,0.000000000,0.000000000,0.058848000,0.000000000,0.000000000,0.236448000,0.000000000,0.000000000,-0.053472000,0.000000000,0.000000000,1720620442.905062675,,,,,,,,,,,
1720620442.910890,0.043472000,0.000000000,0.000000000,-1.225686000,0.000000000,0.000000000,0.986414000,0.000000000,0.000000000,0.058848000,0.000000000,0.000000000,0.236448000,0.000000000,0.000000000,-0.053472000,0.000000000,0.000000000,1720620442.906062603,,,,,,,,,,,
1720620442.914904,0.043472000,0.000000000,0.000000000,-1.225686000,0.000000000,0.000000000,0.986414000,0.000000000,0.000000000,0.058848000,0.000000000,0.000000000,0.236448000,0.000000000,0.000000000,-0.054016000,0.000000000,0.000000000,1720620442.910062551,,,,,,,,,,,
1720620442.921757,0.043472000,0.000000000,0.000000000,-1.219218000,0.000000000,0.000000000,0.986414000,0.000000000,0.000000000,0.058848000,0.000000000,0.000000000,0.236384000,0.000000000,0.000000000,-0.053664000,0.000000000,0.000000000,1720620442.917062759,,,,,,,,,,,
1720620442.922322,0.043472000,0.000000000,0.000000000,-1.219218000,0.000000000,0.000000000,0.986414000,0.000000000,0.000000000,0.058848000,0.000000000,0.000000000,0.236384000,0.000000000,0.000000000,-0.053664000,0.000000000,0.000000000,1720620442.918062687,,,,,,,,,,,
1720620442.926398,0.043472000,0.000000000,0.000000000,-1.227303000,0.000000000,0.000000000,0.986414000,0.000000000,0.000000000,0.058848000,0.000000000,0.000000000,0.236608000,0.000000000,0.000000000,-0.054208000,0.000000000,0.000000000,1720620442.922062635,,,,,,,,,,,
1720620442.933634,0.043472000,0.000000000,0.000000000,-1.224069000,0.000000000,0.000000000,0.986414000,0.000000000,0.000000000,0.058848000,0.000000000,0.000000000,0.236736000,0.000000000,0.000000000,-0.054208000,0.000000000,0.000000000,1720620442.929062605,,,,,,,,,,,
1720620442.934909,0.043472000,0.000000000,0.000000000,-1.224069000,0.000000000,0.000000000,0.986414000,0.000000000,0.000000000,0.058848000,0.000000000,0.000000000,0.236736000,0.000000000,0.000000000,-0.054208000,0.000000000,0.000000000,1720620442.930062771,,,,,,,,,,,
1720620442.946570,0.043472000,0.000000000,0.000000000,-1.224069000,0.000000000,0.000000000,0.986414000,0.000000000,0.000000000,0.058848000,0.000000000,0.000000000,0.236000000,0.000000000,0.000000000,-0.054080000,0.000000000,0.000000000,1720620442.937062740,,,,,,,,,,,
1720620442.948301,0.043472000,0.000000000,0.000000000,-1.241317000,0.000000000,0.000000000,0.986414000,0.000000000,0.000000000,0.058848000,0.000000000,0.000000000,0.236192000,0.000000000,0.000000000,-0.053664000,0.000000000,0.000000000,1720620442.944062710,,,,,,,,,,,
1720620442.949422,,,,,,,,,,,,,,,,,,,,1720620442.944062710,-1.186824000,3.141592654,0.000000015,0.829037542,-0.000000022,-0.000000054,0.559192949,1.395152983,0.001110973,1.481517837
1720620442.960291,0.043472000,0.000000000,0.000000000,-1.231076000,0.000000000,0.000000000,0.986414000,0.000000000,0.000000000,0.058528000,0.000000000,0.000000000,0.236608000,0.000000000,0.000000000,-0.053536000,0.000000000,0.000000000,1720620442.955062628,,,,,,,,,,,
1720620442.973629,0.043472000,0.000000000,0.000000000,-1.226764000,0.000000000,0.000000000,0.986414000,0.000000000,0.000000000,0.058848000,0.000000000,0.000000000,0.236256000,0.000000000,0.000000000,-0.054272000,0.000000000,0.000000000,1720620442.967062712,,,,,,,,,,,
1720620442.978011,0.043472000,0.000000000,0.000000000,-1.226764000,0.000000000,0.000000000,0.986414000,0.000000000,0.000000000,0.058848000,0.000000000,0.000000000,0.236064000,0.000000000,0.000000000,-0.053824000,0.000000000,0.000000000,1720620442.973062754,,,,,,,,,,,
1720620442.978698,0.043472000,0.000000000,0.000000000,-1.226764000,0.000000000,0.000000000,0.986414000,0.000000000,0.000000000,0.058848000,0.000000000,0.000000000,0.236064000,0.000000000,0.000000000,-0.053824000,0.000000000,0.000000000,1720620442.974062681,,,,,,,,,,,
1720620442.980464,0.043472000,0.000000000,0.000000000,-1.227303000,0.000000000,0.000000000,0.986414000,0.000000000,0.000000000,0.058848000,0.000000000,0.000000000,0.236928000,0.000000000,0.000000000,-0.053760000,0.000000000,0.000000000,1720620442.975062609,,,,,,,,,,,
1720620442.990021,0.043472000,0.000000000,0.000000000,-1.224069000,0.000000000,0.000000000,0.986414000,0.000000000,0.000000000,0.058848000,0.000000000,0.000000000,0.237184000,0.000000000,0.000000000,-0.053600000,0.000000000,0.000000000,1720620442.985062599,,,,,,,,,,,
1720620442.990971,0.043472000,0.000000000,0.000000000,-1.224069000,0.000000000,0.000000000,0.986414000,0.000000000,0.000000000,0.058848000,0.000000000,0.000000000,0.237184000,0.000000000,0.000000000,-0.053600000,0.000000000,0.000000000,1720620442.986062765,,,,,,,,,,,
1720620442.993899,0.043472000,0.000000000,0.000000000,-1.228381000,0.000000000,0.000000000,0.986414000,0.000000000,0.000000000,0.058848000,0.000000000,0.000000000,0.236544000,0.000000000,0.000000000,-0.054272000,0.000000000,0.000000000,1720620442.989062548,,,,,,,,,,,
1720620443.002290,0.043472000,0.000000000,0.000000000,-1.225686000,0.000000000,0.000000000,0.986414000,0.000000000,0.000000000,0.058848000,0.000000000,0.000000000,0.235808000,0.000000000,0.000000000,-0.053152000,0.000000000,0.000000000,1720620442.997062683,,,,,,,,,,,
1720620443.002767,0.043472000,0.000000000,0.000000000,-1.225686000,0.000000000,0.000000000,0.986414000,0.000000000,0.000000000,0.058848000,0.000000000,0.000000000,0.235808000,0.000000000,0.000000000,-0.053152000,0.000000000,0.000000000,1720620442.998062611,,,,,,,,,,,
1720620443.004443,0.043472000,0.000000000,0.000000000,-1.225686000,0.000000000,0.000000000,0.986414000,0.000000000,0.000000000,0.058784000,0.000000000,0.000000000,0.237120000,0.000000000,0.000000000,-0.054752000,0.000000000,0.000000000,1720620443.000062704,,,,,,,,,,,
1720620443.009507,,,,,,,,,,,,,,,,,,,,1720620442.997062683,-1.186824000,3.141592654,0.000000015,0.829037542,-0.000000022,-0.000000054,0.559192949,1.395152983,0.001110973,1.481517837
1720620443.014177,0.043472000,0.000000000,0.000000000,-1.217062000,0.000000000,0.000000000,0.986414000,0.000000000,0.000000000,0.058784000,0.000000000,0.000000000,0.236256000,0.000000000,0.000000000,-0.054208000,0.000000000,0.000000000,1720620443.009062767,,,,,,,,,,,
1720620443.014822,0.043472000,0.000000000,0.000000000,-1.217062000,0.000000000,0.000000000,0.986414000,0.000000000,0.000000000,0.058784000,0.000000000,0.000000000,0.236256000,0.000000000,0.000000000,-0.054208000,0.000000000,0.000000000,1720620443.010062695,,,,,,,,,,,
1720620443.016429,0.043472000,0.000000000,0.000000000,-1.222991000,0.000000000,0.000000000,0.986414000,0.000000000,0.000000000,0.058784000,0.000000000,0.000000000,0.236448000,0.000000000,0.000000000,-0.053824000,0.000000000,0.000000000,1720620443.012062550,,,,,,,,,,,
1720620443.026198,0.043472000,0.000000000,0.000000000,-1.224608000,0.000000000,0.000000000,0.986414000,0.000000000,0.000000000,0.058848000,0.000000000,0.000000000,0.236384000,0.000000000,0.000000000,-0.053536000,0.000000000,0.000000000,1720620443.021062613,,,,,,,,,,,
1720620443.028591,0.043472000,0.000000000,0.000000000,-1.224608000,0.000000000,0.000000000,0.986414000,0.000000000,0.000000000,0.058848000,0.000000000,0.000000000,0.236384000,0.000000000,0.000000000,-0.053536000,0.000000000,0.000000000,1720620443.022062778,,,,,,,,,,,
1720620443.038860,0.043472000,0.000000000,0.000000000,-1.256409000,0.000000000,0.000000000,0.986414000,0.000000000,0.000000000,0.058848000,0.000000000,0.000000000,0.236928000,0.000000000,0.000000000,-0.053472000,0.000000000,0.000000000,1720620443.032062769,,,,,,,,,,,
1720620443.050167,0.043472000,0.000000000,0.000000000,-1.227303000,0.000000000,0.000000000,0.986414000,0.000000000,0.000000000,0.058848000,0.000000000,0.000000000,0.236448000,0.000000000,0.000000000,-0.054144000,0.000000000,0.000000000,1720620443.045062542,,,,,,,,,,,
1720620443.057372,0.043472000,0.000000000,0.000000000,-1.226764000,0.000000000,0.000000000,0.986414000,0.000000000,0.000000000,0.058848000,0.000000000,0.000000000,0.237056000,0.000000000,0.000000000,-0.053344000,0.000000000,0.000000000,1720620443.052062750,,,,,,,,,,,
1720620443.058887,0.043472000,0.000000000,0.000000000,-1.226764000,0.000000000,0.000000000,0.986414000,0.000000000,0.000000000,0.058848000,0.000000000,0.000000000,0.237056000,0.000000000,0.000000000,-0.053344000,0.000000000,0.000000000,1720620443.054062605,,,,,,,,,,,
1720620443.059201,,,,,,,,,,,,,,,,,,,,1720620443.052062750,-1.186824000,3.141592654,0.000000015,0.829037542,-0.000000022,-0.000000054,0.559192949,1.395152983,0.001110973,1.481517837
1720620443.061953,0.043472000,0.000000000,0.000000000,-1.194963000,0.000000000,0.000000000,0.986414000,0.000000000,0.000000000,0.058848000,0.000000000,0.000000000,0.236320000,0.000000000,0.000000000,-0.054208000,0.000000000,0.000000000,1720620443.057062626,,,,,,,,,,,
1720620443.070301,0.043472000,0.000000000,0.000000000,-1.222991000,0.000000000,0.000000000,0.986414000,0.000000000,0.000000000,0.058848000,0.000000000,0.000000000,0.236992000,0.000000000,0.000000000,-0.054144000,0.000000000,0.000000000,1720620443.065062761,,,,,,,,,,,
1720620443.073776,0.043472000,0.000000000,0.000000000,-1.224069000,0.000000000,0.000000000,0.986414000,0.000000000,0.000000000,0.058784000,0.000000000,0.000000000,0.237376000,0.000000000,0.000000000,-0.054336000,0.000000000,0.000000000,1720620443.069062710,,,,,,,,,,,
1720620443.082144,0.043472000,0.000000000,0.000000000,-1.224608000,0.000000000,0.000000000,0.986414000,0.000000000,0.000000000,0.058784000,0.000000000,0.000000000,0.236800000,0.000000000,0.000000000,-0.054528000,0.000000000,0.000000000,1720620443.077062607,,,,,,,,,,,
1720620443.094203,0.043472000,0.000000000,0.000000000,-1.231615000,0.000000000,0.000000000,0.986414000,0.000000000,0.000000000,0.058784000,0.000000000,0.000000000,0.236256000,0.000000000,0.000000000,-0.053152000,0.000000000,0.000000000,1720620443.089062691,,,,,,,,,,,
1720620443.101586,0.043472000,0.000000000,0.000000000,-1.227303000,0.000000000,0.000000000,0.986414000,0.000000000,0.000000000,0.059136000,0.000000000,0.000000000,0.236544000,0.000000000,0.000000000,-0.053344000,0.000000000,0.000000000,1720620443.096062660,,,,,,,,,,,
1720620443.102401,0.043472000,0.000000000,0.000000000,-1.227303000,0.000000000,0.000000000,0.986414000,0.000000000,0.000000000,0.059136000,0.000000000,0.000000000,0.236544000,0.000000000,0.000000000,-0.053344000,0.000000000,0.000000000,1720620443.097062588,,,,,,,,,,,
1720620443.105783,0.043472000,0.000000000,0.000000000,-1.226764000,0.000000000,0.000000000,0.986414000,0.000000000,0.000000000,0.058784000,0.000000000,0.000000000,0.236384000,0.000000000,0.000000000,-0.054272000,0.000000000,0.000000000,1720620443.101062775,,,,,,,,,,,
1720620443.113045,0.043472000,0.000000000,0.000000000,-1.225686000,0.000000000,0.000000000,0.986414000,0.000000000,0.000000000,0.058784000,0.000000000,0.000000000,0.236928000,0.000000000,0.000000000,-0.053600000,0.000000000,0.000000000,1720620443.108062744,,,,,,,,,,,
1720620443.113952,0.043472000,0.000000000,0.000000000,-1.225686000,0.000000000,0.000000000,0.986414000,0.000000000,0.000000000,0.058784000,0.000000000,0.000000000,0.236928000,0.000000000,0.000000000,-0.053600000,0.000000000,0.000000000,1720620443.109062672,,,,,,,,,,,
1720620443.117894,0.043472000,0.000000000,0.000000000,-1.224608000,0.000000000,0.000000000,0.986414000,0.000000000,0.000000000,0.058784000,0.000000000,0.000000000,0.236128000,0.000000000,0.000000000,-0.054816000,0.000000000,0.000000000,1720620443.113062620,,,,,,,,,,,
1720620443.119255,,,,,,,,,,,,,,,,,,,,1720620443.108062744,-1.186824000,3.141592654,0.000000015,0.829037542,-0.000000022,-0.000000054,0.559192949,1.395152983,0.001110973,1.481517837
1720620443.125098,0.043472000,0.000000000,0.000000000,-1.224608000,0.000000000,0.000000000,0.986414000,0.000000000,0.000000000,0.058784000,0.000000000,0.000000000,0.236544000,0.000000000,0.000000000,-0.055456000,0.000038380,0.009134350,1720620443.120062590,,,,,,,,,,,
1720620443.125934,0.043472000,0.000000000,0.000000000,-1.224608000,0.000000000,0.000000000,0.986414000,0.000000000,0.000000000,0.058784000,0.000000000,0.000000000,0.236544000,0.000000000,0.000000000,-0.055456000,0.000038380,0.009134350,1720620443.121062756,,,,,,,,,,,
1720620443.129962,0.043472000,0.000000000,0.000000000,-1.224608000,0.000000000,0.000000000,0.986414000,0.000000000,0.000000000,0.058784000,0.000000000,0.000000000,0.237728000,0.000000000,0.000000000,-0.052160000,0.000000000,0.009134350,1720620443.125062704,,,,,,,,,,,
1720620443.137164,0.043472000,0.000000000,0.000000000,-1.221374000,0.000000000,0.000000000,0.986414000,0.000000000,0.000000000,0.058784000,0.000000000,0.000000000,0.236736000,0.000000000,0.000000000,-0.051968000,0.000000000,0.009134350,1720620443.132062674,,,,,,,,,,,
1720620443.137973,0.043472000,0.000000000,0.000000000,-1.221374000,0.000000000,0.000000000,0.986414000,0.000000000,0.000000000,0.058784000,0.000000000,0.000000000,0.236736000,0.000000000,0.000000000,-0.051968000,0.000000000,0.009134350,1720620443.133062601,,,,,,,,,,,
1720620443.142068,0.043472000,0.000000000,0.000000000,-1.228920000,0.000000000,0.000000000,0.986414000,0.000000000,0.000000000,0.058784000,0.000000000,0.000000000,0.236672000,0.000000000,0.000000000,-0.055552000,0.000038380,0.009134350,1720620443.137062550,,,,,,,,,,,
1720620443.151247,0.043472000,0.000000000,0.000000000,-1.227303000,0.000000000,0.000000000,0.986414000,0.000000000,0.000000000,0.058784000,0.000000000,0.000000000,0.236992000,0.000000000,0.000000000,-0.054336000,0.000000000,0.000000000,1720620443.146062613,,,,,,,,,,,
1720620443.160580,0.043472000,0.000000000,0.000000000,-1.227303000,0.000000000,0.000000000,0.986414000,0.000000000,0.000000000,0.058784000,0.000000000,0.000000000,0.237312000,0.000000000,0.000000000,-0.054528000,0.000000000,0.000000000,1720620443.155062675,,,,,,,,,,,
1720620443.171440,0.043472000,0.000000000,0.000000000,-1.227303000,0.000000000,0.000000000,0.986414000,0.000000000,0.000000000,0.058784000,0.000000000,0.000000000,0.236800000,0.000000000,0.000000000,-0.053760000,0.000000000,0.000000000,1720620443.166062593,,,,,,,,,,,
1720620443.179450,,,,,,,,,,,,,,,,,,,,1720620443.166062593,-1.186824000,3.141592654,0.000000015,0.829037542,-0.000000022,-0.000000054,0.559192949,1.395152983,0.001110973,1.481517837
1720620443.182151,0.043472000,0.000000000,0.000000000,-1.226764000,0.000000000,0.000000000,0.986414000,0.000000000,0.000000000,0.058848000,0.000000000,0.000000000,0.237184000,0.000000000,0.000000000,-0.054336000,0.000000000,0.000000000,1720620443.177062750,,,,,,,,,,,
1720620443.189479,0.043472000,0.000000000,0.000000000,-1.226764000,0.000000000,0.000000000,0.986414000,0.000000000,0.000000000,0.058848000,0.000000000,0.000000000,0.236544000,0.000000000,0.000000000,-0.054400000,0.000000000,0.000000000,1720620443.184062719,,,,,,,,,,,
1720620443.190811,0.043472000,0.000000000,0.000000000,-1.226764000,0.000000000,0.000000000,0.986414000,0.000000000,0.000000000,0.058848000,0.000000000,0.000000000,0.236544000,0.000000000,0.000000000,-0.054400000,0.000000000,0.000000000,1720620443.185062647,,,,,,,,,,,
1720620443.194127,0.043472000,0.000000000,0.000000000,-1.231076000,0.000000000,0.000000000,0.986414000,0.000000000,0.000000000,0.058848000,0.000000000,0.000000000,0.236800000,0.000000000,0.000000000,-0.053664000,0.000000000,0.000000000,1720620443.189062595,,,,,,,,,,,
1720620443.202482,0.043472000,0.000000000,0.000000000,-1.229998000,0.000000000,0.000000000,0.986414000,0.000000000,0.000000000,0.058848000,0.000000000,0.000000000,0.236384000,0.000000000,0.000000000,-0.053888000,0.000000000,0.000000000,1720620443.197062731,,,,,,,,,,,
1720620443.206119,0.043472000,0.000000000,0.000000000,-1.227303000,0.000000000,0.000000000,0.986414000,0.000000000,0.000000000,0.058848000,0.000000000,0.000000000,0.236672000,0.000000000,0.000000000,-0.054080000,0.000000000,0.000000000,1720620443.201062679,,,,,,,,,,,
1720620443.222950,0.043472000,0.000000000,0.000000000,-1.227303000,0.000000000,0.000000000,0.986414000,0.000000000,0.000000000,0.058848000,0.000000000,0.000000000,0.236000000,0.000000000,0.000000000,-0.054528000,0.000000000,0.000000000,1720620443.212062597,,,,,,,,,,,
1720620443.223000,0.043472000,0.000000000,0.000000000,-1.227303000,0.000000000,0.000000000,0.986414000,0.000000000,0.000000000,0.058848000,0.000000000,0.000000000,0.237056000,0.000000000,0.000000000,-0.053280000,0.000000000,0.000000000,1720620443.218062639,,,,,,,,,,,
1720620443.225264,0.043472000,0.000000000,0.000000000,-1.259104000,0.000000000,0.000000000,0.986414000,0.000000000,0.000000000,0.058848000,0.000000000,0.000000000,0.236448000,0.000000000,0.000000000,-0.055456000,0.000038380,0.009134350,1720620443.220062733,,,,,,,,,,,
1720620443.229047,0.043472000,0.000000000,0.000000000,-1.221374000,0.000000000,0.000000000,0.986414000,0.000000000,0.000000000,0.058848000,0.000000000,0.000000000,0.236800000,0.000000000,0.000000000,-0.052896000,0.000000000,0.009134350,1720620443.224062681,,,,,,,,,,,
1720620443.229454,,,,,,,,,,,,,,,,,,,,1720620443.218062639,-1.186824000,3.141592654,0.000000015,0.829037542,-0.000000022,-0.000000054,0.559192949,1.395152983,0.001110973,1.481517837
1720620443.237361,0.043472000,0.000000000,0.000000000,-1.222991000,0.000000000,0.000000000,0.986414000,0.000000000,0.000000000,0.058848000,0.000000000,0.000000000,0.236672000,0.000000000,0.000000000,-0.052608000,0.000000000,0.000000000,1720620443.232062578,,,,,,,,,,,
1720620443.241364,0.043472000,0.000000000,0.000000000,-1.222991000,0.000000000,0.000000000,0.986414000,0.000000000,0.000000000,0.058848000,0.000000000,0.000000000,0.237184000,0.000000000,0.000000000,-0.054688000,0.000000000,0.000000000,1720620443.236062765,,,,,,,,,,,
1720620443.253216,0.043472000,0.000000000,0.000000000,-1.215984000,0.000000000,0.000000000,0.986414000,0.000000000,0.000000000,0.058848000,0.000000000,0.000000000,0.236320000,0.000000000,0.000000000,-0.053600000,0.000000000,0.000000000,1720620443.248062611,,,,,,,,,,,
1720620443.259284,0.043472000,0.000000000,0.000000000,-1.207360000,0.000000000,0.000000000,0.986414000,0.000000000,0.000000000,0.058848000,0.000000000,0.000000000,0.236800000,0.000000000,0.000000000,-0.054528000,0.000000000,0.000000000,1720620443.254062653,,,,,,,,,,,
1720620443.261729,0.043472000,0.000000000,0.000000000,-1.221913000,0.000000000,0.000000000,0.986414000,0.000000000,0.000000000,0.058848000,0.000000000,0.000000000,0.237536000,0.000000000,0.000000000,-0.053472000,0.000000000,0.000000000,1720620443.256062746,,,,,,,,,,,
1720620443.266024,0.043472000,0.000000000,0.000000000,-1.224608000,0.000000000,0.000000000,0.986414000,0.000000000,0.000000000,0.058848000,0.000000000,0.000000000,0.236608000,0.000000000,0.000000000,-0.054080000,0.000000000,0.000000000,1720620443.261062622,,,,,,,,,,,
1720620443.273458,0.043472000,0.000000000,0.000000000,-1.224608000,0.000000000,0.000000000,0.986414000,0.000000000,0.000000000,0.058848000,0.000000000,0.000000000,0.237184000,0.000000000,0.000000000,-0.053152000,0.000000000,0.009134350,1720620443.268062592,,,,,,,,,,,
1720620443.274928,0.043472000,0.000000000,0.000000000,-1.224608000,0.000000000,0.000000000,0.986414000,0.000000000,0.000000000,0.058848000,0.000000000,0.000000000,0.237184000,0.000000000,0.000000000,-0.053152000,0.000000000,0.009134350,1720620443.269062757,,,,,,,,,,,
1720620443.278099,0.043472000,0.000000000,0.000000000,-1.224608000,0.000000000,0.000000000,0.986414000,0.000000000,0.000000000,0.058784000,0.000000000,0.000000000,0.236320000,0.000000000,0.000000000,-0.054400000,0.000000000,0.000000000,1720620443.273062706,,,,,,,,,,,
1720620443.279440,,,,,,,,,,,,,,,,,,,,1720620443.268062592,-1.186824000,3.141592654,0.000000015,0.829037542,-0.000000022,-0.000000054,0.559192949,1.395152983,0.001110973,1.481517837
1720620443.285535,0.043472000,0.000000000,0.000000000,-1.224608000,0.000000000,0.000000000,0.986414000,0.000000000,0.000000000,0.058784000,0.000000000,0.000000000,0.236928000,0.000000000,0.000000000,-0.054464000,0.000000000,0.000000000,1720620443.280062675,,,,,,,,,,,
1720620443.286244,0.043472000,0.000000000,0.000000000,-1.224608000,0.000000000,0.000000000,0.986414000,0.000000000,0.000000000,0.058784000,0.000000000,0.000000000,0.236928000,0.000000000,0.000000000,-0.054464000,0.000000000,0.000000000,1720620443.281062603,,,,,,,,,,,
1720620443.290128,0.043472000,0.000000000,0.000000000,-1.217601000,0.000000000,0.000000000,0.986414000,0.000000000,0.000000000,0.058784000,0.000000000,0.000000000,0.236864000,0.000000000,0.000000000,-0.053824000,0.000000000,0.000000000,1720620443.285062551,,,,,,,,,,,
1720620443.297456,0.043472000,0.000000000,0.000000000,-1.224069000,0.000000000,0.000000000,0.986414000,0.000000000,0.000000000,0.058784000,0.000000000,0.000000000,0.236320000,0.000000000,0.000000000,-0.054080000,0.000000000,0.000000000,1720620443.292062759,,,,,,,,,,,
1720620443.298433,0.043472000,0.000000000,0.000000000,-1.224069000,0.000000000,0.000000000,0.986414000,0.000000000,0.000000000,0.058784000,0.000000000,0.000000000,0.236320000,0.000000000,0.000000000,-0.054080000,0.000000000,0.000000000,1720620443.293062687,,,,,,,,,,,
1720620443.302327,0.043472000,0.000000000,0.000000000,-1.224069000,0.000000000,0.000000000,0.986414000,0.000000000,0.000000000,0.058784000,0.000000000,0.000000000,0.236384000,0.000000000,0.000000000,-0.053888000,0.000000000,0.000000000,1720620443.297062635,,,,,,,,,,,
1720620443.309519,0.043472000,0.000000000,0.000000000,-1.220296000,0.000000000,0.000000000,0.986414000,0.000000000,0.000000000,0.058848000,0.000000000,0.000000000,0.236928000,0.000000000,0.000000000,-0.054208000,0.000000000,0.000000000,1720620443.304062605,,,,,,,,,,,
1720620443.310198,0.043472000,0.000000000,0.000000000,-1.220296000,0.000000000,0.000000000,0.986414000,0.000000000,0.000000000,0.058848000,0.000000000,0.000000000,0.236928000,0.000000000,0.000000000,-0.054208000,0.000000000,0.000000000,1720620443.305062771,,,,,,,,,,,
1720620443.314755,0.043472000,0.000000000,0.000000000,-1.224069000,0.000000000,0.000000000,0.986414000,0.000000000,0.000000000,0.058848000,0.000000000,0.000000000,0.237376000,0.000000000,0.000000000,-0.053472000,0.000000000,0.000000000,1720620443.309062719,,,,,,,,,,,
1720620443.322208,0.043472000,0.000000000,0.000000000,-1.228920000,0.000000000,0.000000000,0.986414000,0.000000000,0.000000000,0.058848000,0.000000000,0.000000000,0.236128000,0.000000000,0.000000000,-0.053824000,0.000000000,0.000000000,1720620443.316062689,,,,,,,,,,,
1720620443.332775,0.043472000,0.000000000,0.000000000,-1.238083000,0.000000000,0.000000000,0.986414000,0.000000000,0.000000000,0.058784000,0.000000000,0.000000000,0.236384000,0.000000000,0.000000000,-0.054272000,0.000000000,0.000000000,1720620443.327062607,,,,,,,,,,,
1720620443.339452,,,,,,,,,,,,,,,,,,,,1720620443.327062607,-1.186824000,3.141592654,0.000000015,0.829037542,-0.000000022,-0.000000054,0.559192949,1.395152983,0.001110973,1.481517837
1720620443.345553,0.043472000,0.000000000,0.000000000,-1.224608000,0.000000000,0.000000000,0.986414000,0.000000000,0.000000000,0.058784000,0.000000000,0.000000000,0.236544000,0.000000000,0.000000000,-0.054816000,0.000000000,0.000000000,1720620443.340062618,,,,,,,,,,,
1720620443.352798,0.043472000,0.000000000,0.000000000,-1.221374000,0.000000000,0.000000000,0.986414000,0.000000000,0.000000000,0.058784000,0.000000000,0.000000000,0.236608000,0.000000000,0.000000000,-0.054336000,0.000000000,0.000000000,1720620443.347062588,,,,,,,,,,,
1720620443.362196,0.043472000,0.000000000,0.000000000,-1.221374000,0.000000000,0.000000000,0.986414000,0.000000000,0.000000000,0.058784000,0.000000000,0.000000000,0.235936000,0.000000000,0.000000000,-0.054272000,0.000000000,0.000000000,1720620443.356062651,,,,,,,,,,,
1720620443.363415,0.043472000,0.000000000,0.000000000,-1.221374000,0.000000000,0.000000000,0.986414000,0.000000000,0.000000000,0.058784000,0.000000000,0.000000000,0.235936000,0.000000000,0.000000000,-0.054272000,0.000000000,0.000000000,1720620443.358062744,,,,,,,,,,,
1720620443.365447,0.043472000,0.000000000,0.000000000,-1.217062000,0.000000000,0.000000000,0.986414000,0.000000000,0.000000000,0.058784000,0.000000000,0.000000000,0.236800000,0.000000000,0.000000000,-0.053824000,0.000000000,0.000000000,1720620443.360062599,,,,,,,,,,,
1720620443.375098,0.043472000,0.000000000,0.000000000,-1.221913000,0.000000000,0.000000000,0.986414000,0.000000000,0.000000000,0.058784000,0.000000000,0.000000000,0.236192000,0.000000000,0.000000000,-0.053888000,0.000000000,0.000000000,1720620443.369062662,,,,,,,,,,,
1720620443.376375,0.043472000,0.000000000,0.000000000,-1.221913000,0.000000000,0.000000000,0.986414000,0.000000000,0.000000000,0.058784000,0.000000000,0.000000000,0.237056000,0.000000000,0.000000000,-0.054080000,0.000000000,0.000000000,1720620443.371062756,,,,,,,,,,,
1720620443.389706,0.043472000,0.000000000,0.000000000,-1.222991000,0.000000000,0.000000000,0.986414000,0.000000000,0.000000000,0.058784000,0.000000000,0.000000000,0.236544000,0.000000000,0.000000000,-0.053024000,0.000000000,0.000000000,1720620443.384062767,,,,,,,,,,,
1720620443.396626,0.043472000,0.000000000,0.000000000,-1.225686000,0.000000000,0.000000000,0.986414000,0.000000000,0.000000000,0.059200000,0.000000000,0.000000000,0.237312000,0.000000000,0.000000000,-0.053024000,0.000000000,0.000000000,1720620443.391062737,,,,,,,,,,,
1720620443.399542,,,,,,,,,,,,,,,,,,,,1720620443.384062767,-1.186824000,3.141592654,0.000000015,0.829037542,-0.000000022,-0.000000054,0.559192949,1.395152983,0.001110973,1.481517837
1720620443.409678,0.043472000,0.000000000,0.000000000,-1.228920000,0.000000000,0.000000000,0.986414000,0.000000000,0.000000000,0.058784000,0.000000000,0.000000000,0.236736000,0.000000000,0.000000000,-0.054016000,0.000000000,0.000000000,1720620443.404062748,,,,,,,,,,,
1720620443.416719,0.043472000,0.000000000,0.000000000,-1.228381000,0.000000000,0.000000000,0.986414000,0.000000000,0.000000000,0.058848000,0.000000000,0.000000000,0.236192000,0.000000000,0.000000000,-0.054592000,0.000000000,0.000000000,1720620443.411062717,,,,,,,,,,,
1720620443.426177,0.043472000,0.000000000,0.000000000,-1.227303000,0.000000000,0.000000000,0.986414000,0.000000000,0.000000000,0.058848000,0.000000000,0.000000000,0.236800000,0.000000000,0.000000000,-0.053760000,0.000000000,0.000000000,1720620443.420062542,,,,,,,,,,,
1720620443.426740,0.043472000,0.000000000,0.000000000,-1.227303000,0.000000000,0.000000000,0.986414000,0.000000000,0.000000000,0.058848000,0.000000000,0.000000000,0.236800000,0.000000000,0.000000000,-0.053760000,0.000000000,0.000000000,1720620443.421062708,,,,,,,,,,,
1720620443.428768,0.043472000,0.000000000,0.000000000,-1.232693000,0.000000000,0.000000000,0.986414000,0.000000000,0.000000000,0.058848000,0.000000000,0.000000000,0.236544000,0.000000000,0.000000000,-0.054016000,0.000000000,0.000000000,1720620443.423062563,,,,,,,,,,,
1720620443.438141,0.043472000,0.000000000,0.000000000,-1.226764000,0.000000000,0.000000000,0.986414000,0.000000000,0.000000000,0.058848000,0.000000000,0.000000000,0.236800000,0.000000000,0.000000000,-0.054080000,0.000000000,0.000000000,1720620443.432062626,,,,,,,,,,,
1720620443.438770,0.043472000,0.000000000,0.000000000,-1.226764000,0.000000000,0.000000000,0.986414000,0.000000000,0.000000000,0.058848000,0.000000000,0.000000000,0.236800000,0.000000000,0.000000000,-0.054080000,0.000000000,0.000000000,1720620443.433062553,,,,,,,,,,,
1720620443.441549,0.043472000,0.000000000,0.000000000,-1.226764000,0.000000000,0.000000000,0.986414000,0.000000000,0.000000000,0.058848000,0.000000000,0.000000000,0.236800000,0.000000000,0.000000000,-0.054080000,0.000000000,0.000000000,1720620443.434062719,,,,,,,,,,,
1720620443.449558,,,,,,,,,,,,,,,,,,,,1720620443.434062719,-1.186824000,3.141592654,0.000000015,0.829037542,-0.000000022,-0.000000054,0.559192949,1.395152983,0.001110973,1.481517837
1720620443.450163,0.043472000,0.000000000,0.000000000,-1.226764000,0.000000000,0.000000000,0.986414000,0.000000000,0.000000000,0.058848000,0.000000000,0.000000000,0.236992000,0.000000000,0.000000000,-0.054144000,0.000000000,0.000000000,1720620443.444062710,,,,,,,,,,,
1720620443.450965,0.043472000,0.000000000,0.000000000,-1.226764000,0.000000000,0.000000000,0.986414000,0.000000000,0.000000000,0.058848000,0.000000000,0.000000000,0.236992000,0.000000000,0.000000000,-0.054144000,0.000000000,0.000000000,1720620443.445062637,,,,,,,,,,,
1720620443.453788,0.043472000,0.000000000,0.000000000,-1.194963000,0.000000000,0.000000000,0.986414000,0.000000000,0.000000000,0.058848000,0.000000000,0.000000000,0.237248000,0.000000000,0.000000000,-0.053152000,0.000000000,0.000000000,1720620443.446062565,,,,,,,,,,,
1720620443.462167,0.043472000,0.000000000,0.000000000,-1.221913000,0.000000000,0.000000000,0.986414000,0.000000000,0.000000000,0.058784000,0.000000000,0.000000000,0.236128000,0.000000000,0.000000000,-0.052672000,0.000000000,0.000000000,1720620443.456062555,,,,,,,,,,,
1720620443.463277,0.043472000,0.000000000,0.000000000,-1.221913000,0.000000000,0.000000000,0.986414000,0.000000000,0.000000000,0.058784000,0.000000000,0.000000000,0.236128000,0.000000000,0.000000000,-0.052672000,0.000000000,0.000000000,1720620443.457062721,,,,,,,,,,,
1720620443.465129,0.043472000,0.000000000,0.000000000,-1.214367000,0.000000000,0.000000000,0.986414000,0.000000000,0.000000000,0.058784000,0.000000000,0.000000000,0.236672000,0.000000000,0.000000000,-0.055328000,0.000038380,0.009134350,1720620443.459062576,,,,,,,,,,,
1720620443.474056,0.043472000,0.000000000,0.000000000,-1.224069000,0.000000000,0.000000000,0.986414000,0.000000000,0.000000000,0.058784000,0.000000000,0.000000000,0.237472000,0.000000000,0.000000000,-0.055200000,0.000038380,0.009134350,1720620443.468062639,,,,,,,,,,,
1720620443.475155,0.043472000,0.000000000,0.000000000,-1.224069000,0.000000000,0.000000000,0.986414000,0.000000000,0.000000000,0.058784000,0.000000000,0.000000000,0.237472000,0.000000000,0.000000000,-0.055200000,0.000038380,0.009134350,1720620443.469062567,,,,,,,,,,,
1720620443.476436,0.043472000,0.000000000,0.000000000,-1.224608000,0.000000000,0.000000000,0.986414000,0.000000000,0.000000000,0.058784000,0.000000000,0.000000000,0.236384000,0.000000000,0.000000000,-0.052544000,0.000000000,0.009134350,1720620443.471062660,,,,,,,,,,,
1720620443.486234,0.043472000,0.000000000,0.000000000,-1.224608000,0.000000000,0.000000000,0.986414000,0.000000000,0.000000000,0.058784000,0.000000000,0.000000000,0.236544000,0.000000000,0.000000000,-0.052608000,0.000000000,0.009134350,1720620443.480062723,,,,,,,,,,,
1720620443.486780,0.043472000,0.000000000,0.000000000,-1.224608000,0.000000000,0.000000000,0.986414000,0.000000000,0.000000000,0.058784000,0.000000000,0.000000000,0.236544000,0.000000000,0.000000000,-0.052608000,0.000000000,0.009134350,1720620443.481062651,,,,,,,,,,,
1720620443.488686,0.043472000,0.000000000,0.000000000,-1.224608000,0.000000000,0.000000000,0.986414000,0.000000000,0.000000000,0.058784000,0.000000000,0.000000000,0.236928000,0.000000000,0.000000000,-0.055200000,0.000038380,0.009134350,1720620443.483062744,,,,,,,,,,,
1720620443.498180,0.043472000,0.000000000,0.000000000,-1.224608000,0.000000000,0.000000000,0.986414000,0.000000000,0.000000000,0.058848000,0.000000000,0.000000000,0.236544000,0.000000000,0.000000000,-0.055136000,0.000038380,0.009134350,1720620443.492062569,,,,,,,,,,,
1720620443.498683,0.043472000,0.000000000,0.000000000,-1.224608000,0.000000000,0.000000000,0.986414000,0.000000000,0.000000000,0.058848000,0.000000000,0.000000000,0.236544000,0.000000000,0.000000000,-0.055136000,0.000038380,0.009134350,1720620443.493062735,,,,,,,,,,,
1720620443.499207,,,,,,,,,,,,,,,,,,,,1720620443.492062569,-1.186823998,3.141490200,0.000015924,0.829037542,0.000010709,0.000094939,0.559192948,1.395152983,0.001108959,1.481517794
1720620443.501669,0.043472000,0.000000000,0.000000000,-1.224608000,0.000000000,0.000000000,0.986414000,0.000000000,0.000000000,0.058848000,0.000000000,0.000000000,0.237120000,0.000000000,0.000000000,-0.052352000,0.000000000,0.009134350,1720620443.494062662,,,,,,,,,,,
1720620443.510101,0.043472000,0.000000000,0.000000000,-1.224608000,0.000000000,0.000000000,0.986414000,0.000000000,0.000000000,0.058848000,0.000000000,0.000000000,0.236992000,0.000000000,0.000000000,-0.053088000,0.000000000,0.009134350,1720620443.504062653,,,,,,,,,,,
1720620443.510597,0.043472000,0.000000000,0.000000000,-1.224608000,0.000000000,0.000000000,0.986414000,0.000000000,0.000000000,0.058848000,0.000000000,0.000000000,0.236992000,0.000000000,0.000000000,-0.053088000,0.000000000,0.009134350,1720620443.505062580,,,,,,,,,,,
1720620443.514064,0.043472000,0.000000000,0.000000000,-1.224608000,0.000000000,0.000000000,0.986414000,0.000000000,0.000000000,0.058848000,0.000000000,0.000000000,0.236736000,0.000000000,0.000000000,-0.054752000,0.000038380,0.009134350,1720620443.508062601,,,,,,,,,,,
1720620443.522408,0.043472000,0.000000000,0.000000000,-1.224608000,0.000000000,0.000000000,0.986414000,0.000000000,0.000000000,0.058848000,0.000000000,0.000000000,0.236544000,0.000000000,0.000000000,-0.054688000,0.000038380,0.009134350,1720620443.516062737,,,,,,,,,,,
1720620443.523488,0.043472000,0.000000000,0.000000000,-1.224608000,0.000000000,0.000000000,0.986414000,0.000000000,0.000000000,0.058848000,0.000000000,0.000000000,0.236544000,0.000000000,0.000000000,-0.054688000,0.000038380,0.009134350,1720620443.517062664,,,,,,,,,,,
1720620443.525167,0.043472000,0.000000000,0.000000000,-1.224608000,0.000000000,0.000000000,0.986414000,0.000000000,0.000000000,0.058848000,0.000000000,0.000000000,0.237056000,0.000000000,0.000000000,-0.053824000,0.000000000,0.009134350,1720620443.519062757,,,,,,,,,,,
1720620443.534295,0.043472000,0.000000000,0.000000000,-1.224608000,0.000000000,0.000000000,0.986414000,0.000000000,0.000000000,0.058848000,0.000000000,0.000000000,0.237376000,0.000000000,0.000000000,-0.053824000,0.000000000,0.009134350,1720620443.528062582,,,,,,,,,,,
