zakjeens/yaskawa_debug_materials/t21/joints.csv
__time,/joint_states/group_1/joint_1/effort,/joint_states/group_1/joint_1/position,/joint_states/group_1/joint_1/velocity,/joint_states/group_1/joint_2/effort,/joint_states/group_1/joint_2/position,/joint_states/group_1/joint_2/velocity,/joint_states/group_1/joint_3/effort,/joint_states/group_1/joint_3/position,/joint_states/group_1/joint_3/velocity,/joint_states/group_1/joint_4/effort,/joint_states/group_1/joint_4/position,/joint_states/group_1/joint_4/velocity,/joint_states/group_1/joint_5/effort,/joint_states/group_1/joint_5/position,/joint_states/group_1/joint_5/velocity,/joint_states/group_1/joint_6/effort,/joint_states/group_1/joint_6/position,/joint_states/group_1/joint_6/velocity,/joint_states/header/stamp,/world_to_torch/header/header/stamp,/world_to_torch/transform/rotation/pitch,/world_to_torch/transform/rotation/roll,/world_to_torch/transform/rotation/w,/world_to_torch/transform/rotation/x,/world_to_torch/transform/rotation/y,/world_to_torch/transform/rotation/yaw,/world_to_torch/transform/rotation/z,/world_to_torch/transform/translation/x,/world_to_torch/transform/translation/y,/world_to_torch/transform/translation/z
1720622004.035087,0.035178000,0.000000000,0.000000000,-1.181488000,0.000000000,0.000000000,0.980408000,0.000000000,0.000000000,0.057600000,0.000000000,0.000000000,0.238464000,0.000000000,0.000000000,-0.048768000,0.000000000,0.000000000,1720622004.024053335,,,,,,,,,,,
1720622004.044129,0.035178000,0.000000000,0.000000000,-1.182566000,0.000000000,0.000000000,0.980408000,0.000000000,0.000000000,0.057600000,0.000000000,0.000000000,0.238048000,0.000000000,0.000000000,-0.049024000,0.000000000,0.000000000,1720622004.033053398,,,,,,,,,,,
1720622004.045388,0.035178000,0.000000000,0.000000000,-1.182566000,0.000000000,0.000000000,0.980408000,0.000000000,0.000000000,0.057600000,0.000000000,0.000000000,0.238048000,0.000000000,0.000000000,-0.049024000,0.000000000,0.000000000,1720622004.034053326,,,,,,,,,,,
1720622004.046978,0.035178000,0.000000000,0.000000000,-1.182566000,0.000000000,0.000000000,0.980408000,0.000000000,0.000000000,0.057600000,0.000000000,0.000000000,0.237792000,0.000000000,0.000000000,-0.050624000,0.000000000,0.000000000,1720622004.036053419,,,,,,,,,,,
1720622004.056546,0.034892000,0.000000000,0.000000000,-1.213289000,0.000000000,0.000000000,0.980408000,0.000000000,0.000000000,0.057600000,0.000000000,0.000000000,0.237536000,0.000000000,0.000000000,-0.050880000,0.000000000,0.000000000,1720622004.045053482,,,,,,,,,,,
1720622004.057326,0.034892000,0.000000000,0.000000000,-1.213289000,0.000000000,0.000000000,0.980408000,0.000000000,0.000000000,0.057600000,0.000000000,0.000000000,0.237536000,0.000000000,0.000000000,-0.050880000,0.000000000,0.000000000,1720622004.046053410,,,,,,,,,,,
1720622004.059129,0.035178000,0.000000000,0.000000000,-1.167474000,0.000000000,0.000000000,0.980408000,0.000000000,0.000000000,0.057600000,0.000000000,0.000000000,0.238400000,0.000000000,0.000000000,-0.048224000,0.000000000,0.000000000,1720622004.048053265,,,,,,,,,,,
1720622004.068313,0.035178000,0.000000000,0.000000000,-1.188495000,0.000000000,0.000000000,0.980408000,0.000000000,0.000000000,0.057600000,0.000000000,0.000000000,0.237856000,0.000000000,0.000000000,-0.048768000,0.000000000,0.000000000,1720622004.057053328,,,,,,,,,,,
1720622004.068896,0.035178000,0.000000000,0.000000000,-1.188495000,0.000000000,0.000000000,0.980408000,0.000000000,0.000000000,0.057600000,0.000000000,0.000000000,0.237856000,0.000000000,0.000000000,-0.048768000,0.000000000,0.000000000,1720622004.058053493,,,,,,,,,,,
1720622004.072092,0.035178000,0.000000000,0.000000000,-1.185261000,0.000000000,0.000000000,0.980408000,0.000000000,0.000000000,0.057600000,0.000000000,0.000000000,0.237856000,0.000000000,0.000000000,-0.051232000,0.000000000,0.000000000,1720622004.061053276,,,,,,,,,,,
1720622004.080369,0.035178000,0.000000000,0.000000000,-1.183105000,0.000000000,0.000000000,0.980408000,0.000000000,0.000000000,0.057600000,0.000000000,0.000000000,0.238464000,0.000000000,0.000000000,-0.050624000,0.000000000,0.000000000,1720622004.069053411,,,,,,,,,,,
1720622004.081110,0.035178000,0.000000000,0.000000000,-1.183105000,0.000000000,0.000000000,0.980408000,0.000000000,0.000000000,0.057600000,0.000000000,0.000000000,0.238464000,0.000000000,0.000000000,-0.050624000,0.000000000,0.000000000,1720622004.070053339,,,,,,,,,,,
1720622004.084114,0.035178000,0.000000000,0.000000000,-1.181488000,0.000000000,0.000000000,0.980408000,0.000000000,0.000000000,0.057600000,0.000000000,0.000000000,0.237376000,0.000000000,0.000000000,-0.048960000,0.000000000,0.000000000,1720622004.073053360,,,,,,,,,,,
1720622004.086168,,,,,,,,,,,,,,,,,,,,1720622004.069053411,-1.186824000,3.141592654,0.000000015,0.829037542,-0.000000022,-0.000000054,0.559192949,1.395152983,0.001110973,1.481517837
1720622004.092463,0.035178000,0.000000000,0.000000000,-1.180410000,0.000000000,0.000000000,0.980408000,0.000000000,0.000000000,0.057600000,0.000000000,0.000000000,0.238336000,0.000000000,0.000000000,-0.048960000,0.000000000,0.000000000,1720622004.081053495,,,,,,,,,,,
1720622004.093582,0.035178000,0.000000000,0.000000000,-1.180410000,0.000000000,0.000000000,0.980408000,0.000000000,0.000000000,0.057600000,0.000000000,0.000000000,0.238336000,0.000000000,0.000000000,-0.048960000,0.000000000,0.000000000,1720622004.082053423,,,,,,,,,,,
1720622004.099188,0.035178000,0.000000000,0.000000000,-1.180410000,0.000000000,0.000000000,0.980408000,0.000000000,0.000000000,0.057536000,0.000000000,0.000000000,0.237472000,0.000000000,0.000000000,-0.049312000,0.000000000,0.000000000,1720622004.088053465,,,,,,,,,,,
1720622004.107965,0.035178000,0.000000000,0.000000000,-1.190112000,0.000000000,0.000000000,0.980408000,0.000000000,0.000000000,0.057536000,0.000000000,0.000000000,0.237600000,0.000000000,0.000000000,-0.049216000,0.000000000,0.000000000,1720622004.097053289,,,,,,,,,,,
1720622004.116397,0.035178000,0.000000000,0.000000000,-1.187417000,0.000000000,0.000000000,0.980408000,0.000000000,0.000000000,0.057536000,0.000000000,0.000000000,0.238176000,0.000000000,0.000000000,-0.048704000,0.000000000,0.000000000,1720622004.105053425,,,,,,,,,,,
1720622004.117158,0.035178000,0.000000000,0.000000000,-1.187417000,0.000000000,0.000000000,0.980408000,0.000000000,0.000000000,0.057536000,0.000000000,0.000000000,0.238176000,0.000000000,0.000000000,-0.048704000,0.000000000,0.000000000,1720622004.106053352,,,,,,,,,,,
1720622004.119099,0.035178000,0.000000000,0.000000000,-1.156155000,0.000000000,0.000000000,0.980408000,0.000000000,0.000000000,0.057536000,0.000000000,0.000000000,0.237984000,0.000000000,0.000000000,-0.050432000,0.000000000,0.000000000,1720622004.108053446,,,,,,,,,,,
1720622004.123847,0.035178000,0.000000000,0.000000000,-1.187417000,0.000000000,0.000000000,0.980408000,0.000000000,0.000000000,0.057536000,0.000000000,0.000000000,0.237856000,0.000000000,0.000000000,-0.049376000,0.000000000,0.000000000,1720622004.112053394,,,,,,,,,,,
1720622004.131007,0.035178000,0.000000000,0.000000000,-1.184183000,0.000000000,0.000000000,0.980408000,0.000000000,0.000000000,0.057600000,0.000000000,0.000000000,0.237600000,0.000000000,0.000000000,-0.049696000,0.000000000,0.000000000,1720622004.119053364,,,,,,,,,,,
1720622004.131023,0.035178000,0.000000000,0.000000000,-1.184183000,0.000000000,0.000000000,0.980408000,0.000000000,0.000000000,0.057600000,0.000000000,0.000000000,0.237600000,0.000000000,0.000000000,-0.049696000,0.000000000,0.000000000,1720622004.120053291,,,,,,,,,,,
1720622004.135379,0.035178000,0.000000000,0.000000000,-1.184183000,0.000000000,0.000000000,0.980408000,0.000000000,0.000000000,0.057600000,0.000000000,0.000000000,0.237792000,0.000000000,0.000000000,-0.049760000,0.000000000,0.000000000,1720622004.124053478,,,,,,,,,,,
1720622004.136022,,,,,,,,,,,,,,,,,,,,1720622004.119053364,-1.186824000,3.141592654,0.000000015,0.829037542,-0.000000022,-0.000000054,0.559192949,1.395152983,0.001110973,1.481517837
1720622004.144156,0.035178000,0.000000000,0.000000000,-1.160467000,0.000000000,0.000000000,0.980408000,0.000000000,0.000000000,0.057600000,0.000000000,0.000000000,0.237792000,0.000000000,0.000000000,-0.049088000,0.000000000,0.000000000,1720622004.133053303,,,,,,,,,,,
1720622004.154942,0.035178000,0.000000000,0.000000000,-1.171786000,0.000000000,0.000000000,0.980408000,0.000000000,0.000000000,0.057600000,0.000000000,0.000000000,0.238592000,0.000000000,0.000000000,-0.050368000,0.000000000,0.000000000,1720622004.143053293,,,,,,,,,,,
1720622004.164413,0.035178000,0.000000000,0.000000000,-1.179871000,0.000000000,0.000000000,0.980408000,0.000000000,0.000000000,0.057600000,0.000000000,0.000000000,0.236992000,0.000000000,0.000000000,-0.049440000,0.000000000,0.000000000,1720622004.153053284,,,,,,,,,,,
1720622004.176366,0.035178000,0.000000000,0.000000000,-1.179871000,0.000000000,0.000000000,0.980408000,0.000000000,0.000000000,0.057600000,0.000000000,0.000000000,0.237664000,0.000000000,0.000000000,-0.049696000,0.000000000,0.000000000,1720622004.165053368,,,,,,,,,,,
1720622004.183886,0.035178000,0.000000000,0.000000000,-1.198197000,0.000000000,0.000000000,0.980408000,0.000000000,0.000000000,0.057600000,0.000000000,0.000000000,0.238048000,0.000000000,0.000000000,-0.050240000,0.000000000,0.000000000,1720622004.172053337,,,,,,,,,,,
1720622004.185864,0.035178000,0.000000000,0.000000000,-1.198197000,0.000000000,0.000000000,0.980408000,0.000000000,0.000000000,0.057600000,0.000000000,0.000000000,0.238048000,0.000000000,0.000000000,-0.050240000,0.000000000,0.000000000,1720622004.174053431,,,,,,,,,,,
1720622004.186118,,,,,,,,,,,,,,,,,,,,1720622004.172053337,-1.186824000,3.141592654,0.000000015,0.829037542,-0.000000022,-0.000000054,0.559192949,1.395152983,0.001110973,1.481517837
1720622004.189296,0.035178000,0.000000000,0.000000000,-1.185800000,0.000000000,0.000000000,0.980408000,0.000000000,0.000000000,0.057600000,0.000000000,0.000000000,0.238112000,0.000000000,0.000000000,-0.048448000,0.000000000,0.000000000,1720622004.178053379,,,,,,,,,,,
1720622004.197622,0.035178000,0.000000000,0.000000000,-1.181488000,0.000000000,0.000000000,0.980408000,0.000000000,0.000000000,0.057600000,0.000000000,0.000000000,0.238400000,0.000000000,0.000000000,-0.048960000,0.000000000,0.000000000,1720622004.186053276,,,,,,,,,,,
1720622004.203253,0.035178000,0.000000000,0.000000000,-1.183105000,0.000000000,0.000000000,0.980408000,0.000000000,0.000000000,0.057600000,0.000000000,0.000000000,0.237856000,0.000000000,0.000000000,-0.048448000,0.000000000,0.000000000,1720622004.192053318,,,,,,,,,,,
1720622004.209654,0.035178000,0.000000000,0.000000000,-1.183105000,0.000000000,0.000000000,0.980408000,0.000000000,0.000000000,0.057600000,0.000000000,0.000000000,0.238528000,0.000000000,0.000000000,-0.050688000,0.000000000,0.000000000,1720622004.198053360,,,,,,,,,,,
1720622004.211600,0.035178000,0.000000000,0.000000000,-1.182566000,0.000000000,0.000000000,0.980408000,0.000000000,0.000000000,0.057600000,0.000000000,0.000000000,0.237600000,0.000000000,0.000000000,-0.048896000,0.000000000,0.000000000,1720622004.200053453,,,,,,,,,,,
1720622004.215944,0.035178000,0.000000000,0.000000000,-1.182566000,0.000000000,0.000000000,0.980408000,0.000000000,0.000000000,0.057600000,0.000000000,0.000000000,0.237984000,0.000000000,0.000000000,-0.050080000,0.000000000,0.000000000,1720622004.204053402,,,,,,,,,,,
1720622004.223511,0.035178000,0.000000000,0.000000000,-1.182566000,0.000000000,0.000000000,0.980408000,0.000000000,0.000000000,0.057600000,0.000000000,0.000000000,0.237856000,0.000000000,0.000000000,-0.049888000,0.000000000,0.000000000,1720622004.212053299,,,,,,,,,,,
1720622004.228195,0.035178000,0.000000000,0.000000000,-1.182566000,0.000000000,0.000000000,0.980408000,0.000000000,0.000000000,0.057600000,0.000000000,0.000000000,0.238528000,0.000000000,0.000000000,-0.049760000,0.000000000,0.000000000,1720622004.217053413,,,,,,,,,,,
1720622004.235901,0.035178000,0.000000000,0.000000000,-1.183105000,0.000000000,0.000000000,0.980408000,0.000000000,0.000000000,0.057600000,0.000000000,0.000000000,0.237664000,0.000000000,0.000000000,-0.049824000,0.000000000,0.000000000,1720622004.224053383,,,,,,,,,,,
1720622004.240660,0.035178000,0.000000000,0.000000000,-1.183105000,0.000000000,0.000000000,0.980408000,0.000000000,0.000000000,0.057600000,0.000000000,0.000000000,0.238048000,0.000000000,0.000000000,-0.049760000,0.000000000,0.000000000,1720622004.229053259,,,,,,,,,,,
1720622004.246390,,,,,,,,,,,,,,,,,,,,1720622004.224053383,-1.186824000,3.141592654,0.000000015,0.829037542,-0.000000022,-0.000000054,0.559192949,1.395152983,0.001110973,1.481517837
1720622004.249253,0.035178000,0.000000000,0.000000000,-1.181488000,0.000000000,0.000000000,0.980408000,0.000000000,0.000000000,0.057600000,0.000000000,0.000000000,0.237856000,0.000000000,0.000000000,-0.049696000,0.000000000,0.000000000,1720622004.237053394,,,,,,,,,,,
1720622004.252573,0.035178000,0.000000000,0.000000000,-1.181488000,0.000000000,0.000000000,0.980408000,0.000000000,0.000000000,0.057600000,0.000000000,0.000000000,0.238336000,0.000000000,0.000000000,-0.050016000,0.000000000,0.000000000,1720622004.241053343,,,,,,,,,,,
1720622004.260596,0.035178000,0.000000000,0.000000000,-1.181488000,0.000000000,0.000000000,0.980408000,0.000000000,0.000000000,0.057536000,0.000000000,0.000000000,0.237984000,0.000000000,0.000000000,-0.050016000,0.000000000,0.000000000,1720622004.249053478,,,,,,,,,,,
1720622004.264322,0.035178000,0.000000000,0.000000000,-1.181488000,0.000000000,0.000000000,0.980408000,0.000000000,0.000000000,0.057536000,0.000000000,0.000000000,0.237856000,0.000000000,0.000000000,-0.049376000,0.000000000,0.000000000,1720622004.253053427,,,,,,,,,,,
1720622004.280370,0.035178000,0.000000000,0.000000000,-1.188495000,0.000000000,0.000000000,0.980408000,0.000000000,0.000000000,0.057536000,0.000000000,0.000000000,0.238400000,0.000000000,0.000000000,-0.049632000,0.000000000,0.000000000,1720622004.274237633,,,,,,,,,,,
1720622004.281446,0.035178000,0.000000000,0.000000000,-1.184183000,0.000000000,0.000000000,0.980408000,0.000000000,0.000000000,0.057536000,0.000000000,0.000000000,0.237856000,0.000000000,0.000000000,-0.050304000,0.000000000,0.000000000,1720622004.280237675,,,,,,,,,,,
1720622004.283369,0.035178000,0.000000000,0.000000000,-1.184183000,0.000000000,0.000000000,0.980408000,0.000000000,0.000000000,0.057536000,0.000000000,0.000000000,0.238048000,0.000000000,0.000000000,-0.049088000,0.000000000,0.000000000,1720622004.282237768,,,,,,,,,,,
1720622004.286137,,,,,,,,,,,,,,,,,,,,1720622004.274237633,-1.186824000,3.141592654,0.000000015,0.829037542,-0.000000022,-0.000000054,0.559192949,1.395152983,0.001110973,1.481517837
1720622004.287379,0.035178000,0.000000000,0.000000000,-1.184183000,0.000000000,0.000000000,0.980408000,0.000000000,0.000000000,0.057536000,0.000000000,0.000000000,0.238176000,0.000000000,0.000000000,-0.050368000,0.000000000,0.000000000,1720622004.286237717,,,,,,,,,,,
1720622004.296270,0.035178000,0.000000000,0.000000000,-1.184183000,0.000000000,0.000000000,0.980408000,0.000000000,0.000000000,0.057600000,0.000000000,0.000000000,0.238176000,0.000000000,0.000000000,-0.051008000,0.000000000,0.000000000,1720622004.294237852,,,,,,,,,,,
1720622004.300580,0.035178000,0.000000000,0.000000000,-1.184183000,0.000000000,0.000000000,0.980408000,0.000000000,0.000000000,0.057600000,0.000000000,0.000000000,0.238240000,0.000000000,0.000000000,-0.049024000,0.000000000,0.000000000,1720622004.299237728,,,,,,,,,,,
1720622004.307786,0.035178000,0.000000000,0.000000000,-1.184183000,0.000000000,0.000000000,0.980408000,0.000000000,0.000000000,0.057600000,0.000000000,0.000000000,0.238336000,0.000000000,0.000000000,-0.050080000,0.000000000,0.000000000,1720622004.306237698,,,,,,,,,,,
1720622004.309277,0.035178000,0.000000000,0.000000000,-1.184183000,0.000000000,0.000000000,0.980408000,0.000000000,0.000000000,0.057600000,0.000000000,0.000000000,0.238336000,0.000000000,0.000000000,-0.050080000,0.000000000,0.000000000,1720622004.307237864,,,,,,,,,,,
1720622004.312646,0.035178000,0.000000000,0.000000000,-1.184183000,0.000000000,0.000000000,0.980408000,0.000000000,0.000000000,0.057536000,0.000000000,0.000000000,0.238336000,0.000000000,0.000000000,-0.048768000,0.000000000,0.000000000,1720622004.311237812,,,,,,,,,,,
1720622004.319830,0.035178000,0.000000000,0.000000000,-1.180410000,0.000000000,0.000000000,0.980408000,0.000000000,0.000000000,0.057600000,0.000000000,0.000000000,0.238336000,0.000000000,0.000000000,-0.049440000,0.000000000,0.000000000,1720622004.318237782,,,,,,,,,,,
1720622004.320462,0.035178000,0.000000000,0.000000000,-1.180410000,0.000000000,0.000000000,0.980408000,0.000000000,0.000000000,0.057600000,0.000000000,0.000000000,0.238336000,0.000000000,0.000000000,-0.049440000,0.000000000,0.000000000,1720622004.319237709,,,,,,,,,,,
1720622004.324533,0.035178000,0.000000000,0.000000000,-1.180410000,0.000000000,0.000000000,0.980408000,0.000000000,0.000000000,0.057600000,0.000000000,0.000000000,0.237792000,0.000000000,0.000000000,-0.049760000,0.000000000,0.000000000,1720622004.323237658,,,,,,,,,,,
1720622004.331734,0.035178000,0.000000000,0.000000000,-1.180410000,0.000000000,0.000000000,0.980408000,0.000000000,0.000000000,0.057600000,0.000000000,0.000000000,0.237376000,0.000000000,0.000000000,-0.050176000,0.000000000,0.000000000,1720622004.330237627,,,,,,,,,,,
1720622004.332793,0.035178000,0.000000000,0.000000000,-1.180410000,0.000000000,0.000000000,0.980408000,0.000000000,0.000000000,0.057600000,0.000000000,0.000000000,0.237376000,0.000000000,0.000000000,-0.050176000,0.000000000,0.000000000,1720622004.331237793,,,,,,,,,,,
1720622004.336232,,,,,,,,,,,,,,,,,,,,1720622004.330237627,-1.186824000,3.141592654,0.000000015,0.829037542,-0.000000022,-0.000000054,0.559192949,1.395152983,0.001110973,1.481517837
1720622004.336747,0.035178000,0.000000000,0.000000000,-1.180410000,0.000000000,0.000000000,0.980408000,0.000000000,0.000000000,0.057600000,0.000000000,0.000000000,0.238528000,0.000000000,0.000000000,-0.049760000,0.000000000,0.000000000,1720622004.335237741,,,,,,,,,,,
1720622004.344029,0.035178000,0.000000000,0.000000000,-1.186878000,0.000000000,0.000000000,0.980408000,0.000000000,0.000000000,0.057600000,0.000000000,0.000000000,0.237984000,0.000000000,0.000000000,-0.050304000,0.000000000,0.000000000,1720622004.342237711,,,,,,,,,,,
1720622004.344657,0.035178000,0.000000000,0.000000000,-1.186878000,0.000000000,0.000000000,0.980408000,0.000000000,0.000000000,0.057600000,0.000000000,0.000000000,0.237984000,0.000000000,0.000000000,-0.050304000,0.000000000,0.000000000,1720622004.343237638,,,,,,,,,,,
1720622004.349729,0.035178000,0.000000000,0.000000000,-1.156694000,0.000000000,0.000000000,0.980408000,0.000000000,0.000000000,0.057600000,0.000000000,0.000000000,0.238400000,0.000000000,0.000000000,-0.049376000,0.000000000,0.000000000,1720622004.348237753,,,,,,,,,,,
1720622004.356865,0.035178000,0.000000000,0.000000000,-1.185261000,0.000000000,0.000000000,0.980408000,0.000000000,0.000000000,0.057600000,0.000000000,0.000000000,0.237792000,0.000000000,0.000000000,-0.049824000,0.000000000,0.000000000,1720622004.355237722,,,,,,,,,,,
1720622004.357707,0.035178000,0.000000000,0.000000000,-1.185261000,0.000000000,0.000000000,0.980408000,0.000000000,0.000000000,0.057600000,0.000000000,0.000000000,0.237792000,0.000000000,0.000000000,-0.049824000,0.000000000,0.000000000,1720622004.356237650,,,,,,,,,,,
1720622004.361584,0.035178000,0.000000000,0.000000000,-1.185261000,0.000000000,0.000000000,0.980408000,0.000000000,0.000000000,0.057600000,0.000000000,0.000000000,0.237792000,0.000000000,0.000000000,-0.049440000,0.000000000,0.000000000,1720622004.360237837,,,,,,,,,,,
1720622004.369455,0.035178000,0.000000000,0.000000000,-1.184183000,0.000000000,0.000000000,0.980408000,0.000000000,0.000000000,0.057536000,0.000000000,0.000000000,0.238400000,0.000000000,0.000000000,-0.049824000,0.000000000,0.000000000,1720622004.367237806,,,,,,,,,,,
1720622004.369954,0.035178000,0.000000000,0.000000000,-1.184183000,0.000000000,0.000000000,0.980408000,0.000000000,0.000000000,0.057536000,0.000000000,0.000000000,0.238400000,0.000000000,0.000000000,-0.049824000,0.000000000,0.000000000,1720622004.368237734,,,,,,,,,,,
1720622004.380752,0.034320000,0.000000000,0.000000000,-1.209516000,0.000000000,0.000000000,0.980408000,0.000000000,0.000000000,0.057600000,0.000000000,0.000000000,0.238336000,0.000000000,0.000000000,-0.050240000,0.000000000,0.000000000,1720622004.374237776,,,,,,,,,,,
1720622004.381930,0.034320000,0.000000000,0.000000000,-1.183105000,0.000000000,0.000000000,0.980408000,0.000000000,0.000000000,0.057600000,0.000000000,0.000000000,0.238336000,0.000000000,0.000000000,-0.048960000,0.000000000,0.000000000,1720622004.380237818,,,,,,,,,,,
1720622004.386346,,,,,,,,,,,,,,,,,,,,1720622004.380237818,-1.186824000,3.141592654,0.000000015,0.829037542,-0.000000022,-0.000000054,0.559192949,1.395152983,0.001110973,1.481517837
1720622004.392011,0.034320000,0.000000000,0.000000000,-1.177715000,0.000000000,0.000000000,0.980408000,0.000000000,0.000000000,0.057536000,0.000000000,0.000000000,0.237984000,0.000000000,0.000000000,-0.050304000,0.000000000,0.000000000,1720622004.390237808,,,,,,,,,,,
1720622004.393022,0.034320000,0.000000000,0.000000000,-1.177715000,0.000000000,0.000000000,0.980408000,0.000000000,0.000000000,0.057536000,0.000000000,0.000000000,0.237984000,0.000000000,0.000000000,-0.050304000,0.000000000,0.000000000,1720622004.391237736,,,,,,,,,,,
1720622004.393951,0.034320000,0.000000000,0.000000000,-1.177715000,0.000000000,0.000000000,0.980408000,0.000000000,0.000000000,0.057536000,0.000000000,0.000000000,0.237984000,0.000000000,0.000000000,-0.050304000,0.000000000,0.000000000,1720622004.392237663,,,,,,,,,,,
1720622004.396365,0.034892000,0.000000000,0.000000000,-1.178793000,0.000000000,0.000000000,0.980408000,0.000000000,0.000000000,0.057536000,0.000000000,0.000000000,0.237984000,0.000000000,0.000000000,-0.049152000,0.000000000,0.000000000,1720622004.394237757,,,,,,,,,,,
1720622004.400622,0.034892000,0.000000000,0.000000000,-1.178793000,0.000000000,0.000000000,0.980408000,0.000000000,0.000000000,0.057536000,0.000000000,0.000000000,0.238592000,0.000000000,0.000000000,-0.049824000,0.000000000,0.000000000,1720622004.399237633,,,,,,,,,,,
1720622004.408328,0.035178000,0.000000000,0.000000000,-1.181488000,0.000000000,0.000000000,0.980408000,0.000000000,0.000000000,0.057536000,0.000000000,0.000000000,0.238336000,0.000000000,0.000000000,-0.049888000,0.000000000,0.000000000,1720622004.406237841,,,,,,,,,,,
1720622004.409740,0.035178000,0.000000000,0.000000000,-1.181488000,0.000000000,0.000000000,0.980408000,0.000000000,0.000000000,0.057536000,0.000000000,0.000000000,0.238336000,0.000000000,0.000000000,-0.049888000,0.000000000,0.000000000,1720622004.407237768,,,,,,,,,,,
1720622004.412818,0.035178000,0.000000000,0.000000000,-1.182566000,0.000000000,0.000000000,0.980408000,0.000000000,0.000000000,0.057536000,0.000000000,0.000000000,0.238400000,0.000000000,0.000000000,-0.050240000,0.000000000,0.000000000,1720622004.411237717,,,,,,,,,,,
1720622004.420166,0.035178000,0.000000000,0.000000000,-1.161006000,0.000000000,0.000000000,0.980408000,0.000000000,0.000000000,0.057536000,0.000000000,0.000000000,0.237856000,0.000000000,0.000000000,-0.050496000,0.000000000,0.000000000,1720622004.418237686,,,,,,,,,,,
1720622004.420816,0.035178000,0.000000000,0.000000000,-1.161006000,0.000000000,0.000000000,0.980408000,0.000000000,0.000000000,0.057536000,0.000000000,0.000000000,0.237856000,0.000000000,0.000000000,-0.050496000,0.000000000,0.000000000,1720622004.419237852,,,,,,,,,,,
1720622004.424726,0.035178000,0.000000000,0.000000000,-1.186878000,0.000000000,0.000000000,0.980408000,0.000000000,0.000000000,0.057536000,0.000000000,0.000000000,0.237472000,0.000000000,0.000000000,-0.049024000,0.000000000,0.000000000,1720622004.423237801,,,,,,,,,,,
1720622004.432289,0.034892000,0.000000000,0.000000000,-1.186878000,0.000000000,0.000000000,0.980408000,0.000000000,0.000000000,0.057536000,0.000000000,0.000000000,0.238400000,0.000000000,0.000000000,-0.049504000,0.000000000,0.000000000,1720622004.430237770,,,,,,,,,,,
1720622004.433204,0.034892000,0.000000000,0.000000000,-1.186878000,0.000000000,0.000000000,0.980408000,0.000000000,0.000000000,0.057536000,0.000000000,0.000000000,0.238400000,0.000000000,0.000000000,-0.049504000,0.000000000,0.000000000,1720622004.431237698,,,,,,,,,,,
1720622004.436286,,,,,,,,,,,,,,,,,,,,1720622004.430237770,-1.186824000,3.141592654,0.000000015,0.829037542,-0.000000022,-0.000000054,0.559192949,1.395152983,0.001110973,1.481517837
1720622004.436978,0.034892000,0.000000000,0.000000000,-1.166396000,0.000000000,0.000000000,0.980408000,0.000000000,0.000000000,0.057536000,0.000000000,0.000000000,0.238112000,0.000000000,0.000000000,-0.049504000,0.000000000,0.000000000,1720622004.435237646,,,,,,,,,,,
1720622004.443983,0.035178000,0.000000000,0.000000000,-1.219218000,0.000000000,0.000000000,0.980408000,0.000000000,0.000000000,0.057184000,0.000000000,0.000000000,0.237920000,0.000000000,0.000000000,-0.049696000,0.000000000,0.000000000,1720622004.442237854,,,,,,,,,,,
1720622004.444991,0.035178000,0.000000000,0.000000000,-1.219218000,0.000000000,0.000000000,0.980408000,0.000000000,0.000000000,0.057184000,0.000000000,0.000000000,0.237920000,0.000000000,0.000000000,-0.049696000,0.000000000,0.000000000,1720622004.443237782,,,,,,,,,,,
1720622004.449303,0.035178000,0.000000000,0.000000000,-1.177715000,0.000000000,0.000000000,0.980408000,0.000000000,0.000000000,0.057600000,0.000000000,0.000000000,0.237984000,0.000000000,0.000000000,-0.049824000,0.000000000,0.000000000,1720622004.447237730,,,,,,,,,,,
1720622004.456156,0.035178000,0.000000000,0.000000000,-1.153999000,0.000000000,0.000000000,0.980408000,0.000000000,0.000000000,0.057600000,0.000000000,0.000000000,0.237920000,0.000000000,0.000000000,-0.050560000,0.000000000,0.000000000,1720622004.454237700,,,,,,,,,,,
1720622004.457396,0.035178000,0.000000000,0.000000000,-1.153999000,0.000000000,0.000000000,0.980408000,0.000000000,0.000000000,0.057600000,0.000000000,0.000000000,0.237920000,0.000000000,0.000000000,-0.050560000,0.000000000,0.000000000,1720622004.455237627,,,,,,,,,,,
1720622004.460551,0.035178000,0.000000000,0.000000000,-1.171786000,0.000000000,0.000000000,0.980408000,0.000000000,0.000000000,0.057536000,0.000000000,0.000000000,0.237920000,0.000000000,0.000000000,-0.049024000,0.000000000,0.000000000,1720622004.459237814,,,,,,,,,,,
1720622004.468379,0.035178000,0.000000000,0.000000000,-1.177715000,0.000000000,0.000000000,0.980408000,0.000000000,0.000000000,0.057536000,0.000000000,0.000000000,0.237120000,0.000000000,0.000000000,-0.050016000,0.000000000,0.000000000,1720622004.466237783,,,,,,,,,,,
1720622004.468951,0.035178000,0.000000000,0.000000000,-1.177715000,0.000000000,0.000000000,0.980408000,0.000000000,0.000000000,0.057536000,0.000000000,0.000000000,0.237120000,0.000000000,0.000000000,-0.050016000,0.000000000,0.000000000,1720622004.467237711,,,,,,,,,,,
1720622004.472660,0.035178000,0.000000000,0.000000000,-1.178793000,0.000000000,0.000000000,0.980408000,0.000000000,0.000000000,0.057600000,0.000000000,0.000000000,0.237856000,0.000000000,0.000000000,-0.049504000,0.000000000,0.000000000,1720622004.471237659,,,,,,,,,,,
1720622004.480412,0.035178000,0.000000000,0.000000000,-1.179871000,0.000000000,0.000000000,0.980408000,0.000000000,0.000000000,0.057600000,0.000000000,0.000000000,0.238112000,0.000000000,0.000000000,-0.049952000,0.000000000,0.000000000,1720622004.478237629,,,,,,,,,,,
1720622004.480667,0.035178000,0.000000000,0.000000000,-1.179871000,0.000000000,0.000000000,0.980408000,0.000000000,0.000000000,0.057600000,0.000000000,0.000000000,0.238112000,0.000000000,0.000000000,-0.049952000,0.000000000,0.000000000,1720622004.479237795,,,,,,,,,,,
1720622004.484747,0.035178000,0.000000000,0.000000000,-1.175559000,0.000000000,0.000000000,0.980408000,0.000000000,0.000000000,0.057600000,0.000000000,0.000000000,0.237536000,0.000000000,0.000000000,-0.049760000,0.000000000,0.000000000,1720622004.483237743,,,,,,,,,,,
1720622004.486152,,,,,,,,,,,,,,,,,,,,1720622004.483237743,-1.186824000,3.141592654,0.000000015,0.829037542,-0.000000022,-0.000000054,0.559192949,1.395152983,0.001110973,1.481517837
1720622004.492055,0.033176000,0.000000000,0.000000000,-1.156155000,0.000000000,0.000000000,0.980408000,0.000000000,0.000000000,0.057600000,0.000000000,0.000000000,0.237376000,0.000000000,0.000000000,-0.050432000,0.000000000,0.000000000,1720622004.490237713,,,,,,,,,,,
1720622004.493078,0.033176000,0.000000000,0.000000000,-1.156155000,0.000000000,0.000000000,0.980408000,0.000000000,0.000000000,0.057600000,0.000000000,0.000000000,0.237376000,0.000000000,0.000000000,-0.050432000,0.000000000,0.000000000,1720622004.491237640,,,,,,,,,,,
1720622004.497159,0.034320000,0.000000000,0.000000000,-1.177715000,0.000000000,0.000000000,0.980408000,0.000000000,0.000000000,0.057536000,0.000000000,0.000000000,0.238176000,0.000000000,0.000000000,-0.048704000,0.000000000,0.000000000,1720622004.495237827,,,,,,,,,,,
1720622004.504288,0.034892000,0.000000000,0.000000000,-1.182566000,0.000000000,0.000000000,0.980408000,0.000000000,0.000000000,0.057536000,0.000000000,0.000000000,0.238336000,0.000000000,0.000000000,-0.048512000,0.000000000,0.000000000,1720622004.502237797,,,,,,,,,,,
1720622004.505068,0.034892000,0.000000000,0.000000000,-1.182566000,0.000000000,0.000000000,0.980408000,0.000000000,0.000000000,0.057536000,0.000000000,0.000000000,0.238336000,0.000000000,0.000000000,-0.048512000,0.000000000,0.000000000,1720622004.503237724,,,,,,,,,,,
1720622004.509398,0.034892000,0.000000000,0.000000000,-1.182566000,0.000000000,0.000000000,0.980408000,0.000000000,0.000000000,0.057536000,0.000000000,0.000000000,0.237600000,0.000000000,0.000000000,-0.050240000,0.000000000,0.000000000,1720622004.507237673,,,,,,,,,,,
1720622004.516190,0.035178000,0.000000000,0.000000000,-1.183105000,0.000000000,0.000000000,0.980408000,0.000000000,0.000000000,0.057536000,0.000000000,0.000000000,0.237984000,0.000000000,0.000000000,-0.050304000,0.000000000,0.000000000,1720622004.514237642,,,,,,,,,,,
1720622004.517088,0.035178000,0.000000000,0.000000000,-1.183105000,0.000000000,0.000000000,0.980408000,0.000000000,0.000000000,0.057536000,0.000000000,0.000000000,0.237984000,0.000000000,0.000000000,-0.050304000,0.000000000,0.000000000,1720622004.515237808,,,,,,,,,,,
1720622004.522894,0.034892000,0.000000000,0.000000000,-1.182566000,0.000000000,0.000000000,0.980408000,0.000000000,0.000000000,0.057536000,0.000000000,0.000000000,0.237792000,0.000000000,0.000000000,-0.050176000,0.000000000,0.000000000,1720622004.521237850,,,,,,,,,,,
1720622004.529544,0.034892000,0.000000000,0.000000000,-1.178793000,0.000000000,0.000000000,0.980408000,0.000000000,0.000000000,0.057536000,0.000000000,0.000000000,0.238592000,0.000000000,0.000000000,-0.049760000,0.000000000,0.000000000,1720622004.527237654,,,,,,,,,,,
1720622004.531080,0.034892000,0.000000000,0.000000000,-1.180410000,0.000000000,0.000000000,0.980408000,0.000000000,0.000000000,0.057536000,0.000000000,0.000000000,0.237536000,0.000000000,0.000000000,-0.049568000,0.000000000,0.000000000,1720622004.529237747,,,,,,,,,,,
1720622004.535115,0.034892000,0.000000000,0.000000000,-1.177176000,0.000000000,0.000000000,0.980408000,0.000000000,0.000000000,0.057536000,0.000000000,0.000000000,0.237600000,0.000000000,0.000000000,-0.049568000,0.000000000,0.000000000,1720622004.533237696,,,,,,,,,,,
1720622004.536175,,,,,,,,,,,,,,,,,,,,1720622004.533237696,-1.186824000,3.141592654,0.000000015,0.829037542,-0.000000022,-0.000000054,0.559192949,1.395152983,0.001110973,1.481517837
1720622004.543114,0.034892000,0.000000000,0.000000000,-1.178793000,0.000000000,0.000000000,0.980408000,0.000000000,0.000000000,0.057536000,0.000000000,0.000000000,0.237728000,0.000000000,0.000000000,-0.048960000,0.000000000,0.000000000,1720622004.541237831,,,,,,,,,,,
1720622004.555985,0.034892000,0.000000000,0.000000000,-1.179871000,0.000000000,0.000000000,0.980408000,0.000000000,0.000000000,0.057184000,0.000000000,0.000000000,0.237472000,0.000000000,0.000000000,-0.049504000,0.000000000,0.000000000,1720622004.552237749,,,,,,,,,,,
1720622004.563036,0.034892000,0.000000000,0.000000000,-1.182566000,0.000000000,0.000000000,0.980408000,0.000000000,0.000000000,0.057536000,0.000000000,0.000000000,0.237984000,0.000000000,0.000000000,-0.049376000,0.000000000,0.000000000,1720622004.561237812,,,,,,,,,,,
1720622004.572531,0.034892000,0.000000000,0.000000000,-1.183105000,0.000000000,0.000000000,0.980408000,0.000000000,0.000000000,0.057536000,0.000000000,0.000000000,0.238464000,0.000000000,0.000000000,-0.049312000,0.000000000,0.000000000,1720622004.570237637,,,,,,,,,,,
1720622004.573011,0.034892000,0.000000000,0.000000000,-1.183105000,0.000000000,0.000000000,0.980408000,0.000000000,0.000000000,0.057536000,0.000000000,0.000000000,0.238464000,0.000000000,0.000000000,-0.049312000,0.000000000,0.000000000,1720622004.571237803,,,,,,,,,,,
1720622004.574859,0.034892000,0.000000000,0.000000000,-1.184183000,0.000000000,0.000000000,0.980408000,0.000000000,0.000000000,0.057536000,0.000000000,0.000000000,0.237536000,0.000000000,0.000000000,-0.049696000,0.000000000,0.000000000,1720622004.573237658,,,,,,,,,,,
1720622004.584480,0.034320000,0.000000000,0.000000000,-1.184183000,0.000000000,0.000000000,0.980408000,0.000000000,0.000000000,0.057536000,0.000000000,0.000000000,0.238528000,0.000000000,0.000000000,-0.050432000,0.000000000,0.000000000,1720622004.582237720,,,,,,,,,,,
1720622004.584942,0.034320000,0.000000000,0.000000000,-1.184183000,0.000000000,0.000000000,0.980408000,0.000000000,0.000000000,0.057536000,0.000000000,0.000000000,0.238528000,0.000000000,0.000000000,-0.050432000,0.000000000,0.000000000,1720622004.583237648,,,,,,,,,,,
1720622004.586127,,,,,,,,,,,,,,,,,,,,1720622004.583237648,-1.186824000,3.141592654,0.000000015,0.829037542,-0.000000022,-0.000000054,0.559192949,1.395152983,0.001110973,1.481517837
1720622004.588359,0.034892000,0.000000000,0.000000000,-1.184183000,0.000000000,0.000000000,0.980408000,0.000000000,0.000000000,0.057536000,0.000000000,0.000000000,0.237248000,0.000000000,0.000000000,-0.048224000,0.000000000,0.000000000,1720622004.586237669,,,,,,,,,,,
1720622004.596761,0.034892000,0.000000000,0.000000000,-1.183105000,0.000000000,0.000000000,0.980408000,0.000000000,0.000000000,0.057600000,0.000000000,0.000000000,0.238336000,0.000000000,0.000000000,-0.048512000,0.000000000,0.000000000,1720622004.594237804,,,,,,,,,,,
1720622004.597689,0.034892000,0.000000000,0.000000000,-1.183105000,0.000000000,0.000000000,0.980408000,0.000000000,0.000000000,0.057600000,0.000000000,0.000000000,0.238336000,0.000000000,0.000000000,-0.048512000,0.000000000,0.000000000,1720622004.595237732,,,,,,,,,,,
1720622004.598886,0.034892000,0.000000000,0.000000000,-1.186878000,0.000000000,0.000000000,0.980408000,0.000000000,0.000000000,0.057600000,0.000000000,0.000000000,0.238528000,0.000000000,0.000000000,-0.050944000,0.000000000,0.000000000,1720622004.597237825,,,,,,,,,,,
1720622004.608626,0.034892000,0.000000000,0.000000000,-1.184183000,0.000000000,0.000000000,0.980408000,0.000000000,0.000000000,0.057600000,0.000000000,0.000000000,0.237600000,0.000000000,0.000000000,-0.050432000,0.000000000,0.000000000,1720622004.606237650,,,,,,,,,,,
1720622004.609061,0.034892000,0.000000000,0.000000000,-1.184183000,0.000000000,0.000000000,0.980408000,0.000000000,0.000000000,0.057600000,0.000000000,0.000000000,0.237600000,0.000000000,0.000000000,-0.050432000,0.000000000,0.000000000,1720622004.607237816,,,,,,,,,,,
1720622004.610888,0.034892000,0.000000000,0.000000000,-1.184183000,0.000000000,0.000000000,0.980408000,0.000000000,0.000000000,0.057600000,0.000000000,0.000000000,0.238464000,0.000000000,0.000000000,-0.049152000,0.000000000,0.000000000,1720622004.608237743,,,,,,,,,,,
1720622004.612459,0.034892000,0.000000000,0.000000000,-1.184183000,0.000000000,0.000000000,0.980408000,0.000000000,0.000000000,0.057600000,0.000000000,0.000000000,0.238464000,0.000000000,0.000000000,-0.049152000,0.000000000,0.000000000,1720622004.610237837,,,,,,,,,,,
1720622004.613733,0.034892000,0.000000000,0.000000000,-1.184183000,0.000000000,0.000000000,0.980408000,0.000000000,0.000000000,0.057600000,0.000000000,0.000000000,0.238464000,0.000000000,0.000000000,-0.049152000,0.000000000,0.000000000,1720622004.611237764,,,,,,,,,,,
1720622004.617553,0.034892000,0.000000000,0.000000000,-1.184183000,0.000000000,0.000000000,0.980408000,0.000000000,0.000000000,0.057600000,0.000000000,0.000000000,0.238400000,0.000000000,0.000000000,-0.050368000,0.000000000,0.000000000,1720622004.615237713,,,,,,,,,,,
1720622004.624610,0.034892000,0.000000000,0.000000000,-1.156155000,0.000000000,0.000000000,0.980408000,0.000000000,0.000000000,0.057600000,0.000000000,0.000000000,0.238112000,0.000000000,0.000000000,-0.050560000,0.000000000,0.000000000,1720622004.622237682,,,,,,,,,,,
1720622004.625032,0.034892000,0.000000000,0.000000000,-1.156155000,0.000000000,0.000000000,0.980408000,0.000000000,0.000000000,0.057600000,0.000000000,0.000000000,0.238112000,0.000000000,0.000000000,-0.050560000,0.000000000,0.000000000,1720622004.623237848,,,,,,,,,,,
1720622004.629299,0.034892000,0.000000000,0.000000000,-1.169091000,0.000000000,0.000000000,0.980408000,0.000000000,0.000000000,0.057600000,0.000000000,0.000000000,0.238176000,0.000000000,0.000000000,-0.048576000,0.000000000,0.000000000,1720622004.627237797,,,,,,,,,,,
1720622004.636539,0.034892000,0.000000000,0.000000000,-1.211672000,0.000000000,0.000000000,0.980408000,0.000000000,0.000000000,0.057600000,0.000000000,0.000000000,0.237920000,0.000000000,0.000000000,-0.048640000,0.000000000,0.000000000,1720622004.634237766,,,,,,,,,,,
1720622004.637465,0.034892000,0.000000000,0.000000000,-1.211672000,0.000000000,0.000000000,0.980408000,0.000000000,0.000000000,0.057600000,0.000000000,0.000000000,0.237920000,0.000000000,0.000000000,-0.048640000,0.000000000,0.000000000,1720622004.635237694,,,,,,,,,,,
1720622004.642730,0.034892000,0.000000000,0.000000000,-1.179871000,0.000000000,0.000000000,0.980408000,0.000000000,0.000000000,0.057600000,0.000000000,0.000000000,0.237792000,0.000000000,0.000000000,-0.051168000,0.000000000,0.000000000,1720622004.639237642,,,,,,,,,,,
1720622004.646113,,,,,,,,,,,,,,,,,,,,1720622004.634237766,-1.186824000,3.141592654,0.000000015,0.829037542,-0.000000022,-0.000000054,0.559192949,1.395152983,0.001110973,1.481517837
1720622004.648547,0.034892000,0.000000000,0.000000000,-1.179871000,0.000000000,0.000000000,0.980408000,0.000000000,0.000000000,0.057536000,0.000000000,0.000000000,0.237600000,0.000000000,0.000000000,-0.050016000,0.000000000,0.000000000,1720622004.646237850,,,,,,,,,,,
1720622004.649382,0.034892000,0.000000000,0.000000000,-1.179871000,0.000000000,0.000000000,0.980408000,0.000000000,0.000000000,0.057536000,0.000000000,0.000000000,0.237600000,0.000000000,0.000000000,-0.050016000,0.000000000,0.000000000,1720622004.647237778,,,,,,,,,,,
1720622004.985007,,,,,,,,,,,,,,,,,,,,1720622004.685237646,-1.186824000,3.141592654,0.000000015,0.829037542,-0.000000022,-0.000000054,0.559192949,1.395152983,0.001110973,1.481517837
1720622004.985072,,,,,,,,,,,,,,,,,,,,1720622004.738237858,-1.186824000,3.141592654,0.000000015,0.829037542,-0.000000022,-0.000000054,0.559192949,1.395152983,0.001110973,1.481517837
1720622004.985090,0.034892000,0.000000000,0.000000000,-1.180410000,0.000000000,0.000000000,0.980408000,0.000000000,0.000000000,0.057600000,0.000000000,0.000000000,0.237920000,0.000000000,0.000000000,-0.050560000,0.000000000,0.000000000,1720622004.653237820,,,,,,,,,,,
1720622004.985118,,,,,,,,,,,,,,,,,,,,1720622004.789237738,-1.186824000,3.141592654,0.000000015,0.829037542,-0.000000022,-0.000000054,0.559192949,1.395152983,0.001110973,1.481517837
1720622004.985127,0.034892000,0.000000000,0.000000000,-1.181488000,0.000000000,0.000000000,0.980408000,0.000000000,0.000000000,0.057600000,0.000000000,0.000000000,0.237984000,0.000000000,0.000000000,-0.049440000,0.000000000,0.000000000,1720622004.659237862,,,,,,,,,,,
1720622004.985161,,,,,,,,,,,,,,,,,,,,1720622004.845237732,-1.186824000,3.141592654,0.000000015,0.829037542,-0.000000022,-0.000000054,0.559192949,1.395152983,0.001110973,1.481517837
1720622004.985170,0.034892000,0.000000000,0.000000000,-1.177715000,0.000000000,0.000000000,0.980408000,0.000000000,0.000000000,0.057984000,0.000000000,0.000000000,0.238240000,0.000000000,0.000000000,-0.049696000,0.000000000,0.000000000,1720622004.661237717,,,,,,,,,,,
1720622004.985226,,,,,,,,,,,,,,,,,,,,1720622004.899237633,-1.186824000,3.141592654,0.000000015,0.829037542,-0.000000022,-0.000000054,0.559192949,1.395152983,0.001110973,1.481517837
1720622004.985261,,,,,,,,,,,,,,,,,,,,1720622004.953237772,-1.186824000,3.141592654,0.000000015,0.829037542,-0.000000022,-0.000000054,0.559192949,1.395152983,0.001110973,1.481517837
1720622004.985405,0.034892000,0.000000000,0.000000000,-1.186878000,0.000000000,0.000000000,0.980408000,0.000000000,0.000000000,0.057600000,0.000000000,0.000000000,0.237600000,0.000000000,0.000000000,-0.050016000,0.000000000,0.000000000,1720622004.665237665,,,,,,,,,,,
1720622004.985453,0.034892000,0.000000000,0.000000000,-1.185261000,0.000000000,0.000000000,0.980408000,0.000000000,0.000000000,0.057600000,0.000000000,0.000000000,0.237728000,0.000000000,0.000000000,-0.050016000,0.000000000,0.000000000,1720622004.673237801,,,,,,,,,,,
1720622004.985487,0.034892000,0.000000000,0.000000000,-1.185261000,0.000000000,0.000000000,0.980408000,0.000000000,0.000000000,0.057600000,0.000000000,0.000000000,0.238592000,0.000000000,0.000000000,-0.049088000,0.000000000,0.000000000,1720622004.677237749,,,,,,,,,,,
1720622004.985536,0.034892000,0.000000000,0.000000000,-1.185261000,0.000000000,0.000000000,0.980980000,0.000000000,0.000000000,0.057920000,0.000000000,0.000000000,0.238048000,0.000000000,0.000000000,-0.049376000,0.000000000,0.000000000,1720622004.685237646,,,,,,,,,,,
1720622004.985568,0.034892000,0.000000000,0.000000000,-1.185261000,0.000000000,0.000000000,0.981266000,0.000000000,0.000000000,0.057536000,0.000000000,0.000000000,0.238048000,0.000000000,0.000000000,-0.049504000,0.000000000,0.000000000,1720622004.689237833,,,,,,,,,,,
1720622004.985599,0.034892000,0.000000000,0.000000000,-1.184183000,0.000000000,0.000000000,0.981266000,0.000000000,0.000000000,0.057600000,0.000000000,0.000000000,0.238400000,0.000000000,0.000000000,-0.049312000,0.000000000,0.000000000,1720622004.697237730,,,,,,,,,,,
1720622004.985632,0.034892000,0.000000000,0.000000000,-1.184183000,0.000000000,0.000000000,0.981266000,0.000000000,0.000000000,0.057600000,0.000000000,0.000000000,0.238336000,0.000000000,0.000000000,-0.049952000,0.000000000,0.000000000,1720622004.703237772,,,,,,,,,,,
1720622004.985659,0.034892000,0.000000000,0.000000000,-1.190112000,0.000000000,0.000000000,0.980980000,0.000000000,0.000000000,0.057600000,0.000000000,0.000000000,0.238176000,0.000000000,0.000000000,-0.049696000,0.000000000,0.000000000,1720622004.709237814,,,,,,,,,,,
1720622004.985687,0.034892000,0.000000000,0.000000000,-1.172864000,0.000000000,0.000000000,0.980980000,0.000000000,0.000000000,0.057536000,0.000000000,0.000000000,0.237792000,0.000000000,0.000000000,-0.049760000,0.000000000,0.000000000,1720622004.713237762,,,,,,,,,,,
1720622004.985712,0.034892000,0.000000000,0.000000000,-1.179871000,0.000000000,0.000000000,0.981266000,0.000000000,0.000000000,0.057536000,0.000000000,0.000000000,0.238048000,0.000000000,0.000000000,-0.050080000,0.000000000,0.000000000,1720622004.721237659,,,,,,,,,,,
1720622004.985747,0.034892000,0.000000000,0.000000000,-1.179871000,0.000000000,0.000000000,0.981266000,0.000000000,0.000000000,0.057600000,0.000000000,0.000000000,0.237600000,0.000000000,0.000000000,-0.049216000,0.000000000,0.000000000,1720622004.726237774,,,,,,,,,,,
1720622004.985781,0.034892000,0.000000000,0.000000000,-1.179871000,0.000000000,0.000000000,0.981266000,0.000000000,0.000000000,0.057600000,0.000000000,0.000000000,0.236928000,0.000000000,0.000000000,-0.049088000,0.000000000,0.000000000,1720622004.733237743,,,,,,,,,,,
1720622004.985813,0.034892000,0.000000000,0.000000000,-1.179871000,0.000000000,0.000000000,0.981266000,0.000000000,0.000000000,0.057600000,0.000000000,0.000000000,0.236928000,0.000000000,0.000000000,-0.049088000,0.000000000,0.000000000,1720622004.734237671,,,,,,,,,,,
1720622004.985854,0.034892000,0.000000000,0.000000000,-1.179871000,0.000000000,0.000000000,0.981266000,0.000000000,0.000000000,0.057600000,0.000000000,0.000000000,0.238784000,0.000000000,0.000000000,-0.050496000,0.000000000,0.000000000,1720622004.738237858,,,,,,,,,,,
1720622004.985921,0.034892000,0.000000000,0.000000000,-1.185261000,0.000000000,0.000000000,0.981266000,0.000000000,0.000000000,0.057600000,0.000000000,0.000000000,0.237728000,0.000000000,0.000000000,-0.050432000,0.000000000,0.000000000,1720622004.745237827,,,,,,,,,,,
1720622004.985950,0.034892000,0.000000000,0.000000000,-1.185261000,0.000000000,0.000000000,0.981266000,0.000000000,0.000000000,0.057600000,0.000000000,0.000000000,0.237728000,0.000000000,0.000000000,-0.050432000,0.000000000,0.000000000,1720622004.746237755,,,,,,,,,,,
1720622004.985990,0.034892000,0.000000000,0.000000000,-1.185261000,0.000000000,0.000000000,0.981266000,0.000000000,0.000000000,0.057600000,0.000000000,0.000000000,0.237792000,0.000000000,0.000000000,-0.049216000,0.000000000,0.000000000,1720622004.750237703,,,,,,,,,,,
1720622004.986019,0.034320000,0.000000000,0.000000000,-1.186878000,0.000000000,0.000000000,0.981266000,0.000000000,0.000000000,0.057600000,0.000000000,0.000000000,0.238336000,0.000000000,0.000000000,-0.049888000,0.000000000,0.000000000,1720622004.757237673,,,,,,,,,,,
1720622004.986047,0.034320000,0.000000000,0.000000000,-1.186878000,0.000000000,0.000000000,0.981266000,0.000000000,0.000000000,0.057600000,0.000000000,0.000000000,0.238336000,0.000000000,0.000000000,-0.049888000,0.000000000,0.000000000,1720622004.758237839,,,,,,,,,,,
1720622004.986077,0.034320000,0.000000000,0.000000000,-1.186878000,0.000000000,0.000000000,0.981266000,0.000000000,0.000000000,0.057536000,0.000000000,0.000000000,0.237664000,0.000000000,0.000000000,-0.049440000,0.000000000,0.000000000,1720622004.762237787,,,,,,,,,,,
1720622004.986103,0.034320000,0.000000000,0.000000000,-1.185261000,0.000000000,0.000000000,0.981266000,0.000000000,0.000000000,0.057536000,0.000000000,0.000000000,0.237984000,0.000000000,0.000000000,-0.049504000,0.000000000,0.000000000,1720622004.769237757,,,,,,,,,,,
1720622004.986127,0.034320000,0.000000000,0.000000000,-1.185261000,0.000000000,0.000000000,0.981266000,0.000000000,0.000000000,0.057536000,0.000000000,0.000000000,0.237984000,0.000000000,0.000000000,-0.049504000,0.000000000,0.000000000,1720622004.770237684,,,,,,,,,,,
1720622004.986156,0.034320000,0.000000000,0.000000000,-1.184183000,0.000000000,0.000000000,0.981266000,0.000000000,0.000000000,0.057536000,0.000000000,0.000000000,0.238112000,0.000000000,0.000000000,-0.050176000,0.000000000,0.000000000,1720622004.775237799,,,,,,,,,,,
1720622004.986186,0.034320000,0.000000000,0.000000000,-1.183105000,0.000000000,0.000000000,0.981266000,0.000000000,0.000000000,0.057600000,0.000000000,0.000000000,0.237984000,0.000000000,0.000000000,-0.049952000,0.000000000,0.000000000,1720622004.781237841,,,,,,,,,,,
1720622004.986215,0.034320000,0.000000000,0.000000000,-1.183105000,0.000000000,0.000000000,0.981266000,0.000000000,0.000000000,0.057600000,0.000000000,0.000000000,0.237984000,0.000000000,0.000000000,-0.049952000,0.000000000,0.000000000,1720622004.782237768,,,,,,,,,,,
1720622004.986247,0.034320000,0.000000000,0.000000000,-1.183105000,0.000000000,0.000000000,0.981266000,0.000000000,0.000000000,0.057600000,0.000000000,0.000000000,0.237984000,0.000000000,0.000000000,-0.049952000,0.000000000,0.000000000,1720622004.783237696,,,,,,,,,,,
1720622004.986297,0.034892000,0.000000000,0.000000000,-1.182566000,0.000000000,0.000000000,0.981266000,0.000000000,0.000000000,0.057600000,0.000000000,0.000000000,0.237600000,0.000000000,0.000000000,-0.049952000,0.000000000,0.000000000,1720622004.789237738,,,,,,,,,,,
1720622004.986322,0.034892000,0.000000000,0.000000000,-1.183105000,0.000000000,0.000000000,0.981266000,0.000000000,0.000000000,0.057536000,0.000000000,0.000000000,0.237664000,0.000000000,0.000000000,-0.050176000,0.000000000,0.000000000,1720622004.796237707,,,,,,,,,,,
1720622004.986359,0.034892000,0.000000000,0.000000000,-1.183105000,0.000000000,0.000000000,0.981266000,0.000000000,0.000000000,0.057536000,0.000000000,0.000000000,0.238112000,0.000000000,0.000000000,-0.050176000,0.000000000,0.000000000,1720622004.806237698,,,,,,,,,,,
1720622004.986390,0.034892000,0.000000000,0.000000000,-1.183105000,0.000000000,0.000000000,0.981266000,0.000000000,0.000000000,0.057536000,0.000000000,0.000000000,0.238112000,0.000000000,0.000000000,-0.050176000,0.000000000,0.000000000,1720622004.807237864,,,,,,,,,,,
1720622004.986428,0.034892000,0.000000000,0.000000000,-1.188495000,0.000000000,0.000000000,0.981266000,0.000000000,0.000000000,0.057536000,0.000000000,0.000000000,0.237984000,0.000000000,0.000000000,-0.049312000,0.000000000,0.000000000,1720622004.809237719,,,,,,,,,,,
1720622004.986450,0.034892000,0.000000000,0.000000000,-1.185800000,0.000000000,0.000000000,0.981266000,0.000000000,0.000000000,0.057536000,0.000000000,0.000000000,0.237856000,0.000000000,0.000000000,-0.049952000,0.000000000,0.000000000,1720622004.813237667,,,,,,,,,,,
1720622004.986481,0.034892000,0.000000000,0.000000000,-1.176098000,0.000000000,0.000000000,0.981266000,0.000000000,0.000000000,0.057600000,0.000000000,0.000000000,0.237728000,0.000000000,0.000000000,-0.050624000,0.000000000,0.000000000,1720622004.821237803,,,,,,,,,,,
1720622004.986502,0.034892000,0.000000000,0.000000000,-1.196580000,0.000000000,0.000000000,0.981266000,0.000000000,0.000000000,0.057600000,0.000000000,0.000000000,0.238176000,0.000000000,0.000000000,-0.048896000,0.000000000,0.000000000,1720622004.825237751,,,,,,,,,,,
1720622004.986528,0.034892000,0.000000000,0.000000000,-1.185800000,0.000000000,0.000000000,0.981266000,0.000000000,0.000000000,0.057536000,0.000000000,0.000000000,0.237792000,0.000000000,0.000000000,-0.049216000,0.000000000,0.000000000,1720622004.833237648,,,,,,,,,,,
1720622004.986556,0.034892000,0.000000000,0.000000000,-1.184183000,0.000000000,0.000000000,0.981266000,0.000000000,0.000000000,0.057536000,0.000000000,0.000000000,0.237792000,0.000000000,0.000000000,-0.050016000,0.000000000,0.000000000,1720622004.837237835,,,,,,,,,,,
1720622004.986580,0.034892000,0.000000000,0.000000000,-1.182566000,0.000000000,0.000000000,0.981266000,0.000000000,0.000000000,0.057536000,0.000000000,0.000000000,0.237856000,0.000000000,0.000000000,-0.049024000,0.000000000,0.000000000,1720622004.845237732,,,,,,,,,,,
1720622004.986613,0.034892000,0.000000000,0.000000000,-1.181488000,0.000000000,0.000000000,0.981266000,0.000000000,0.000000000,0.057536000,0.000000000,0.000000000,0.237792000,0.000000000,0.000000000,-0.050304000,0.000000000,0.000000000,1720622004.850237846,,,,,,,,,,,
1720622004.986643,0.034892000,0.000000000,0.000000000,-1.181488000,0.000000000,0.000000000,0.981266000,0.000000000,0.000000000,0.057536000,0.000000000,0.000000000,0.237984000,0.000000000,0.000000000,-0.051168000,0.000000000,0.000000000,1720622004.857237816,,,,,,,,,,,
1720622004.986671,0.034892000,0.000000000,0.000000000,-1.181488000,0.000000000,0.000000000,0.981266000,0.000000000,0.000000000,0.057536000,0.000000000,0.000000000,0.237984000,0.000000000,0.000000000,-0.051168000,0.000000000,0.000000000,1720622004.858237743,,,,,,,,,,,
1720622004.986700,0.034892000,0.000000000,0.000000000,-1.182566000,0.000000000,0.000000000,0.981266000,0.000000000,0.000000000,0.057536000,0.000000000,0.000000000,0.238528000,0.000000000,0.000000000,-0.048096000,0.000000000,0.000000000,1720622004.862237692,,,,,,,,,,,
1720622004.986751,0.034892000,0.000000000,0.000000000,-1.182566000,0.000000000,0.000000000,0.981266000,0.000000000,0.000000000,0.057600000,0.000000000,0.000000000,0.238176000,0.000000000,0.000000000,-0.048640000,0.000000000,0.000000000,1720622004.869237661,,,,,,,,,,,
1720622004.986786,0.034892000,0.000000000,0.000000000,-1.182566000,0.000000000,0.000000000,0.981266000,0.000000000,0.000000000,0.057600000,0.000000000,0.000000000,0.238176000,0.000000000,0.000000000,-0.048640000,0.000000000,0.000000000,1720622004.870237827,,,,,,,,,,,
1720622004.986824,0.034892000,0.000000000,0.000000000,-1.182566000,0.000000000,0.000000000,0.981266000,0.000000000,0.000000000,0.057600000,0.000000000,0.000000000,0.237920000,0.000000000,0.000000000,-0.050880000,0.000000000,0.000000000,1720622004.874237776,,,,,,,,,,,
1720622004.986858,0.034320000,0.000000000,0.000000000,-1.181488000,0.000000000,0.000000000,0.981266000,0.000000000,0.000000000,0.057600000,0.000000000,0.000000000,0.238400000,0.000000000,0.000000000,-0.049888000,0.000000000,0.000000000,1720622004.881237745,,,,,,,,,,,
1720622004.986886,0.034320000,0.000000000,0.000000000,-1.181488000,0.000000000,0.000000000,0.981266000,0.000000000,0.000000000,0.057600000,0.000000000,0.000000000,0.238400000,0.000000000,0.000000000,-0.049888000,0.000000000,0.000000000,1720622004.882237673,,,,,,,,,,,
1720622004.986924,0.034892000,0.000000000,0.000000000,-1.181488000,0.000000000,0.000000000,0.981266000,0.000000000,0.000000000,0.057920000,0.000000000,0.000000000,0.237600000,0.000000000,0.000000000,-0.049568000,0.000000000,0.000000000,1720622004.893237829,,,,,,,,,,,
1720622004.986956,0.034892000,0.000000000,0.000000000,-1.181488000,0.000000000,0.000000000,0.981266000,0.000000000,0.000000000,0.057600000,0.000000000,0.000000000,0.237664000,0.000000000,0.000000000,-0.049504000,0.000000000,0.000000000,1720622004.899237633,,,,,,,,,,,
1720622004.986980,0.034892000,0.000000000,0.000000000,-1.181488000,0.000000000,0.000000000,0.981266000,0.000000000,0.000000000,0.057536000,0.000000000,0.000000000,0.237856000,0.000000000,0.000000000,-0.049568000,0.000000000,0.000000000,1720622004.906237841,,,,,,,,,,,
1720622004.987007,0.034892000,0.000000000,0.000000000,-1.181488000,0.000000000,0.000000000,0.981266000,0.000000000,0.000000000,0.057536000,0.000000000,0.000000000,0.237184000,0.000000000,0.000000000,-0.050752000,0.000000000,0.000000000,1720622004.917237759,,,,,,,,,,,
1720622004.987028,0.034892000,0.000000000,0.000000000,-1.181488000,0.000000000,0.000000000,0.981266000,0.000000000,0.000000000,0.057536000,0.000000000,0.000000000,0.237184000,0.000000000,0.000000000,-0.050752000,0.000000000,0.000000000,1720622004.918237686,,,,,,,,,,,
1720622004.987056,0.034892000,0.000000000,0.000000000,-1.181488000,0.000000000,0.000000000,0.981266000,0.000000000,0.000000000,0.057600000,0.000000000,0.000000000,0.238336000,0.000000000,0.000000000,-0.047840000,0.000000000,0.000000000,1720622004.920237780,,,,,,,,,,,
1720622004.987078,0.034892000,0.000000000,0.000000000,-1.182566000,0.000000000,0.000000000,0.981266000,0.000000000,0.000000000,0.057600000,0.000000000,0.000000000,0.237984000,0.000000000,0.000000000,-0.048576000,0.000000000,0.000000000,1720622004.929237843,,,,,,,,,,,
1720622004.987101,0.034892000,0.000000000,0.000000000,-1.182566000,0.000000000,0.000000000,0.981266000,0.000000000,0.000000000,0.057600000,0.000000000,0.000000000,0.237984000,0.000000000,0.000000000,-0.048576000,0.000000000,0.000000000,1720622004.930237770,,,,,,,,,,,
1720622004.987133,0.034892000,0.000000000,0.000000000,-1.182566000,0.000000000,0.000000000,0.981266000,0.000000000,0.000000000,0.057600000,0.000000000,0.000000000,0.237984000,0.000000000,0.000000000,-0.051168000,0.000000000,0.000000000,1720622004.932237864,,,,,,,,,,,
1720622004.987156,0.034892000,0.000000000,0.000000000,-1.182566000,0.000000000,0.000000000,0.981266000,0.000000000,0.000000000,0.057248000,0.000000000,0.000000000,0.238336000,0.000000000,0.000000000,-0.050368000,0.000000000,0.000000000,1720622004.941237688,,,,,,,,,,,
1720622004.987180,0.034892000,0.000000000,0.000000000,-1.182566000,0.000000000,0.000000000,0.981266000,0.000000000,0.000000000,0.057248000,0.000000000,0.000000000,0.238336000,0.000000000,0.000000000,-0.050368000,0.000000000,0.000000000,1720622004.942237854,,,,,,,,,,,
1720622004.992194,0.034892000,0.000000000,0.000000000,-1.167474000,0.000000000,0.000000000,0.981266000,0.000000000,0.000000000,0.057600000,0.000000000,0.000000000,0.238528000,0.000000000,0.000000000,-0.049152000,0.000000000,0.000000000,1720622004.989237785,,,,,,,,,,,
1720622004.992804,0.034892000,0.000000000,0.000000000,-1.167474000,0.000000000,0.000000000,0.981266000,0.000000000,0.000000000,0.057600000,0.000000000,0.000000000,0.238528000,0.000000000,0.000000000,-0.049152000,0.000000000,0.000000000,1720622004.990237713,,,,,,,,,,,
1720622004.995488,0.035178000,0.000000000,0.000000000,-1.180410000,0.000000000,0.000000000,0.981266000,0.000000000,0.000000000,0.057600000,0.000000000,0.000000000,0.238048000,0.000000000,0.000000000,-0.050432000,0.000000000,0.000000000,1720622004.993237734,,,,,,,,,,,
1720622005.006677,0.035178000,0.000000000,0.000000000,-1.177715000,0.000000000,0.000000000,0.981266000,0.000000000,0.000000000,0.057600000,0.000000000,0.000000000,0.237792000,0.000000000,0.000000000,-0.049376000,0.000000000,0.000000000,1720622005.004237652,,,,,,,,,,,
1720622005.014932,0.034892000,0.000000000,0.000000000,-1.181488000,0.000000000,0.000000000,0.981266000,0.000000000,0.000000000,0.057600000,0.000000000,0.000000000,0.238464000,0.000000000,0.000000000,-0.049632000,0.000000000,0.000000000,1720622005.012237787,,,,,,,,,,,
1720622005.016180,,,,,,,,,,,,,,,,,,,,1720622005.004237652,-1.186824000,3.141592654,0.000000015,0.829037542,-0.000000022,-0.000000054,0.559192949,1.395152983,0.001110973,1.481517837
1720622005.024492,0.034892000,0.000000000,0.000000000,-1.181488000,0.000000000,0.000000000,0.981266000,0.000000000,0.000000000,0.057600000,0.000000000,0.000000000,0.237920000,0.000000000,0.000000000,-0.050080000,0.000000000,0.000000000,1720622005.021237850,,,,,,,,,,,
1720622005.024794,0.034892000,0.000000000,0.000000000,-1.181488000,0.000000000,0.000000000,0.981266000,0.000000000,0.000000000,0.057600000,0.000000000,0.000000000,0.237920000,0.000000000,0.000000000,-0.050080000,0.000000000,0.000000000,1720622005.022237778,,,,,,,,,,,
1720622005.027990,0.034892000,0.000000000,0.000000000,-1.181488000,0.000000000,0.000000000,0.981266000,0.000000000,0.000000000,0.057920000,0.000000000,0.000000000,0.237984000,0.000000000,0.000000000,-0.049760000,0.000000000,0.000000000,1720622005.023237705,,,,,,,,,,,
1720622005.036269,0.035178000,0.000000000,0.000000000,-1.189573000,0.000000000,0.000000000,0.981266000,0.000000000,0.000000000,0.057536000,0.000000000,0.000000000,0.238400000,0.000000000,0.000000000,-0.050080000,0.000000000,0.000000000,1720622005.033237696,,,,,,,,,,,
1720622005.037221,0.035178000,0.000000000,0.000000000,-1.189573000,0.000000000,0.000000000,0.981266000,0.000000000,0.000000000,0.057536000,0.000000000,0.000000000,0.238400000,0.000000000,0.000000000,-0.050080000,0.000000000,0.000000000,1720622005.034237862,,,,,,,,,,,
1720622005.038750,0.035178000,0.000000000,0.000000000,-1.182566000,0.000000000,0.000000000,0.981266000,0.000000000,0.000000000,0.057600000,0.000000000,0.000000000,0.238112000,0.000000000,0.000000000,-0.049312000,0.000000000,0.000000000,1720622005.036237717,,,,,,,,,,,
1720622005.048604,0.035178000,0.000000000,0.000000000,-1.185800000,0.000000000,0.000000000,0.981266000,0.000000000,0.000000000,0.057600000,0.000000000,0.000000000,0.237312000,0.000000000,0.000000000,-0.049312000,0.000000000,0.000000000,1720622005.045237780,,,,,,,,,,,
1720622005.049515,0.035178000,0.000000000,0.000000000,-1.185800000,0.000000000,0.000000000,0.981266000,0.000000000,0.000000000,0.057600000,0.000000000,0.000000000,0.237312000,0.000000000,0.000000000,-0.049312000,0.000000000,0.000000000,1720622005.046237707,,,,,,,,,,,
1720622005.052270,0.034892000,0.000000000,0.000000000,-1.185800000,0.000000000,0.000000000,0.981266000,0.000000000,0.000000000,0.057600000,0.000000000,0.000000000,0.237792000,0.000000000,0.000000000,-0.049696000,0.000000000,0.000000000,1720622005.049237728,,,,,,,,,,,
1720622005.060353,0.034892000,0.000000000,0.000000000,-1.185261000,0.000000000,0.000000000,0.981266000,0.000000000,0.000000000,0.057600000,0.000000000,0.000000000,0.238176000,0.000000000,0.000000000,-0.048960000,0.000000000,0.000000000,1720622005.057237864,,,,,,,,,,,
1720622005.061603,0.034892000,0.000000000,0.000000000,-1.185261000,0.000000000,0.000000000,0.981266000,0.000000000,0.000000000,0.057600000,0.000000000,0.000000000,0.238176000,0.000000000,0.000000000,-0.048960000,0.000000000,0.000000000,1720622005.058237791,,,,,,,,,,,
1720622005.062990,0.035178000,0.000000000,0.000000000,-1.184183000,0.000000000,0.000000000,0.981266000,0.000000000,0.000000000,0.057600000,0.000000000,0.000000000,0.237376000,0.000000000,0.000000000,-0.050016000,0.000000000,0.000000000,1720622005.060237646,,,,,,,,,,,
1720622005.066133,,,,,,,,,,,,,,,,,,,,1720622005.057237864,-1.186824000,3.141592654,0.000000015,0.829037542,-0.000000022,-0.000000054,0.559192949,1.395152983,0.001110973,1.481517837
1720622005.072689,0.035178000,0.000000000,0.000000000,-1.185261000,0.000000000,0.000000000,0.981266000,0.000000000,0.000000000,0.057600000,0.000000000,0.000000000,0.237536000,0.000000000,0.000000000,-0.050016000,0.000000000,0.000000000,1720622005.069237709,,,,,,,,,,,
1720622005.073254,0.035178000,0.000000000,0.000000000,-1.185261000,0.000000000,0.000000000,0.981266000,0.000000000,0.000000000,0.057600000,0.000000000,0.000000000,0.237536000,0.000000000,0.000000000,-0.050016000,0.000000000,0.000000000,1720622005.070237637,,,,,,,,,,,
1720622005.075170,0.035178000,0.000000000,0.000000000,-1.182566000,0.000000000,0.000000000,0.981266000,0.000000000,0.000000000,0.057600000,0.000000000,0.000000000,0.237856000,0.000000000,0.000000000,-0.049760000,0.000000000,0.000000000,1720622005.072237730,,,,,,,,,,,
1720622005.084829,0.035178000,0.000000000,0.000000000,-1.182566000,0.000000000,0.000000000,0.981266000,0.000000000,0.000000000,0.057600000,0.000000000,0.000000000,0.237920000,0.000000000,0.000000000,-0.049696000,0.000000000,0.000000000,1720622005.081237793,,,,,,,,,,,
1720622005.085186,0.035178000,0.000000000,0.000000000,-1.182566000,0.000000000,0.000000000,0.981266000,0.000000000,0.000000000,0.057600000,0.000000000,0.000000000,0.237920000,0.000000000,0.000000000,-0.049696000,0.000000000,0.000000000,1720622005.082237720,,,,,,,,,,,
1720622005.087222,0.034892000,0.000000000,0.000000000,-1.182566000,0.000000000,0.000000000,0.981266000,0.000000000,0.000000000,0.057536000,0.000000000,0.000000000,0.238240000,0.000000000,0.000000000,-0.049824000,0.000000000,0.000000000,1720622005.084237814,,,,,,,,,,,
1720622005.091360,0.034892000,0.000000000,0.000000000,-1.182566000,0.000000000,0.000000000,0.981266000,0.000000000,0.000000000,0.057600000,0.000000000,0.000000000,0.237792000,0.000000000,0.000000000,-0.049696000,0.000000000,0.000000000,1720622005.088237762,,,,,,,,,,,
1720622005.099216,0.035178000,0.000000000,0.000000000,-1.182566000,0.000000000,0.000000000,0.981266000,0.000000000,0.000000000,0.057600000,0.000000000,0.000000000,0.237792000,0.000000000,0.000000000,-0.049568000,0.000000000,0.000000000,1720622005.096237659,,,,,,,,,,,
1720622005.108660,0.035178000,0.000000000,0.000000000,-1.178793000,0.000000000,0.000000000,0.981266000,0.000000000,0.000000000,0.057600000,0.000000000,0.000000000,0.238400000,0.000000000,0.000000000,-0.049696000,0.000000000,0.000000000,1720622005.105237722,,,,,,,,,,,
1720622005.110128,0.035178000,0.000000000,0.000000000,-1.178793000,0.000000000,0.000000000,0.981266000,0.000000000,0.000000000,0.057600000,0.000000000,0.000000000,0.238400000,0.000000000,0.000000000,-0.049696000,0.000000000,0.000000000,1720622005.106237650,,,,,,,,,,,
1720622005.111892,0.035178000,0.000000000,0.000000000,-1.180410000,0.000000000,0.000000000,0.981266000,0.000000000,0.000000000,0.057600000,0.000000000,0.000000000,0.237376000,0.000000000,0.000000000,-0.049952000,0.000000000,0.000000000,1720622005.108237743,,,,,,,,,,,
1720622005.116296,,,,,,,,,,,,,,,,,,,,1720622005.108237743,-1.186824000,3.141592654,0.000000015,0.829037542,-0.000000022,-0.000000054,0.559192949,1.395152983,0.001110973,1.481517837
1720622005.116346,0.035178000,0.000000000,0.000000000,-1.180410000,0.000000000,0.000000000,0.981266000,0.000000000,0.000000000,0.057600000,0.000000000,0.000000000,0.238112000,0.000000000,0.000000000,-0.049440000,0.000000000,0.000000000,1720622005.113237858,,,,,,,,,,,
1720622005.124629,0.034892000,0.000000000,0.000000000,-1.181488000,0.000000000,0.000000000,0.981266000,0.000000000,0.000000000,0.057600000,0.000000000,0.000000000,0.237728000,0.000000000,0.000000000,-0.050080000,0.000000000,0.000000000,1720622005.121237755,,,,,,,,,,,
1720622005.128411,0.034892000,0.000000000,0.000000000,-1.181488000,0.000000000,0.000000000,0.981266000,0.000000000,0.000000000,0.057600000,0.000000000,0.000000000,0.238048000,0.000000000,0.000000000,-0.049216000,0.000000000,0.000000000,1720622005.125237703,,,,,,,,,,,
1720622005.135488,0.034892000,0.000000000,0.000000000,-1.182566000,0.000000000,0.000000000,0.981266000,0.000000000,0.000000000,0.057920000,0.000000000,0.000000000,0.237600000,0.000000000,0.000000000,-0.049088000,0.000000000,0.000000000,1720622005.132237673,,,,,,,,,,,
1720622005.137593,0.034892000,0.000000000,0.000000000,-1.182566000,0.000000000,0.000000000,0.981266000,0.000000000,0.000000000,0.057920000,0.000000000,0.000000000,0.237600000,0.000000000,0.000000000,-0.049088000,0.000000000,0.000000000,1720622005.134237766,,,,,,,,,,,
1720622005.140395,0.035178000,0.000000000,0.000000000,-1.177715000,0.000000000,0.000000000,0.981266000,0.000000000,0.000000000,0.057536000,0.000000000,0.000000000,0.237376000,0.000000000,0.000000000,-0.049952000,0.000000000,0.000000000,1720622005.137237787,,,,,,,,,,,
1720622005.152377,0.035178000,0.000000000,0.000000000,-1.182566000,0.000000000,0.000000000,0.981266000,0.000000000,0.000000000,0.057600000,0.000000000,0.000000000,0.237728000,0.000000000,0.000000000,-0.049760000,0.000000000,0.000000000,1720622005.149237633,,,,,,,,,,,
1720622005.159810,0.035178000,0.000000000,0.000000000,-1.182566000,0.000000000,0.000000000,0.981266000,0.000000000,0.000000000,0.057536000,0.000000000,0.000000000,0.237600000,0.000000000,0.000000000,-0.049312000,0.000000000,0.000000000,1720622005.156237841,,,,,,,,,,,
1720622005.170930,0.035178000,0.000000000,0.000000000,-1.182566000,0.000000000,0.000000000,0.981266000,0.000000000,0.000000000,0.057536000,0.000000000,0.000000000,0.237856000,0.000000000,0.000000000,-0.049376000,0.000000000,0.000000000,1720622005.166237831,,,,,,,,,,,
1720622005.176161,,,,,,,,,,,,,,,,,,,,1720622005.166237831,-1.186824000,3.141592654,0.000000015,0.829037542,-0.000000022,-0.000000054,0.559192949,1.395152983,0.001110973,1.481517837
1720622005.180385,0.035178000,0.000000000,0.000000000,-1.182566000,0.000000000,0.000000000,0.981266000,0.000000000,0.000000000,0.057536000,0.000000000,0.000000000,0.237792000,0.000000000,0.000000000,-0.049888000,0.000000000,0.000000000,1720622005.176237822,,,,,,,,,,,
1720622005.192428,0.035178000,0.000000000,0.000000000,-1.184183000,0.000000000,0.000000000,0.981266000,0.000000000,0.000000000,0.057536000,0.000000000,0.000000000,0.238112000,0.000000000,0.000000000,-0.049760000,0.000000000,0.000000000,1720622005.189237833,,,,,,,,,,,
1720622005.200372,0.035178000,0.000000000,0.000000000,-1.184183000,0.000000000,0.000000000,0.981266000,0.000000000,0.000000000,0.057536000,0.000000000,0.000000000,0.237728000,0.000000000,0.000000000,-0.050624000,0.000000000,0.000000000,1720622005.196237803,,,,,,,,,,,
1720622005.212507,0.035178000,0.000000000,0.000000000,-1.179871000,0.000000000,0.000000000,0.981266000,0.000000000,0.000000000,0.057536000,0.000000000,0.000000000,0.237664000,0.000000000,0.000000000,-0.048896000,0.000000000,0.000000000,1720622005.209237814,,,,,,,,,,,
1720622005.221539,0.035178000,0.000000000,0.000000000,-1.179871000,0.000000000,0.000000000,0.960960000,0.000000000,0.000000000,0.057536000,0.000000000,0.000000000,0.237600000,0.000000000,0.000000000,-0.048768000,0.000000000,0.000000000,1720622005.216237783,,,,,,,,,,,
1720622005.226153,,,,,,,,,,,,,,,,,,,,1720622005.216237783,-1.186824000,3.141592654,0.000000015,0.829037542,-0.000000022,-0.000000054,0.559192949,1.395152983,0.001110973,1.481517837
1720622005.231237,0.035178000,0.000000000,0.000000000,-1.179871000,0.000000000,0.000000000,0.980408000,0.000000000,0.000000000,0.057600000,0.000000000,0.000000000,0.238176000,0.000000000,0.000000000,-0.050176000,0.000000000,0.000000000,1720622005.227237701,,,,,,,,,,,
1720622005.241519,0.035178000,0.000000000,0.000000000,-1.179871000,0.000000000,0.000000000,0.980408000,0.000000000,0.000000000,0.057600000,0.000000000,0.000000000,0.237600000,0.000000000,0.000000000,-0.049696000,0.000000000,0.000000000,1720622005.236237764,,,,,,,,,,,
1720622005.252630,0.035178000,0.000000000,0.000000000,-1.182566000,0.000000000,0.000000000,0.980408000,0.000000000,0.000000000,0.057600000,0.000000000,0.000000000,0.237664000,0.000000000,0.000000000,-0.049152000,0.000000000,0.000000000,1720622005.249237776,,,,,,,,,,,
1720622005.269008,0.035178000,0.000000000,0.000000000,-1.204665000,0.000000000,0.000000000,0.980408000,0.000000000,0.000000000,0.057600000,0.000000000,0.000000000,0.237984000,0.000000000,0.000000000,-0.050176000,0.000000000,0.000000000,1720622005.260237694,,,,,,,,,,,
1720622005.271045,0.035178000,0.000000000,0.000000000,-1.182566000,0.000000000,0.000000000,0.980408000,0.000000000,0.000000000,0.057920000,0.000000000,0.000000000,0.237536000,0.000000000,0.000000000,-0.049696000,0.000000000,0.000000000,1720622005.267237663,,,,,,,,,,,
1720622005.276287,,,,,,,,,,,,,,,,,,,,1720622005.267237663,-1.186824000,3.141592654,0.000000015,0.829037542,-0.000000022,-0.000000054,0.559192949,1.395152983,0.001110973,1.481517837
1720622005.280798,0.035178000,0.000000000,0.000000000,-1.181488000,0.000000000,0.000000000,0.980408000,0.000000000,0.000000000,0.057536000,0.000000000,0.000000000,0.237600000,0.000000000,0.000000000,-0.050368000,0.000000000,0.000000000,1720622005.277237654,,,,,,,,,,,
1720622005.293489,0.035178000,0.000000000,0.000000000,-1.181488000,0.000000000,0.000000000,0.980408000,0.000000000,0.000000000,0.057600000,0.000000000,0.000000000,0.237792000,0.000000000,0.000000000,-0.049024000,0.000000000,0.000000000,1720622005.290237665,,,,,,,,,,,
1720622005.300977,0.035178000,0.000000000,0.000000000,-1.182566000,0.000000000,0.000000000,0.980408000,0.000000000,0.000000000,0.057536000,0.000000000,0.000000000,0.237920000,0.000000000,0.000000000,-0.048768000,0.000000000,0.000000000,1720622005.297237635,,,,,,,,,,,
1720622005.301730,0.035178000,0.000000000,0.000000000,-1.182566000,0.000000000,0.000000000,0.980408000,0.000000000,0.000000000,0.057536000,0.000000000,0.000000000,0.237920000,0.000000000,0.000000000,-0.048768000,0.000000000,0.000000000,1720622005.298237801,,,,,,,,,,,
1720622005.307800,0.035178000,0.000000000,0.000000000,-1.187417000,0.000000000,0.000000000,0.980408000,0.000000000,0.000000000,0.057536000,0.000000000,0.000000000,0.238592000,0.000000000,0.000000000,-0.049632000,0.000000000,0.000000000,1720622005.304237843,,,,,,,,,,,
1720622005.313806,0.035178000,0.000000000,0.000000000,-1.185261000,0.000000000,0.000000000,0.980408000,0.000000000,0.000000000,0.057536000,0.000000000,0.000000000,0.238464000,0.000000000,0.000000000,-0.050016000,0.000000000,0.000000000,1720622005.310237646,,,,,,,,,,,
1720622005.315711,0.035178000,0.000000000,0.000000000,-1.184183000,0.000000000,0.000000000,0.980408000,0.000000000,0.000000000,0.057536000,0.000000000,0.000000000,0.237792000,0.000000000,0.000000000,-0.048832000,0.000000000,0.000000000,1720622005.312237740,,,,,,,,,,,
1720622005.320223,0.035178000,0.000000000,0.000000000,-1.184183000,0.000000000,0.000000000,0.980408000,0.000000000,0.000000000,0.057856000,0.000000000,0.000000000,0.238240000,0.000000000,0.000000000,-0.050176000,0.000000000,0.000000000,1720622005.316237688,,,,,,,,,,,
1720622005.327854,0.035178000,0.000000000,0.000000000,-1.175559000,0.000000000,0.000000000,0.980408000,0.000000000,0.000000000,0.057664000,0.000000000,0.000000000,0.237376000,0.000000000,0.000000000,-0.049024000,0.000000000,0.000000000,1720622005.324237823,,,,,,,,,,,
1720622005.331752,0.035178000,0.000000000,0.000000000,-1.180410000,0.000000000,0.000000000,0.980408000,0.000000000,0.000000000,0.057600000,0.000000000,0.000000000,0.238400000,0.000000000,0.000000000,-0.050176000,0.000000000,0.000000000,1720622005.328237772,,,,,,,,,,,
1720622005.336327,,,,,,,,,,,,,,,,,,,,1720622005.324237823,-1.186824000,3.141592654,0.000000015,0.829037542,-0.000000022,-0.000000054,0.559192949,1.395152983,0.001110973,1.481517837
1720622005.347638,0.035178000,0.000000000,0.000000000,-1.181488000,0.000000000,0.000000000,0.980408000,0.000000000,0.000000000,0.057600000,0.000000000,0.000000000,0.237792000,0.000000000,0.000000000,-0.050560000,0.000000000,0.000000000,1720622005.336237669,,,,,,,,,,,
1720622005.350971,0.035178000,0.000000000,0.000000000,-1.181488000,0.000000000,0.000000000,0.980408000,0.000000000,0.000000000,0.057600000,0.000000000,0.000000000,0.237984000,0.000000000,0.000000000,-0.048832000,0.000000000,0.000000000,1720622005.347237825,,,,,,,,,,,
1720622005.351859,0.035178000,0.000000000,0.000000000,-1.181488000,0.000000000,0.000000000,0.980408000,0.000000000,0.000000000,0.057600000,0.000000000,0.000000000,0.237984000,0.000000000,0.000000000,-0.048832000,0.000000000,0.000000000,1720622005.348237753,,,,,,,,,,,
1720622005.352844,0.035178000,0.000000000,0.000000000,-1.181488000,0.000000000,0.000000000,0.980408000,0.000000000,0.000000000,0.057600000,0.000000000,0.000000000,0.237984000,0.000000000,0.000000000,-0.048832000,0.000000000,0.000000000,1720622005.349237680,,,,,,,,,,,
1720622005.353631,0.035178000,0.000000000,0.000000000,-1.181488000,0.000000000,0.000000000,0.980408000,0.000000000,0.000000000,0.057600000,0.000000000,0.000000000,0.237984000,0.000000000,0.000000000,-0.048832000,0.000000000,0.000000000,1720622005.350237846,,,,,,,,,,,
1720622005.355071,0.035178000,0.000000000,0.000000000,-1.181488000,0.000000000,0.000000000,0.980408000,0.000000000,0.000000000,0.057664000,0.000000000,0.000000000,0.237728000,0.000000000,0.000000000,-0.050688000,0.000000000,0.000000000,1720622005.351237774,,,,,,,,,,,
1720622005.359719,0.035178000,0.000000000,0.000000000,-1.181488000,0.000000000,0.000000000,0.980408000,0.000000000,0.000000000,0.057600000,0.000000000,0.000000000,0.237728000,0.000000000,0.000000000,-0.049440000,0.000000000,0.000000000,1720622005.356237650,,,,,,,,,,,
1720622005.366052,0.035178000,0.000000000,0.000000000,-1.181488000,0.000000000,0.000000000,0.980408000,0.000000000,0.000000000,0.057600000,0.000000000,0.000000000,0.238720000,0.000000000,0.000000000,-0.049696000,0.000000000,0.000000000,1720622005.362237692,,,,,,,,,,,
1720622005.367959,0.035178000,0.000000000,0.000000000,-1.182566000,0.000000000,0.000000000,0.980408000,0.000000000,0.000000000,0.057600000,0.000000000,0.000000000,0.237856000,0.000000000,0.000000000,-0.049888000,0.000000000,0.000000000,1720622005.364237785,,,,,,,,,,,
1720622005.371827,0.035178000,0.000000000,0.000000000,-1.182566000,0.000000000,0.000000000,0.980408000,0.000000000,0.000000000,0.057600000,0.000000000,0.000000000,0.238176000,0.000000000,0.000000000,-0.050176000,0.000000000,0.000000000,1720622005.368237734,,,,,,,,,,,
1720622005.380339,0.035178000,0.000000000,0.000000000,-1.194963000,0.000000000,0.000000000,0.980408000,0.000000000,0.000000000,0.057600000,0.000000000,0.000000000,0.237728000,0.000000000,0.000000000,-0.049632000,0.000000000,0.000000000,1720622005.376237631,,,,,,,,,,,
1720622005.381735,0.035178000,0.000000000,0.000000000,-1.194963000,0.000000000,0.000000000,0.980408000,0.000000000,0.000000000,0.057600000,0.000000000,0.000000000,0.237728000,0.000000000,0.000000000,-0.049632000,0.000000000,0.000000000,1720622005.378237724,,,,,,,,,,,
1720622005.386185,,,,,,,,,,,,,,,,,,,,1720622005.376237631,-1.186824000,3.141592654,0.000000015,0.829037542,-0.000000022,-0.000000054,0.559192949,1.395152983,0.001110973,1.481517837
1720622005.395846,0.035178000,0.000000000,0.000000000,-1.181488000,0.000000000,0.000000000,0.980408000,0.000000000,0.000000000,0.057600000,0.000000000,0.000000000,0.238592000,0.000000000,0.000000000,-0.048288000,0.000000000,0.000000000,1720622005.392237663,,,,,,,,,,,
1720622005.402709,0.035178000,0.000000000,0.000000000,-1.210594000,0.000000000,0.000000000,0.980408000,0.000000000,0.000000000,0.057600000,0.000000000,0.000000000,0.237056000,0.000000000,0.000000000,-0.050688000,0.000000000,0.000000000,1720622005.398237705,,,,,,,,,,,
1720622005.412263,0.035178000,0.000000000,0.000000000,-1.179871000,0.000000000,0.000000000,0.980408000,0.000000000,0.000000000,0.057600000,0.000000000,0.000000000,0.237248000,0.000000000,0.000000000,-0.049760000,0.000000000,0.000000000,1720622005.408237696,,,,,,,,,,,
1720622005.413022,0.035178000,0.000000000,0.000000000,-1.179871000,0.000000000,0.000000000,0.980408000,0.000000000,0.000000000,0.057600000,0.000000000,0.000000000,0.237248000,0.000000000,0.000000000,-0.049760000,0.000000000,0.000000000,1720622005.409237862,,,,,,,,,,,
1720622005.415983,0.035178000,0.000000000,0.000000000,-1.179871000,0.000000000,0.000000000,0.980408000,0.000000000,0.000000000,0.057600000,0.000000000,0.000000000,0.237856000,0.000000000,0.000000000,-0.049632000,0.000000000,0.000000000,1720622005.412237644,,,,,,,,,,,
1720622005.419884,0.035178000,0.000000000,0.000000000,-1.179871000,0.000000000,0.000000000,0.980408000,0.000000000,0.000000000,0.057600000,0.000000000,0.000000000,0.239104000,0.000000000,0.000000000,-0.049312000,0.000000000,0.000000000,1720622005.416237831,,,,,,,,,,,
1720622005.428464,0.035178000,0.000000000,0.000000000,-1.188495000,0.000000000,0.000000000,0.980408000,0.000000000,0.000000000,0.057600000,0.000000000,0.000000000,0.237664000,0.000000000,0.000000000,-0.048832000,0.000000000,0.000000000,1720622005.424237728,,,,,,,,,,,
1720622005.432060,0.035178000,0.000000000,0.000000000,-1.185261000,0.000000000,0.000000000,0.980408000,0.000000000,0.000000000,0.057536000,0.000000000,0.000000000,0.238240000,0.000000000,0.000000000,-0.050496000,0.000000000,0.000000000,1720622005.428237677,,,,,,,,,,,
1720622005.436434,,,,,,,,,,,,,,,,,,,,1720622005.428237677,-1.186824000,3.141592654,0.000000015,0.829037542,-0.000000022,-0.000000054,0.559192949,1.395152983,0.001110973,1.481517837
1720622005.440313,0.035178000,0.000000000,0.000000000,-1.185261000,0.000000000,0.000000000,0.980408000,0.000000000,0.000000000,0.057536000,0.000000000,0.000000000,0.238240000,0.000000000,0.000000000,-0.050368000,0.000000000,0.000000000,1720622005.436237812,,,,,,,,,,,
1720622005.443882,0.035178000,0.000000000,0.000000000,-1.163162000,0.000000000,0.000000000,0.981838000,0.000000000,0.000000000,0.057536000,0.000000000,0.000000000,0.237600000,0.000000000,0.000000000,-0.049312000,0.000000000,0.000000000,1720622005.440237761,,,,,,,,,,,
1720622005.452329,0.035178000,0.000000000,0.000000000,-1.187417000,0.000000000,0.000000000,0.981838000,0.000000000,0.000000000,0.057536000,0.000000000,0.000000000,0.237472000,0.000000000,0.000000000,-0.049696000,0.000000000,0.000000000,1720622005.448237658,,,,,,,,,,,
1720622005.454085,0.035178000,0.000000000,0.000000000,-1.187417000,0.000000000,0.000000000,0.981838000,0.000000000,0.000000000,0.057536000,0.000000000,0.000000000,0.237472000,0.000000000,0.000000000,-0.049696000,0.000000000,0.000000000,1720622005.450237751,,,,,,,,,,,
1720622005.467833,0.035178000,0.000000000,0.000000000,-1.210594000,0.000000000,0.000000000,0.983840000,0.000000000,0.000000000,0.057600000,0.000000000,0.000000000,0.237664000,0.000000000,0.000000000,-0.050016000,0.000000000,0.000000000,1720622005.464237690,,,,,,,,,,,
1720622005.475157,0.035178000,0.000000000,0.000000000,-1.171786000,0.000000000,0.000000000,0.981838000,0.000000000,0.000000000,0.057600000,0.000000000,0.000000000,0.238336000,0.000000000,0.000000000,-0.050080000,0.000000000,0.000000000,1720622005.471237659,,,,,,,,,,,
1720622005.484338,0.035178000,0.000000000,0.000000000,-1.152382000,0.000000000,0.000000000,0.979836000,0.000000000,0.000000000,0.057600000,0.000000000,0.000000000,0.238176000,0.000000000,0.000000000,-0.050816000,0.000000000,0.000000000,1720622005.480237722,,,,,,,,,,,
1720622005.485125,0.035178000,0.000000000,0.000000000,-1.152382000,0.000000000,0.000000000,0.979836000,0.000000000,0.000000000,0.057600000,0.000000000,0.000000000,0.238176000,0.000000000,0.000000000,-0.050816000,0.000000000,0.000000000,1720622005.481237650,,,,,,,,,,,
1720622005.486216,,,,,,,,,,,,,,,,,,,,1720622005.480237722,-1.186824000,3.141592654,0.000000015,0.829037542,-0.000000022,-0.000000054,0.559192949,1.395152983,0.001110973,1.481517837
1720622005.487973,0.035178000,0.000000000,0.000000000,-1.199814000,0.000000000,0.000000000,0.979836000,0.000000000,0.000000000,0.057600000,0.000000000,0.000000000,0.238336000,0.000000000,0.000000000,-0.048896000,0.000000000,0.000000000,1720622005.484237671,,,,,,,,,,,
1720622005.496382,0.035178000,0.000000000,0.000000000,-1.180410000,0.000000000,0.000000000,0.980408000,0.000000000,0.000000000,0.057600000,0.000000000,0.000000000,0.237856000,0.000000000,0.000000000,-0.048032000,0.000000000,0.000000000,1720622005.492237806,,,,,,,,,,,
1720622005.497807,0.035178000,0.000000000,0.000000000,-1.180410000,0.000000000,0.000000000,0.980408000,0.000000000,0.000000000,0.057600000,0.000000000,0.000000000,0.237856000,0.000000000,0.000000000,-0.048032000,0.000000000,0.000000000,1720622005.493237734,,,,,,,,,,,
1720622005.498975,0.035178000,0.000000000,0.000000000,-1.180410000,0.000000000,0.000000000,0.980408000,0.000000000,0.000000000,0.057600000,0.000000000,0.000000000,0.237856000,0.000000000,0.000000000,-0.051168000,0.000000000,0.000000000,1720622005.495237827,,,,,,,,,,,
1720622005.508568,0.035178000,0.000000000,0.000000000,-1.180410000,0.000000000,0.000000000,0.980980000,0.000000000,0.000000000,0.057600000,0.000000000,0.000000000,0.237792000,0.000000000,0.000000000,-0.050240000,0.000000000,0.000000000,1720622005.504237652,,,,,,,,,,,
1720622005.508956,0.035178000,0.000000000,0.000000000,-1.180410000,0.000000000,0.000000000,0.980980000,0.000000000,0.000000000,0.057600000,0.000000000,0.000000000,0.237792000,0.000000000,0.000000000,-0.050240000,0.000000000,0.000000000,1720622005.505237818,,,,,,,,,,,
1720622005.511308,0.035178000,0.000000000,0.000000000,-1.180410000,0.000000000,0.000000000,0.980980000,0.000000000,0.000000000,0.057600000,0.000000000,0.000000000,0.237984000,0.000000000,0.000000000,-0.049312000,0.000000000,0.000000000,1720622005.507237673,,,,,,,,,,,
1720622005.520539,0.035178000,0.000000000,0.000000000,-1.182566000,0.000000000,0.000000000,0.980980000,0.000000000,0.000000000,0.057600000,0.000000000,0.000000000,0.237376000,0.000000000,0.000000000,-0.050176000,0.000000000,0.000000000,1720622005.516237736,,,,,,,,,,,
1720622005.521446,0.035178000,0.000000000,0.000000000,-1.182566000,0.000000000,0.000000000,0.980980000,0.000000000,0.000000000,0.057600000,0.000000000,0.000000000,0.237376000,0.000000000,0.000000000,-0.050176000,0.000000000,0.000000000,1720622005.517237663,,,,,,,,,,,
1720622005.524017,0.035178000,0.000000000,0.000000000,-1.182566000,0.000000000,0.000000000,0.980980000,0.000000000,0.000000000,0.057536000,0.000000000,0.000000000,0.237792000,0.000000000,0.000000000,-0.049504000,0.000000000,0.000000000,1720622005.518237829,,,,,,,,,,,
1720622005.532646,0.035178000,0.000000000,0.000000000,-1.183105000,0.000000000,0.000000000,0.980980000,0.000000000,0.000000000,0.057536000,0.000000000,0.000000000,0.237312000,0.000000000,0.000000000,-0.048896000,0.000000000,0.000000000,1720622005.528237820,,,,,,,,,,,
1720622005.533113,0.035178000,0.000000000,0.000000000,-1.183105000,0.000000000,0.000000000,0.980980000,0.000000000,0.000000000,0.057536000,0.000000000,0.000000000,0.237312000,0.000000000,0.000000000,-0.048896000,0.000000000,0.000000000,1720622005.529237747,,,,,,,,,,,
1720622005.535978,0.035178000,0.000000000,0.000000000,-1.183105000,0.000000000,0.000000000,0.980980000,0.000000000,0.000000000,0.057536000,0.000000000,0.000000000,0.238528000,0.000000000,0.000000000,-0.050432000,0.000000000,0.000000000,1720622005.530237675,,,,,,,,,,,
1720622005.544352,0.035178000,0.000000000,0.000000000,-1.182566000,0.000000000,0.000000000,0.980980000,0.000000000,0.000000000,0.057536000,0.000000000,0.000000000,0.237792000,0.000000000,0.000000000,-0.050240000,0.000000000,0.000000000,1720622005.540237665,,,,,,,,,,,
1720622005.544993,0.035178000,0.000000000,0.000000000,-1.182566000,0.000000000,0.000000000,0.980980000,0.000000000,0.000000000,0.057536000,0.000000000,0.000000000,0.237792000,0.000000000,0.000000000,-0.050240000,0.000000000,0.000000000,1720622005.541237831,,,,,,,,,,,
1720622005.546133,,,,,,,,,,,,,,,,,,,,1720622005.530237675,-1.186824000,3.141592654,0.000000015,0.829037542,-0.000000022,-0.000000054,0.559192949,1.395152983,0.001110973,1.481517837
1720622005.547400,0.035178000,0.000000000,0.000000000,-1.182566000,0.000000000,0.000000000,0.980980000,0.000000000,0.000000000,0.057536000,0.000000000,0.000000000,0.237536000,0.000000000,0.000000000,-0.048768000,0.000000000,0.000000000,1720622005.543237686,,,,,,,,,,,
1720622005.556656,0.035178000,0.000000000,0.000000000,-1.185261000,0.000000000,0.000000000,0.980980000,0.000000000,0.000000000,0.057536000,0.000000000,0.000000000,0.238400000,0.000000000,0.000000000,-0.049376000,0.000000000,0.000000000,1720622005.552237749,,,,,,,,,,,
1720622005.557754,0.035178000,0.000000000,0.000000000,-1.185261000,0.000000000,0.000000000,0.980980000,0.000000000,0.000000000,0.057536000,0.000000000,0.000000000,0.238400000,0.000000000,0.000000000,-0.049376000,0.000000000,0.000000000,1720622005.553237677,,,,,,,,,,,
1720622005.559060,0.035178000,0.000000000,0.000000000,-1.185261000,0.000000000,0.000000000,0.980980000,0.000000000,0.000000000,0.057600000,0.000000000,0.000000000,0.237600000,0.000000000,0.000000000,-0.049504000,0.000000000,0.000000000,1720622005.555237770,,,,,,,,,,,
1720622005.568705,0.035178000,0.000000000,0.000000000,-1.185800000,0.000000000,0.000000000,0.980980000,0.000000000,0.000000000,0.057600000,0.000000000,0.000000000,0.238400000,0.000000000,0.000000000,-0.048832000,0.000000000,0.000000000,1720622005.564237833,,,,,,,,,,,
1720622005.569020,0.035178000,0.000000000,0.000000000,-1.185800000,0.000000000,0.000000000,0.980980000,0.000000000,0.000000000,0.057600000,0.000000000,0.000000000,0.238400000,0.000000000,0.000000000,-0.048832000,0.000000000,0.000000000,1720622005.565237761,,,,,,,,,,,
1720622005.571485,0.035178000,0.000000000,0.000000000,-1.189573000,0.000000000,0.000000000,0.980980000,0.000000000,0.000000000,0.057600000,0.000000000,0.000000000,0.237728000,0.000000000,0.000000000,-0.050944000,0.000000000,0.000000000,1720622005.567237854,,,,,,,,,,,
1720622005.580747,0.035178000,0.000000000,0.000000000,-1.184183000,0.000000000,0.000000000,0.980980000,0.000000000,0.000000000,0.057600000,0.000000000,0.000000000,0.238400000,0.000000000,0.000000000,-0.050816000,0.000000000,0.000000000,1720622005.576237679,,,,,,,,,,,
1720622005.581708,0.035178000,0.000000000,0.000000000,-1.184183000,0.000000000,0.000000000,0.980980000,0.000000000,0.000000000,0.057600000,0.000000000,0.000000000,0.238400000,0.000000000,0.000000000,-0.050816000,0.000000000,0.000000000,1720622005.577237844,,,,,,,,,,,
1720622005.583270,0.035178000,0.000000000,0.000000000,-1.184183000,0.000000000,0.000000000,0.980980000,0.000000000,0.000000000,0.057600000,0.000000000,0.000000000,0.237184000,0.000000000,0.000000000,-0.048832000,0.000000000,0.000000000,1720622005.579237700,,,,,,,,,,,
1720622005.595283,0.035178000,0.000000000,0.000000000,-1.182566000,0.000000000,0.000000000,0.980980000,0.000000000,0.000000000,0.057600000,0.000000000,0.000000000,0.237984000,0.000000000,0.000000000,-0.050560000,0.000000000,0.000000000,1720622005.591237783,,,,,,,,,,,
1720622005.596023,,,,,,,,,,,,,,,,,,,,1720622005.591237783,-1.186824000,3.141592654,0.000000015,0.829037542,-0.000000022,-0.000000054,0.559192949,1.395152983,0.001110973,1.481517837
1720622005.603092,0.035178000,0.000000000,0.000000000,-1.182566000,0.000000000,0.000000000,0.980980000,0.000000000,0.000000000,0.057600000,0.000000000,0.000000000,0.238400000,0.000000000,0.000000000,-0.050368000,0.000000000,0.000000000,1720622005.599237680,,,,,,,,,,,
1720622005.612748,0.035178000,0.000000000,0.000000000,-1.182566000,0.000000000,0.000000000,0.980980000,0.000000000,0.000000000,0.057600000,0.000000000,0.000000000,0.237664000,0.000000000,0.000000000,-0.050016000,0.000000000,0.000000000,1720622005.608237743,,,,,,,,,,,
1720622005.613339,0.035178000,0.000000000,0.000000000,-1.182566000,0.000000000,0.000000000,0.980980000,0.000000000,0.000000000,0.057600000,0.000000000,0.000000000,0.237664000,0.000000000,0.000000000,-0.050016000,0.000000000,0.000000000,1720622005.609237671,,,,,,,,,,,
1720622005.615972,0.035178000,0.000000000,0.000000000,-1.183105000,0.000000000,0.000000000,0.980980000,0.000000000,0.000000000,0.057600000,0.000000000,0.000000000,0.237984000,0.000000000,0.000000000,-0.049760000,0.000000000,0.000000000,1720622005.610237837,,,,,,,,,,,
1720622005.624587,0.035178000,0.000000000,0.000000000,-1.183105000,0.000000000,0.000000000,0.980980000,0.000000000,0.000000000,0.057600000,0.000000000,0.000000000,0.237600000,0.000000000,0.000000000,-0.049824000,0.000000000,0.000000000,1720622005.620237827,,,,,,,,,,,
1720622005.625513,0.035178000,0.000000000,0.000000000,-1.183105000,0.000000000,0.000000000,0.980980000,0.000000000,0.000000000,0.057600000,0.000000000,0.000000000,0.237600000,0.000000000,0.000000000,-0.049824000,0.000000000,0.000000000,1720622005.621237755,,,,,,,,,,,
1720622005.632412,0.035178000,0.000000000,0.000000000,-1.183105000,0.000000000,0.000000000,0.980980000,0.000000000,0.000000000,0.057600000,0.000000000,0.000000000,0.238400000,0.000000000,0.000000000,-0.049312000,0.000000000,0.000000000,1720622005.623237848,,,,,,,,,,,
1720622005.639029,0.033176000,0.000000000,0.000000000,-1.183105000,0.000000000,0.000000000,0.980980000,0.000000000,0.000000000,0.057536000,0.000000000,0.000000000,0.237792000,0.000000000,0.000000000,-0.049696000,0.000000000,0.000000000,1720622005.634237766,,,,,,,,,,,
1720622005.649524,0.033176000,0.000000000,0.000000000,-1.183105000,0.000000000,0.000000000,0.980980000,0.000000000,0.000000000,0.057536000,0.000000000,0.000000000,0.237856000,0.000000000,0.000000000,-0.051104000,0.000000000,0.000000000,1720622005.645237684,,,,,,,,,,,
1720622005.656271,,,,,,,,,,,,,,,,,,,,1720622005.645237684,-1.186824000,3.141592654,0.000000015,0.829037542,-0.000000022,-0.000000054,0.559192949,1.395152983,0.001110973,1.481517837
1720622005.660442,0.036894000,0.000000000,0.000000000,-1.183105000,0.000000000,0.000000000,0.980980000,0.000000000,0.000000000,0.057536000,0.000000000,0.000000000,0.237792000,0.000000000,0.000000000,-0.047968000,0.000000000,0.000000000,1720622005.656237841,,,,,,,,,,,
1720622005.669301,0.036894000,0.000000000,0.000000000,-1.181488000,0.000000000,0.000000000,0.980408000,0.000000000,0.000000000,0.057600000,0.000000000,0.000000000,0.237792000,0.000000000,0.000000000,-0.048704000,0.000000000,0.000000000,1720622005.665237665,,,,,,,,,,,
1720622005.680596,0.036322000,0.000000000,0.000000000,-1.177176000,0.000000000,0.000000000,0.980408000,0.000000000,0.000000000,0.057536000,0.000000000,0.000000000,0.238400000,0.000000000,0.000000000,-0.050432000,0.000000000,0.000000000,1720622005.676237822,,,,,,,,,,,
1720622005.687488,0.035750000,0.000000000,0.000000000,-1.174481000,0.000000000,0.000000000,0.980408000,0.000000000,0.000000000,0.057600000,0.000000000,0.000000000,0.238784000,0.000000000,0.000000000,-0.050688000,0.000000000,0.000000000,1720622005.683237791,,,,,,,,,,,
1720622005.688773,0.035750000,0.000000000,0.000000000,-1.174481000,0.000000000,0.000000000,0.980408000,0.000000000,0.000000000,0.057600000,0.000000000,0.000000000,0.238784000,0.000000000,0.000000000,-0.050688000,0.000000000,0.000000000,1720622005.684237719,,,,,,,,,,,
1720622005.700538,0.035750000,0.000000000,0.000000000,-1.185800000,0.000000000,0.000000000,0.980408000,0.000000000,0.000000000,0.057600000,0.000000000,0.000000000,0.236992000,0.000000000,0.000000000,-0.050080000,0.000000000,0.000000000,1720622005.691237688,,,,,,,,,,,
1720622005.701885,0.035750000,0.000000000,0.000000000,-1.164779000,0.000000000,0.000000000,0.980408000,0.000000000,0.000000000,0.057600000,0.000000000,0.000000000,0.237984000,0.000000000,0.000000000,-0.049888000,0.000000000,0.000000000,1720622005.697237730,,,,,,,,,,,
1720622005.706313,,,,,,,,,,,,,,,,,,,,1720622005.697237730,-1.186824000,3.141592654,0.000000015,0.829037542,-0.000000022,-0.000000054,0.559192949,1.395152983,0.001110973,1.481517837
1720622005.713473,0.035750000,0.000000000,0.000000000,-1.183105000,0.000000000,0.000000000,0.980408000,0.000000000,0.000000000,0.057600000,0.000000000,0.000000000,0.237792000,0.000000000,0.000000000,-0.049440000,0.000000000,0.000000000,1720622005.709237814,,,,,,,,,,,
1720622005.722979,0.035750000,0.000000000,0.000000000,-1.185800000,0.000000000,0.000000000,0.980408000,0.000000000,0.000000000,0.057600000,0.000000000,0.000000000,0.237856000,0.000000000,0.000000000,-0.049568000,0.000000000,0.000000000,1720622005.717237711,,,,,,,,,,,
1720622005.733060,0.035750000,0.000000000,0.000000000,-1.185800000,0.000000000,0.000000000,0.980408000,0.000000000,0.000000000,0.057536000,0.000000000,0.000000000,0.237664000,0.000000000,0.000000000,-0.049024000,0.000000000,0.000000000,1720622005.728237629,,,,,,,,,,,
1720622005.733646,0.035750000,0.000000000,0.000000000,-1.185800000,0.000000000,0.000000000,0.980408000,0.000000000,0.000000000,0.057536000,0.000000000,0.000000000,0.237664000,0.000000000,0.000000000,-0.049024000,0.000000000,0.000000000,1720622005.729237795,,,,,,,,,,,
1720622005.735893,0.035750000,0.000000000,0.000000000,-1.185261000,0.000000000,0.000000000,0.980408000,0.000000000,0.000000000,0.057600000,0.000000000,0.000000000,0.237984000,0.000000000,0.000000000,-0.050816000,0.000000000,0.000000000,1720622005.731237650,,,,,,,,,,,
1720622005.740434,0.035750000,0.000000000,0.000000000,-1.184183000,0.000000000,0.000000000,0.980408000,0.000000000,0.000000000,0.057600000,0.000000000,0.000000000,0.238048000,0.000000000,0.000000000,-0.048832000,0.000000000,0.000000000,1720622005.735237837,,,,,,,,,,,
1720622005.747896,0.035750000,0.000000000,0.000000000,-1.182566000,0.000000000,0.000000000,0.980408000,0.000000000,0.000000000,0.057536000,0.000000000,0.000000000,0.238400000,0.000000000,0.000000000,-0.049152000,0.000000000,0.000000000,1720622005.743237734,,,,,,,,,,,
1720622005.751829,0.035750000,0.000000000,0.000000000,-1.182566000,0.000000000,0.000000000,0.980408000,0.000000000,0.000000000,0.057600000,0.000000000,0.000000000,0.237536000,0.000000000,0.000000000,-0.049824000,0.000000000,0.000000000,1720622005.747237682,,,,,,,,,,,
1720622005.756398,,,,,,,,,,,,,,,,,,,,1720622005.747237682,-1.186824000,3.141592654,0.000000015,0.829037542,-0.000000022,-0.000000054,0.559192949,1.395152983,0.001110973,1.481517837
1720622005.759654,0.035750000,0.000000000,0.000000000,-1.182566000,0.000000000,0.000000000,0.980408000,0.000000000,0.000000000,0.057248000,0.000000000,0.000000000,0.238336000,0.000000000,0.000000000,-0.050016000,0.000000000,0.000000000,1720622005.755237818,,,,,,,,,,,
1720622005.763482,0.035750000,0.000000000,0.000000000,-1.182566000,0.000000000,0.000000000,0.980408000,0.000000000,0.000000000,0.057600000,0.000000000,0.000000000,0.237728000,0.000000000,0.000000000,-0.049952000,0.000000000,0.000000000,1720622005.759237766,,,,,,,,,,,
1720622005.772751,0.035750000,0.000000000,0.000000000,-1.182566000,0.000000000,0.000000000,0.980408000,0.000000000,0.000000000,0.057600000,0.000000000,0.000000000,0.237792000,0.000000000,0.000000000,-0.049312000,0.000000000,0.000000000,1720622005.768237829,,,,,,,,,,,
1720622005.776751,0.035750000,0.000000000,0.000000000,-1.182566000,0.000000000,0.000000000,0.980408000,0.000000000,0.000000000,0.057600000,0.000000000,0.000000000,0.237664000,0.000000000,0.000000000,-0.050176000,0.000000000,0.000000000,1720622005.772237778,,,,,,,,,,,
1720622005.783796,0.035750000,0.000000000,0.000000000,-1.180410000,0.000000000,0.000000000,0.980408000,0.000000000,0.000000000,0.057600000,0.000000000,0.000000000,0.237856000,0.000000000,0.000000000,-0.049376000,0.000000000,0.000000000,1720622005.779237747,,,,,,,,,,,
1720622005.784672,0.035750000,0.000000000,0.000000000,-1.180410000,0.000000000,0.000000000,0.980408000,0.000000000,0.000000000,0.057600000,0.000000000,0.000000000,0.237856000,0.000000000,0.000000000,-0.049376000,0.000000000,0.000000000,1720622005.780237675,,,,,,,,,,,
1720622005.788570,0.035750000,0.000000000,0.000000000,-1.187417000,0.000000000,0.000000000,0.980408000,0.000000000,0.000000000,0.057600000,0.000000000,0.000000000,0.237984000,0.000000000,0.000000000,-0.049696000,0.000000000,0.000000000,1720622005.784237862,,,,,,,,,,,
1720622005.795785,0.035750000,0.000000000,0.000000000,-1.159389000,0.000000000,0.000000000,0.980408000,0.000000000,0.000000000,0.057600000,0.000000000,0.000000000,0.238176000,0.000000000,0.000000000,-0.049216000,0.000000000,0.000000000,1720622005.791237831,,,,,,,,,,,
1720622005.796374,0.035750000,0.000000000,0.000000000,-1.159389000,0.000000000,0.000000000,0.980408000,0.000000000,0.000000000,0.057600000,0.000000000,0.000000000,0.238176000,0.000000000,0.000000000,-0.049216000,0.000000000,0.000000000,1720622005.792237759,,,,,,,,,,,
1720622005.800589,0.035750000,0.000000000,0.000000000,-1.176098000,0.000000000,0.000000000,0.980408000,0.000000000,0.000000000,0.057600000,0.000000000,0.000000000,0.237920000,0.000000000,0.000000000,-0.050304000,0.000000000,0.000000000,1720622005.796237707,,,,,,,,,,,
1720622005.807767,0.035750000,0.000000000,0.000000000,-1.185800000,0.000000000,0.000000000,0.981838000,0.000000000,0.000000000,0.057536000,0.000000000,0.000000000,0.238336000,0.000000000,0.000000000,-0.050240000,0.000000000,0.000000000,1720622005.803237677,,,,,,,,,,,
1720622005.808641,0.035750000,0.000000000,0.000000000,-1.185800000,0.000000000,0.000000000,0.981838000,0.000000000,0.000000000,0.057536000,0.000000000,0.000000000,0.238336000,0.000000000,0.000000000,-0.050240000,0.000000000,0.000000000,1720622005.804237843,,,,,,,,,,,
1720622005.813276,0.034892000,0.000000000,0.000000000,-1.192807000,0.000000000,0.000000000,0.980408000,0.000000000,0.000000000,0.057600000,0.000000000,0.000000000,0.238112000,0.000000000,0.000000000,-0.049216000,0.000000000,0.000000000,1720622005.808237791,,,,,,,,,,,
1720622005.816248,,,,,,,,,,,,,,,,,,,,1720622005.803237677,-1.186824000,3.141592654,0.000000015,0.829037542,-0.000000022,-0.000000054,0.559192949,1.395152983,0.001110973,1.481517837
1720622005.819731,0.035178000,0.000000000,0.000000000,-1.190112000,0.000000000,0.000000000,0.980408000,0.000000000,0.000000000,0.057600000,0.000000000,0.000000000,0.237984000,0.000000000,0.000000000,-0.048288000,0.000000000,0.000000000,1720622005.815237761,,,,,,,,,,,
1720622005.820748,0.035178000,0.000000000,0.000000000,-1.190112000,0.000000000,0.000000000,0.980408000,0.000000000,0.000000000,0.057600000,0.000000000,0.000000000,0.237984000,0.000000000,0.000000000,-0.048288000,0.000000000,0.000000000,1720622005.816237688,,,,,,,,,,,
1720622005.824634,0.035750000,0.000000000,0.000000000,-1.184183000,0.000000000,0.000000000,0.980408000,0.000000000,0.000000000,0.057600000,0.000000000,0.000000000,0.238912000,0.000000000,0.000000000,-0.051232000,0.000000000,0.000000000,1720622005.820237637,,,,,,,,,,,
1720622005.832230,0.035750000,0.000000000,0.000000000,-1.184183000,0.000000000,0.000000000,0.980408000,0.000000000,0.000000000,0.057920000,0.000000000,0.000000000,0.236928000,0.000000000,0.000000000,-0.050368000,0.000000000,0.000000000,1720622005.827237844,,,,,,,,,,,
