zakjeens/yaskawa_debug_materials/t10/joints.csv
__time,/joint_states/group_1/joint_1/effort,/joint_states/group_1/joint_1/position,/joint_states/group_1/joint_1/velocity,/joint_states/group_1/joint_2/effort,/joint_states/group_1/joint_2/position,/joint_states/group_1/joint_2/velocity,/joint_states/group_1/joint_3/effort,/joint_states/group_1/joint_3/position,/joint_states/group_1/joint_3/velocity,/joint_states/group_1/joint_4/effort,/joint_states/group_1/joint_4/position,/joint_states/group_1/joint_4/velocity,/joint_states/group_1/joint_5/effort,/joint_states/group_1/joint_5/position,/joint_states/group_1/joint_5/velocity,/joint_states/group_1/joint_6/effort,/joint_states/group_1/joint_6/position,/joint_states/group_1/joint_6/velocity,/joint_states/header/stamp,/world_to_torch/header/header/stamp,/world_to_torch/transform/rotation/pitch,/world_to_torch/transform/rotation/roll,/world_to_torch/transform/rotation/w,/world_to_torch/transform/rotation/x,/world_to_torch/transform/rotation/y,/world_to_torch/transform/rotation/yaw,/world_to_torch/transform/rotation/z,/world_to_torch/transform/translation/x,/world_to_torch/transform/translation/y,/world_to_torch/transform/translation/z
1720620064.530036,0.026026000,0.000000000,0.000000000,-1.220296000,0.000000000,0.000000000,1.012726000,0.000000000,0.000000000,0.045984000,0.000000000,0.000000000,0.234880000,0.000000000,0.000000000,-0.049760000,0.000000000,0.000000000,1720620064.515935421,,,,,,,,,,,
1720620064.530048,0.026026000,0.000000000,0.000000000,-1.220296000,0.000000000,0.000000000,1.012726000,0.000000000,0.000000000,0.045984000,0.000000000,0.000000000,0.235072000,0.000000000,0.000000000,-0.049568000,0.000000000,0.000000000,1720620064.517935276,,,,,,,,,,,
1720620064.536887,0.026026000,0.000000000,0.000000000,-1.220296000,0.000000000,0.000000000,1.012726000,0.000000000,0.000000000,0.045984000,0.000000000,0.000000000,0.235872000,0.000000000,0.000000000,-0.048896000,0.000000000,0.000000000,1720620064.526935339,,,,,,,,,,,
1720620064.537434,0.026026000,0.000000000,0.000000000,-1.220296000,0.000000000,0.000000000,1.012726000,0.000000000,0.000000000,0.045984000,0.000000000,0.000000000,0.235872000,0.000000000,0.000000000,-0.048896000,0.000000000,0.000000000,1720620064.527935266,,,,,,,,,,,
1720620064.540653,0.026026000,0.000000000,0.000000000,-1.220296000,0.000000000,0.000000000,1.012726000,0.000000000,0.000000000,0.045984000,0.000000000,0.000000000,0.234208000,0.000000000,0.000000000,-0.050176000,0.000038380,0.009134350,1720620064.528935432,,,,,,,,,,,
1720620064.549188,0.026026000,0.000000000,0.000000000,-1.220296000,0.000000000,0.000000000,1.012726000,0.000000000,0.000000000,0.045984000,0.000000000,0.000000000,0.235680000,0.000000000,0.000000000,-0.050080000,0.000038380,0.009134350,1720620064.538935423,,,,,,,,,,,
1720620064.549904,0.026026000,0.000000000,0.000000000,-1.220296000,0.000000000,0.000000000,1.012726000,0.000000000,0.000000000,0.045984000,0.000000000,0.000000000,0.235680000,0.000000000,0.000000000,-0.050080000,0.000038380,0.009134350,1720620064.539935350,,,,,,,,,,,
1720620064.551576,0.026026000,0.000000000,0.000000000,-1.220296000,0.000000000,0.000000000,1.012726000,0.000000000,0.000000000,0.045984000,0.000000000,0.000000000,0.235680000,0.000000000,0.000000000,-0.048960000,0.000000000,0.009134350,1720620064.541935444,,,,,,,,,,,
1720620064.553139,0.026026000,0.000000000,0.000000000,-1.220296000,0.000000000,0.000000000,1.012726000,0.000000000,0.000000000,0.045984000,0.000000000,0.000000000,0.235680000,0.000000000,0.000000000,-0.048960000,0.000000000,0.009134350,1720620064.542935371,,,,,,,,,,,
1720620064.556637,0.026026000,0.000000000,0.000000000,-1.221374000,0.000000000,0.000000000,1.012726000,0.000000000,0.000000000,0.045984000,0.000000000,0.000000000,0.235680000,0.000000000,0.000000000,-0.050624000,0.000038380,0.009134350,1720620064.546935320,,,,,,,,,,,
1720620064.564017,0.026026000,0.000000000,0.000000000,-1.220296000,0.000000000,0.000000000,1.012726000,0.000000000,0.000000000,0.045984000,0.000000000,0.000000000,0.235520000,0.000000000,0.000000000,-0.049568000,0.000000000,0.000000000,1720620064.553935289,,,,,,,,,,,
1720620064.564875,0.026026000,0.000000000,0.000000000,-1.220296000,0.000000000,0.000000000,1.012726000,0.000000000,0.000000000,0.045984000,0.000000000,0.000000000,0.235520000,0.000000000,0.000000000,-0.049568000,0.000000000,0.000000000,1720620064.554935455,,,,,,,,,,,
1720620064.568392,0.026026000,0.000000000,0.000000000,-1.220296000,0.000000000,0.000000000,1.012726000,0.000000000,0.000000000,0.045984000,0.000000000,0.000000000,0.235200000,0.000000000,0.000000000,-0.049952000,0.000000000,0.000000000,1720620064.558935404,,,,,,,,,,,
1720620064.576903,0.026026000,0.000000000,0.000000000,-1.191190000,0.000000000,0.000000000,1.012726000,0.000000000,0.000000000,0.045984000,0.000000000,0.000000000,0.234464000,0.000000000,0.000000000,-0.049888000,0.000000000,0.000000000,1720620064.566935301,,,,,,,,,,,
1720620064.580758,0.026026000,0.000000000,0.000000000,-1.241317000,0.000000000,0.000000000,1.012726000,0.000000000,0.000000000,0.045984000,0.000000000,0.000000000,0.235136000,0.000000000,0.000000000,-0.049504000,0.000000000,0.000000000,1720620064.570935488,,,,,,,,,,,
1720620064.587962,0.026026000,0.000000000,0.000000000,-1.217062000,0.000000000,0.000000000,1.012726000,0.000000000,0.000000000,0.045984000,0.000000000,0.000000000,0.234944000,0.000000000,0.000000000,-0.048832000,0.000000000,0.000000000,1720620064.577935457,,,,,,,,,,,
1720620064.588795,0.026026000,0.000000000,0.000000000,-1.217062000,0.000000000,0.000000000,1.012726000,0.000000000,0.000000000,0.045984000,0.000000000,0.000000000,0.234944000,0.000000000,0.000000000,-0.048832000,0.000000000,0.000000000,1720620064.578935385,,,,,,,,,,,
1720620064.592631,0.026026000,0.000000000,0.000000000,-1.217062000,0.000000000,0.000000000,1.012726000,0.000000000,0.000000000,0.045984000,0.000000000,0.000000000,0.235744000,0.000000000,0.000000000,-0.050240000,0.000038380,0.009134350,1720620064.582935333,,,,,,,,,,,
1720620064.598843,,,,,,,,,,,,,,,,,,,,1720620064.578935385,-1.186824000,3.141592654,0.000000015,0.829037542,-0.000000022,-0.000000054,0.559192949,1.395152983,0.001110973,1.481517837
1720620064.599775,0.026026000,0.000000000,0.000000000,-1.217601000,0.000000000,0.000000000,1.012726000,0.000000000,0.000000000,0.045984000,0.000000000,0.000000000,0.235808000,0.000000000,0.000000000,-0.049568000,0.000000000,0.000000000,1720620064.589935303,,,,,,,,,,,
1720620064.601077,0.026026000,0.000000000,0.000000000,-1.217601000,0.000000000,0.000000000,1.012726000,0.000000000,0.000000000,0.045984000,0.000000000,0.000000000,0.235808000,0.000000000,0.000000000,-0.049568000,0.000000000,0.000000000,1720620064.590935469,,,,,,,,,,,
1720620064.607773,0.026026000,0.000000000,0.000000000,-1.218679000,0.000000000,0.000000000,1.012726000,0.000000000,0.000000000,0.045984000,0.000000000,0.000000000,0.235008000,0.000000000,0.000000000,-0.050176000,0.000000000,0.000000000,1720620064.597935438,,,,,,,,,,,
1720620064.615449,0.026026000,0.000000000,0.000000000,-1.218679000,0.000000000,0.000000000,1.012726000,0.000000000,0.000000000,0.045984000,0.000000000,0.000000000,0.235328000,0.000000000,0.000000000,-0.048832000,0.000000000,0.000000000,1720620064.603935480,,,,,,,,,,,
1720620064.624401,0.026026000,0.000000000,0.000000000,-1.218679000,0.000000000,0.000000000,1.012726000,0.000000000,0.000000000,0.045984000,0.000000000,0.000000000,0.235072000,0.000000000,0.000000000,-0.051168000,0.000038380,0.009134350,1720620064.613935471,,,,,,,,,,,
1720620064.625015,0.026026000,0.000000000,0.000000000,-1.218679000,0.000000000,0.000000000,1.012726000,0.000000000,0.000000000,0.045984000,0.000000000,0.000000000,0.235072000,0.000000000,0.000000000,-0.051168000,0.000038380,0.009134350,1720620064.614935398,,,,,,,,,,,
1720620064.625899,0.026026000,0.000000000,0.000000000,-1.218679000,0.000000000,0.000000000,1.012726000,0.000000000,0.000000000,0.045984000,0.000000000,0.000000000,0.235072000,0.000000000,0.000000000,-0.051168000,0.000038380,0.009134350,1720620064.615935326,,,,,,,,,,,
1720620064.627802,0.026026000,0.000000000,0.000000000,-1.218679000,0.000000000,0.000000000,1.012726000,0.000000000,0.000000000,0.045984000,0.000000000,0.000000000,0.235264000,0.000000000,0.000000000,-0.048512000,0.000000000,0.009134350,1720620064.617935419,,,,,,,,,,,
1720620064.632338,0.026026000,0.000000000,0.000000000,-1.187417000,0.000000000,0.000000000,1.012726000,0.000000000,0.000000000,0.045984000,0.000000000,0.000000000,0.235264000,0.000000000,0.000000000,-0.050016000,0.000038380,0.009134350,1720620064.621935368,,,,,,,,,,,
1720620064.639991,0.026026000,0.000000000,0.000000000,-1.221374000,0.000000000,0.000000000,1.012726000,0.000000000,0.000000000,0.045984000,0.000000000,0.000000000,0.234880000,0.000000000,0.000000000,-0.049952000,0.000038380,0.009134350,1720620064.629935265,,,,,,,,,,,
1720620064.644069,0.026026000,0.000000000,0.000000000,-1.221374000,0.000000000,0.000000000,1.012726000,0.000000000,0.000000000,0.045984000,0.000000000,0.000000000,0.235808000,0.000000000,0.000000000,-0.049216000,0.000000000,0.009134350,1720620064.633935452,,,,,,,,,,,
1720620064.648611,,,,,,,,,,,,,,,,,,,,1720620064.629935265,-1.186823998,3.141490200,0.000015924,0.829037542,0.000010709,0.000094939,0.559192948,1.395152983,0.001108959,1.481517794
1720620064.664956,0.024024000,0.000000000,0.000000000,-1.219218000,0.000000000,0.000000000,1.012726000,0.000000000,0.000000000,0.045920000,0.000000000,0.000000000,0.235808000,0.000000000,0.000000000,-0.049152000,0.000000000,0.000000000,1720620064.646935463,,,,,,,,,,,
1720620064.666072,0.024596000,0.000000000,0.000000000,-1.208977000,0.000000000,0.000000000,1.012726000,0.000000000,0.000000000,0.045984000,0.000000000,0.000000000,0.235136000,0.000000000,0.000000000,-0.048832000,0.000000000,0.000000000,1720620064.655935287,,,,,,,,,,,
1720620064.667964,0.024596000,0.000000000,0.000000000,-1.214906000,0.000000000,0.000000000,1.012726000,0.000000000,0.000000000,0.045984000,0.000000000,0.000000000,0.235072000,0.000000000,0.000000000,-0.050560000,0.000038380,0.009134350,1720620064.657935381,,,,,,,,,,,
1720620064.672065,0.024882000,0.000000000,0.000000000,-1.214906000,0.000000000,0.000000000,1.012726000,0.000000000,0.000000000,0.045984000,0.000000000,0.000000000,0.235072000,0.000000000,0.000000000,-0.048448000,0.000000000,0.009134350,1720620064.661935329,,,,,,,,,,,
1720620064.680219,0.026026000,0.000000000,0.000000000,-1.213289000,0.000000000,0.000000000,1.012726000,0.000000000,0.000000000,0.045984000,0.000000000,0.000000000,0.235808000,0.000000000,0.000000000,-0.049088000,0.000000000,0.009134350,1720620064.669935465,,,,,,,,,,,
1720620064.684023,0.026026000,0.000000000,0.000000000,-1.215984000,0.000000000,0.000000000,1.012726000,0.000000000,0.000000000,0.045984000,0.000000000,0.000000000,0.234944000,0.000000000,0.000000000,-0.049824000,0.000000000,0.000000000,1720620064.673935413,,,,,,,,,,,
1720620064.691932,0.026026000,0.000000000,0.000000000,-1.217601000,0.000000000,0.000000000,1.012726000,0.000000000,0.000000000,0.046304000,0.000000000,0.000000000,0.235680000,0.000000000,0.000000000,-0.049824000,0.000000000,0.000000000,1720620064.681935310,,,,,,,,,,,
1720620064.695843,0.026026000,0.000000000,0.000000000,-1.217601000,0.000000000,0.000000000,1.012726000,0.000000000,0.000000000,0.045984000,0.000000000,0.000000000,0.235072000,0.000000000,0.000000000,-0.049024000,0.000000000,0.000000000,1720620064.685935497,,,,,,,,,,,
1720620064.698754,,,,,,,,,,,,,,,,,,,,1720620064.681935310,-1.186824000,3.141592654,0.000000015,0.829037542,-0.000000022,-0.000000054,0.559192949,1.395152983,0.001110973,1.481517837
1720620064.704919,0.026026000,0.000000000,0.000000000,-1.229998000,0.000000000,0.000000000,1.012726000,0.000000000,0.000000000,0.045984000,0.000000000,0.000000000,0.235072000,0.000000000,0.000000000,-0.049216000,0.000000000,0.000000000,1720620064.693935394,,,,,,,,,,,
1720620064.706440,0.026026000,0.000000000,0.000000000,-1.229998000,0.000000000,0.000000000,1.012726000,0.000000000,0.000000000,0.045984000,0.000000000,0.000000000,0.235072000,0.000000000,0.000000000,-0.049216000,0.000000000,0.000000000,1720620064.695935488,,,,,,,,,,,
1720620064.709118,0.026026000,0.000000000,0.000000000,-1.209516000,0.000000000,0.000000000,1.012726000,0.000000000,0.000000000,0.046368000,0.000000000,0.000000000,0.235456000,0.000000000,0.000000000,-0.050240000,0.000000000,0.000000000,1720620064.698935270,,,,,,,,,,,
1720620064.721351,0.046046000,0.000000000,0.000000000,-1.192807000,0.000000000,0.000000000,1.012726000,0.000000000,0.000000000,0.045984000,0.000000000,0.000000000,0.235328000,0.000000000,0.000000000,-0.049952000,0.000000000,0.000000000,1720620064.710935354,,,,,,,,,,,
1720620064.728190,0.024882000,0.000000000,0.000000000,-1.219218000,0.000000000,0.000000000,1.012726000,0.000000000,0.000000000,0.045984000,0.000000000,0.000000000,0.234752000,0.000000000,0.000000000,-0.049312000,0.000000000,0.000000000,1720620064.717935324,,,,,,,,,,,
1720620064.729242,0.024882000,0.000000000,0.000000000,-1.219218000,0.000000000,0.000000000,1.012726000,0.000000000,0.000000000,0.045984000,0.000000000,0.000000000,0.234752000,0.000000000,0.000000000,-0.049312000,0.000000000,0.000000000,1720620064.718935490,,,,,,,,,,,
1720620064.733804,0.024882000,0.000000000,0.000000000,-1.212211000,0.000000000,0.000000000,1.012726000,0.000000000,0.000000000,0.045984000,0.000000000,0.000000000,0.235072000,0.000000000,0.000000000,-0.049952000,0.000038380,0.009134350,1720620064.722935438,,,,,,,,,,,
1720620064.740347,0.024882000,0.000000000,0.000000000,-1.220296000,0.000000000,0.000000000,1.012726000,0.000000000,0.000000000,0.045984000,0.000000000,0.000000000,0.235328000,0.000000000,0.000000000,-0.050016000,0.000038380,0.009134350,1720620064.729935408,,,,,,,,,,,
1720620064.741385,0.024882000,0.000000000,0.000000000,-1.220296000,0.000000000,0.000000000,1.012726000,0.000000000,0.000000000,0.045984000,0.000000000,0.000000000,0.235328000,0.000000000,0.000000000,-0.050016000,0.000038380,0.009134350,1720620064.730935335,,,,,,,,,,,
1720620064.745057,0.025454000,0.000000000,0.000000000,-1.221374000,0.000000000,0.000000000,1.012726000,0.000000000,0.000000000,0.045984000,0.000000000,0.000000000,0.234880000,0.000000000,0.000000000,-0.049312000,0.000000000,0.009134350,1720620064.734935284,,,,,,,,,,,
1720620064.748827,,,,,,,,,,,,,,,,,,,,1720620064.734935284,-1.186824000,3.141592654,0.000000015,0.829037542,-0.000000022,-0.000000054,0.559192949,1.395152983,0.001110973,1.481517837
1720620064.752111,0.026026000,0.000000000,0.000000000,-1.221374000,0.000000000,0.000000000,1.012726000,0.000000000,0.000000000,0.045984000,0.000000000,0.000000000,0.235680000,0.000000000,0.000000000,-0.050176000,0.000038380,0.009134350,1720620064.741935492,,,,,,,,,,,
1720620064.753657,0.026026000,0.000000000,0.000000000,-1.221374000,0.000000000,0.000000000,1.012726000,0.000000000,0.000000000,0.045984000,0.000000000,0.000000000,0.235680000,0.000000000,0.000000000,-0.050176000,0.000038380,0.009134350,1720620064.742935419,,,,,,,,,,,
1720620064.756814,0.026026000,0.000000000,0.000000000,-1.192268000,0.000000000,0.000000000,1.012726000,0.000000000,0.000000000,0.045984000,0.000000000,0.000000000,0.234592000,0.000000000,0.000000000,-0.049024000,0.000000000,0.009134350,1720620064.746935368,,,,,,,,,,,
1720620064.764736,0.026026000,0.000000000,0.000000000,-1.220296000,0.000000000,0.000000000,1.012726000,0.000000000,0.000000000,0.045984000,0.000000000,0.000000000,0.235392000,0.000000000,0.000000000,-0.049504000,0.000000000,0.000000000,1720620064.753935337,,,,,,,,,,,
1720620064.764787,0.026026000,0.000000000,0.000000000,-1.220296000,0.000000000,0.000000000,1.012726000,0.000000000,0.000000000,0.045984000,0.000000000,0.000000000,0.235392000,0.000000000,0.000000000,-0.049504000,0.000000000,0.000000000,1720620064.754935265,,,,,,,,,,,
1720620064.769088,0.026026000,0.000000000,0.000000000,-1.220296000,0.000000000,0.000000000,1.012726000,0.000000000,0.000000000,0.045984000,0.000000000,0.000000000,0.235584000,0.000000000,0.000000000,-0.049312000,0.000000000,0.000000000,1720620064.758935452,,,,,,,,,,,
1720620064.776399,0.026026000,0.000000000,0.000000000,-1.220296000,0.000000000,0.000000000,1.012726000,0.000000000,0.000000000,0.045984000,0.000000000,0.000000000,0.234752000,0.000000000,0.000000000,-0.049376000,0.000000000,0.000000000,1720620064.765935421,,,,,,,,,,,
1720620064.777361,0.026026000,0.000000000,0.000000000,-1.220296000,0.000000000,0.000000000,1.012726000,0.000000000,0.000000000,0.045984000,0.000000000,0.000000000,0.234752000,0.000000000,0.000000000,-0.049376000,0.000000000,0.000000000,1720620064.766935349,,,,,,,,,,,
1720620064.781050,0.026026000,0.000000000,0.000000000,-1.220296000,0.000000000,0.000000000,1.012726000,0.000000000,0.000000000,0.045984000,0.000000000,0.000000000,0.235328000,0.000000000,0.000000000,-0.049696000,0.000000000,0.000000000,1720620064.770935297,,,,,,,,,,,
1720620064.788298,0.026026000,0.000000000,0.000000000,-1.220296000,0.000000000,0.000000000,1.012726000,0.000000000,0.000000000,0.045984000,0.000000000,0.000000000,0.235264000,0.000000000,0.000000000,-0.050624000,0.000038380,0.009134350,1720620064.777935266,,,,,,,,,,,
1720620064.789162,0.026026000,0.000000000,0.000000000,-1.220296000,0.000000000,0.000000000,1.012726000,0.000000000,0.000000000,0.045984000,0.000000000,0.000000000,0.235264000,0.000000000,0.000000000,-0.050624000,0.000038380,0.009134350,1720620064.778935432,,,,,,,,,,,
1720620064.793641,0.026026000,0.000000000,0.000000000,-1.219218000,0.000000000,0.000000000,1.012726000,0.000000000,0.000000000,0.045984000,0.000000000,0.000000000,0.235008000,0.000000000,0.000000000,-0.048640000,0.000000000,0.009134350,1720620064.782935381,,,,,,,,,,,
1720620064.800350,0.026026000,0.000000000,0.000000000,-1.215984000,0.000000000,0.000000000,1.012726000,0.000000000,0.000000000,0.045984000,0.000000000,0.000000000,0.235936000,0.000000000,0.000000000,-0.049216000,0.000000000,0.000000000,1720620064.789935350,,,,,,,,,,,
1720620064.801489,0.026026000,0.000000000,0.000000000,-1.215984000,0.000000000,0.000000000,1.012726000,0.000000000,0.000000000,0.045984000,0.000000000,0.000000000,0.235936000,0.000000000,0.000000000,-0.049216000,0.000000000,0.000000000,1720620064.790935278,,,,,,,,,,,
1720620064.808191,0.026026000,0.000000000,0.000000000,-1.217601000,0.000000000,0.000000000,1.012726000,0.000000000,0.000000000,0.046048000,0.000000000,0.000000000,0.234944000,0.000000000,0.000000000,-0.049312000,0.000000000,0.000000000,1720620064.797935486,,,,,,,,,,,
1720620064.808840,,,,,,,,,,,,,,,,,,,,1720620064.789935350,-1.186824000,3.141592654,0.000000015,0.829037542,-0.000000022,-0.000000054,0.559192949,1.395152983,0.001110973,1.481517837
1720620064.815394,0.026026000,0.000000000,0.000000000,-1.238083000,0.000000000,0.000000000,1.012726000,0.000000000,0.000000000,0.046048000,0.000000000,0.000000000,0.235456000,0.000000000,0.000000000,-0.049568000,0.000000000,0.000000000,1720620064.804935455,,,,,,,,,,,
1720620064.820091,0.026026000,0.000000000,0.000000000,-1.207899000,0.000000000,0.000000000,1.012726000,0.000000000,0.000000000,0.046048000,0.000000000,0.000000000,0.234880000,0.000000000,0.000000000,-0.049632000,0.000000000,0.000000000,1720620064.809935331,,,,,,,,,,,
1720620064.827379,0.026026000,0.000000000,0.000000000,-1.213289000,0.000000000,0.000000000,1.012726000,0.000000000,0.000000000,0.046048000,0.000000000,0.000000000,0.235744000,0.000000000,0.000000000,-0.050304000,0.000038380,0.009134350,1720620064.816935301,,,,,,,,,,,
1720620064.836699,0.026026000,0.000000000,0.000000000,-1.217062000,0.000000000,0.000000000,1.012726000,0.000000000,0.000000000,0.046048000,0.000000000,0.000000000,0.235520000,0.000000000,0.000000000,-0.050752000,0.000038380,0.009134350,1720620064.825935364,,,,,,,,,,,
1720620064.837423,0.026026000,0.000000000,0.000000000,-1.217062000,0.000000000,0.000000000,1.012726000,0.000000000,0.000000000,0.046048000,0.000000000,0.000000000,0.235520000,0.000000000,0.000000000,-0.050752000,0.000038380,0.009134350,1720620064.826935291,,,,,,,,,,,
1720620064.838279,0.026026000,0.000000000,0.000000000,-1.217062000,0.000000000,0.000000000,1.012726000,0.000000000,0.000000000,0.046048000,0.000000000,0.000000000,0.235520000,0.000000000,0.000000000,-0.050752000,0.000038380,0.009134350,1720620064.827935457,,,,,,,,,,,
1720620064.840440,0.026026000,0.000000000,0.000000000,-1.218679000,0.000000000,0.000000000,1.012726000,0.000000000,0.000000000,0.046048000,0.000000000,0.000000000,0.235200000,0.000000000,0.000000000,-0.048576000,0.000000000,0.009134350,1720620064.829935312,,,,,,,,,,,
1720620064.844311,0.026026000,0.000000000,0.000000000,-1.220296000,0.000000000,0.000000000,1.012726000,0.000000000,0.000000000,0.046048000,0.000000000,0.000000000,0.235008000,0.000000000,0.000000000,-0.050496000,0.000038380,0.009134350,1720620064.833935499,,,,,,,,,,,
1720620064.852455,0.026026000,0.000000000,0.000000000,-1.221913000,0.000000000,0.000000000,1.012726000,0.000000000,0.000000000,0.046048000,0.000000000,0.000000000,0.235328000,0.000000000,0.000000000,-0.050496000,0.000038380,0.009134350,1720620064.841935396,,,,,,,,,,,
1720620064.856209,0.026026000,0.000000000,0.000000000,-1.221913000,0.000000000,0.000000000,1.012726000,0.000000000,0.000000000,0.046048000,0.000000000,0.000000000,0.235328000,0.000000000,0.000000000,-0.049024000,0.000000000,0.009134350,1720620064.845935345,,,,,,,,,,,
1720620064.858789,,,,,,,,,,,,,,,,,,,,1720620064.841935396,-1.186823998,3.141490200,0.000015924,0.829037542,0.000010709,0.000094939,0.559192948,1.395152983,0.001108959,1.481517794
1720620064.864543,0.026026000,0.000000000,0.000000000,-1.221374000,0.000000000,0.000000000,1.012726000,0.000000000,0.000000000,0.046112000,0.000000000,0.000000000,0.235680000,0.000000000,0.000000000,-0.049088000,0.000000000,0.009134350,1720620064.853935480,,,,,,,,,,,
1720620064.868063,0.026026000,0.000000000,0.000000000,-1.221374000,0.000000000,0.000000000,1.012726000,0.000000000,0.000000000,0.046112000,0.000000000,0.000000000,0.235456000,0.000000000,0.000000000,-0.050240000,0.000038380,0.009134350,1720620064.857935429,,,,,,,,,,,
1720620064.876625,0.024882000,0.000000000,0.000000000,-1.219218000,0.000000000,0.000000000,1.012726000,0.000000000,0.000000000,0.046112000,0.000000000,0.000000000,0.234752000,0.000000000,0.000000000,-0.049376000,0.000000000,0.000000000,1720620064.865935326,,,,,,,,,,,
1720620064.880082,0.024882000,0.000000000,0.000000000,-1.218679000,0.000000000,0.000000000,1.012726000,0.000000000,0.000000000,0.046112000,0.000000000,0.000000000,0.235328000,0.000000000,0.000000000,-0.049824000,0.000000000,0.000000000,1720620064.869935274,,,,,,,,,,,
1720620064.888742,0.025454000,0.000000000,0.000000000,-1.218679000,0.000000000,0.000000000,1.012726000,0.000000000,0.000000000,0.046112000,0.000000000,0.000000000,0.235200000,0.000000000,0.000000000,-0.049568000,0.000000000,0.000000000,1720620064.877935410,,,,,,,,,,,
1720620064.891989,0.026026000,0.000000000,0.000000000,-1.218679000,0.000000000,0.000000000,1.012726000,0.000000000,0.000000000,0.046112000,0.000000000,0.000000000,0.235520000,0.000000000,0.000000000,-0.050496000,0.000038380,0.009134350,1720620064.881935358,,,,,,,,,,,
1720620064.900470,0.026026000,0.000000000,0.000000000,-1.217601000,0.000000000,0.000000000,1.012726000,0.000000000,0.000000000,0.046112000,0.000000000,0.000000000,0.235072000,0.000000000,0.000000000,-0.050016000,0.000038380,0.009134350,1720620064.889935493,,,,,,,,,,,
1720620064.903797,0.026026000,0.000000000,0.000000000,-1.217601000,0.000000000,0.000000000,1.012726000,0.000000000,0.000000000,0.046112000,0.000000000,0.000000000,0.235520000,0.000000000,0.000000000,-0.049504000,0.000000000,0.009134350,1720620064.892935276,,,,,,,,,,,
1720620064.908901,,,,,,,,,,,,,,,,,,,,1720620064.892935276,-1.186824000,3.141592654,0.000000015,0.829037542,-0.000000022,-0.000000054,0.559192949,1.395152983,0.001110973,1.481517837
1720620064.912622,0.026026000,0.000000000,0.000000000,-1.217601000,0.000000000,0.000000000,1.012726000,0.000000000,0.000000000,0.045984000,0.000000000,0.000000000,0.235200000,0.000000000,0.000000000,-0.050240000,0.000038380,0.009134350,1720620064.901935339,,,,,,,,,,,
1720620064.916550,0.026026000,0.000000000,0.000000000,-1.247785000,0.000000000,0.000000000,1.012726000,0.000000000,0.000000000,0.045984000,0.000000000,0.000000000,0.234880000,0.000000000,0.000000000,-0.049504000,0.000000000,0.009134350,1720620064.905935287,,,,,,,,,,,
1720620064.924891,0.026026000,0.000000000,0.000000000,-1.221374000,0.000000000,0.000000000,1.012726000,0.000000000,0.000000000,0.045984000,0.000000000,0.000000000,0.235008000,0.000000000,0.000000000,-0.049568000,0.000000000,0.000000000,1720620064.913935423,,,,,,,,,,,
1720620064.927547,0.026026000,0.000000000,0.000000000,-1.193885000,0.000000000,0.000000000,1.012726000,0.000000000,0.000000000,0.045984000,0.000000000,0.000000000,0.235136000,0.000000000,0.000000000,-0.049888000,0.000000000,0.000000000,1720620064.916935444,,,,,,,,,,,
1720620064.935947,0.026026000,0.000000000,0.000000000,-1.221913000,0.000000000,0.000000000,1.012726000,0.000000000,0.000000000,0.045984000,0.000000000,0.000000000,0.235456000,0.000000000,0.000000000,-0.049216000,0.000000000,0.000000000,1720620064.924935341,,,,,,,,,,,
1720620064.939622,0.026026000,0.000000000,0.000000000,-1.221913000,0.000000000,0.000000000,1.012726000,0.000000000,0.000000000,0.046304000,0.000000000,0.000000000,0.234656000,0.000000000,0.000000000,-0.049760000,0.000000000,0.000000000,1720620064.928935289,,,,,,,,,,,
1720620064.947497,0.026026000,0.000000000,0.000000000,-1.221913000,0.000000000,0.000000000,1.012726000,0.000000000,0.000000000,0.046048000,0.000000000,0.000000000,0.235808000,0.000000000,0.000000000,-0.049632000,0.000000000,0.000000000,1720620064.936935425,,,,,,,,,,,
1720620064.959635,0.026026000,0.000000000,0.000000000,-1.220296000,0.000000000,0.000000000,1.012726000,0.000000000,0.000000000,0.045728000,0.000000000,0.000000000,0.235264000,0.000000000,0.000000000,-0.049952000,0.000000000,0.000000000,1720620064.948935270,,,,,,,,,,,
1720620064.967765,0.026026000,0.000000000,0.000000000,-1.210594000,0.000000000,0.000000000,1.012726000,0.000000000,0.000000000,0.046048000,0.000000000,0.000000000,0.235456000,0.000000000,0.000000000,-0.050176000,0.000000000,0.000000000,1720620064.956935406,,,,,,,,,,,
1720620064.968840,,,,,,,,,,,,,,,,,,,,1720620064.948935270,-1.186824000,3.141592654,0.000000015,0.829037542,-0.000000022,-0.000000054,0.559192949,1.395152983,0.001110973,1.481517837
1720620064.971563,0.026026000,0.000000000,0.000000000,-1.215984000,0.000000000,0.000000000,1.012726000,0.000000000,0.000000000,0.046048000,0.000000000,0.000000000,0.235328000,0.000000000,0.000000000,-0.048896000,0.000000000,0.000000000,1720620064.960935354,,,,,,,,,,,
1720620064.979644,0.026026000,0.000000000,0.000000000,-1.215984000,0.000000000,0.000000000,1.012726000,0.000000000,0.000000000,0.046048000,0.000000000,0.000000000,0.235680000,0.000000000,0.000000000,-0.049824000,0.000000000,0.000000000,1720620064.968935490,,,,,,,,,,,
1720620064.988834,0.026026000,0.000000000,0.000000000,-1.214367000,0.000000000,0.000000000,1.012726000,0.000000000,0.000000000,0.046112000,0.000000000,0.000000000,0.235072000,0.000000000,0.000000000,-0.049216000,0.000000000,0.000000000,1720620064.977935314,,,,,,,,,,,
1720620064.989570,0.026026000,0.000000000,0.000000000,-1.214367000,0.000000000,0.000000000,1.012726000,0.000000000,0.000000000,0.046112000,0.000000000,0.000000000,0.235072000,0.000000000,0.000000000,-0.049216000,0.000000000,0.000000000,1720620064.978935480,,,,,,,,,,,
1720620064.991676,0.026026000,0.000000000,0.000000000,-1.217601000,0.000000000,0.000000000,1.012726000,0.000000000,0.000000000,0.046048000,0.000000000,0.000000000,0.235072000,0.000000000,0.000000000,-0.049696000,0.000000000,0.000000000,1720620064.980935335,,,,,,,,,,,
1720620065.001036,0.026026000,0.000000000,0.000000000,-1.218679000,0.000000000,0.000000000,1.012726000,0.000000000,0.000000000,0.046048000,0.000000000,0.000000000,0.235744000,0.000000000,0.000000000,-0.049824000,0.000000000,0.000000000,1720620064.989935398,,,,,,,,,,,
1720620065.001905,0.026026000,0.000000000,0.000000000,-1.218679000,0.000000000,0.000000000,1.012726000,0.000000000,0.000000000,0.046048000,0.000000000,0.000000000,0.235744000,0.000000000,0.000000000,-0.049824000,0.000000000,0.000000000,1720620064.990935326,,,,,,,,,,,
1720620065.004733,0.026026000,0.000000000,0.000000000,-1.219218000,0.000000000,0.000000000,1.012726000,0.000000000,0.000000000,0.045984000,0.000000000,0.000000000,0.235072000,0.000000000,0.000000000,-0.048960000,0.000000000,0.000000000,1720620064.993935347,,,,,,,,,,,
1720620065.013185,0.026026000,0.000000000,0.000000000,-1.219218000,0.000000000,0.000000000,1.012726000,0.000000000,0.000000000,0.045984000,0.000000000,0.000000000,0.235808000,0.000000000,0.000000000,-0.048960000,0.000000000,0.000000000,1720620065.001935482,,,,,,,,,,,
1720620065.014466,0.026026000,0.000000000,0.000000000,-1.219218000,0.000000000,0.000000000,1.012726000,0.000000000,0.000000000,0.045984000,0.000000000,0.000000000,0.235808000,0.000000000,0.000000000,-0.048960000,0.000000000,0.000000000,1720620065.002935410,,,,,,,,,,,
1720620065.015982,0.026026000,0.000000000,0.000000000,-1.219218000,0.000000000,0.000000000,1.012726000,0.000000000,0.000000000,0.045984000,0.000000000,0.000000000,0.234656000,0.000000000,0.000000000,-0.050016000,0.000000000,0.000000000,1720620065.004935265,,,,,,,,,,,
1720620065.018987,,,,,,,,,,,,,,,,,,,,1720620065.001935482,-1.186824000,3.141592654,0.000000015,0.829037542,-0.000000022,-0.000000054,0.559192949,1.395152983,0.001110973,1.481517837
1720620065.025096,0.026026000,0.000000000,0.000000000,-1.218679000,0.000000000,0.000000000,1.012726000,0.000000000,0.000000000,0.045984000,0.000000000,0.000000000,0.235744000,0.000000000,0.000000000,-0.049824000,0.000000000,0.000000000,1720620065.013935328,,,,,,,,,,,
1720620065.026108,0.026026000,0.000000000,0.000000000,-1.218679000,0.000000000,0.000000000,1.012726000,0.000000000,0.000000000,0.045984000,0.000000000,0.000000000,0.235744000,0.000000000,0.000000000,-0.049824000,0.000000000,0.000000000,1720620065.014935493,,,,,,,,,,,
1720620065.027785,0.026026000,0.000000000,0.000000000,-1.218679000,0.000000000,0.000000000,1.012726000,0.000000000,0.000000000,0.045984000,0.000000000,0.000000000,0.235456000,0.000000000,0.000000000,-0.049024000,0.000000000,0.000000000,1720620065.016935349,,,,,,,,,,,
1720620065.037347,0.026026000,0.000000000,0.000000000,-1.218679000,0.000000000,0.000000000,1.012726000,0.000000000,0.000000000,0.045984000,0.000000000,0.000000000,0.235328000,0.000000000,0.000000000,-0.048704000,0.000000000,0.009134350,1720620065.025935411,,,,,,,,,,,
1720620065.037972,0.026026000,0.000000000,0.000000000,-1.218679000,0.000000000,0.000000000,1.012726000,0.000000000,0.000000000,0.045984000,0.000000000,0.000000000,0.235328000,0.000000000,0.000000000,-0.048704000,0.000000000,0.009134350,1720620065.026935339,,,,,,,,,,,
1720620065.040723,0.026026000,0.000000000,0.000000000,-1.218679000,0.000000000,0.000000000,1.012726000,0.000000000,0.000000000,0.045984000,0.000000000,0.000000000,0.235456000,0.000000000,0.000000000,-0.050176000,0.000038380,0.009134350,1720620065.027935266,,,,,,,,,,,
1720620065.049076,0.026026000,0.000000000,0.000000000,-1.218679000,0.000000000,0.000000000,1.012726000,0.000000000,0.000000000,0.046048000,0.000000000,0.000000000,0.235072000,0.000000000,0.000000000,-0.049024000,0.000000000,0.000000000,1720620065.037935495,,,,,,,,,,,
1720620065.049783,0.026026000,0.000000000,0.000000000,-1.218679000,0.000000000,0.000000000,1.012726000,0.000000000,0.000000000,0.046048000,0.000000000,0.000000000,0.235072000,0.000000000,0.000000000,-0.049024000,0.000000000,0.000000000,1720620065.038935423,,,,,,,,,,,
1720620065.051335,0.026026000,0.000000000,0.000000000,-1.218679000,0.000000000,0.000000000,1.012726000,0.000000000,0.000000000,0.046048000,0.000000000,0.000000000,0.234464000,0.000000000,0.000000000,-0.049824000,0.000000000,0.000000000,1720620065.039935350,,,,,,,,,,,
1720620065.051358,0.026026000,0.000000000,0.000000000,-1.218679000,0.000000000,0.000000000,1.012726000,0.000000000,0.000000000,0.046048000,0.000000000,0.000000000,0.234464000,0.000000000,0.000000000,-0.049824000,0.000000000,0.000000000,1720620065.040935278,,,,,,,,,,,
1720620065.052940,0.026026000,0.000000000,0.000000000,-1.218679000,0.000000000,0.000000000,1.012726000,0.000000000,0.000000000,0.046048000,0.000000000,0.000000000,0.234464000,0.000000000,0.000000000,-0.049824000,0.000000000,0.000000000,1720620065.041935444,,,,,,,,,,,
1720620065.059737,0.026026000,0.000000000,0.000000000,-1.220296000,0.000000000,0.000000000,1.012726000,0.000000000,0.000000000,0.046048000,0.000000000,0.000000000,0.235328000,0.000000000,0.000000000,-0.049152000,0.000000000,0.000000000,1720620065.046935320,,,,,,,,,,,
1720620065.064658,0.026026000,0.000000000,0.000000000,-1.218679000,0.000000000,0.000000000,1.012726000,0.000000000,0.000000000,0.046048000,0.000000000,0.000000000,0.235328000,0.000000000,0.000000000,-0.048832000,0.000000000,0.000000000,1720620065.053935289,,,,,,,,,,,
1720620065.068864,,,,,,,,,,,,,,,,,,,,1720620065.053935289,-1.186824000,3.141592654,0.000000015,0.829037542,-0.000000022,-0.000000054,0.559192949,1.395152983,0.001110973,1.481517837
1720620065.076273,0.026026000,0.000000000,0.000000000,-1.218679000,0.000000000,0.000000000,1.012726000,0.000000000,0.000000000,0.046048000,0.000000000,0.000000000,0.234944000,0.000000000,0.000000000,-0.050176000,0.000038380,0.009134350,1720620065.064935446,,,,,,,,,,,
1720620065.087820,0.026026000,0.000000000,0.000000000,-1.221374000,0.000000000,0.000000000,1.012726000,0.000000000,0.000000000,0.046048000,0.000000000,0.000000000,0.235200000,0.000000000,0.000000000,-0.049504000,0.000000000,0.000000000,1720620065.076935291,,,,,,,,,,,
1720620065.103799,0.026026000,0.000000000,0.000000000,-1.221374000,0.000000000,0.000000000,1.012726000,0.000000000,0.000000000,0.046048000,0.000000000,0.000000000,0.234336000,0.000000000,0.000000000,-0.050304000,0.000000000,0.000000000,1720620065.086935282,,,,,,,,,,,
1720620065.104987,0.026026000,0.000000000,0.000000000,-1.221913000,0.000000000,0.000000000,1.012726000,0.000000000,0.000000000,0.046048000,0.000000000,0.000000000,0.235328000,0.000000000,0.000000000,-0.050304000,0.000038380,0.009134350,1720620065.093935490,,,,,,,,,,,
1720620065.107417,0.026026000,0.000000000,0.000000000,-1.224608000,0.000000000,0.000000000,1.012726000,0.000000000,0.000000000,0.046048000,0.000000000,0.000000000,0.235936000,0.000000000,0.000000000,-0.048768000,0.000000000,0.009134350,1720620065.095935345,,,,,,,,,,,
1720620065.116268,0.026026000,0.000000000,0.000000000,-1.224069000,0.000000000,0.000000000,1.012726000,0.000000000,0.000000000,0.046048000,0.000000000,0.000000000,0.234656000,0.000000000,0.000000000,-0.048448000,0.000000000,0.000000000,1720620065.104935408,,,,,,,,,,,
1720620065.117105,0.026026000,0.000000000,0.000000000,-1.224069000,0.000000000,0.000000000,1.012726000,0.000000000,0.000000000,0.046048000,0.000000000,0.000000000,0.234656000,0.000000000,0.000000000,-0.048448000,0.000000000,0.000000000,1720620065.105935335,,,,,,,,,,,
1720620065.118891,,,,,,,,,,,,,,,,,,,,1720620065.104935408,-1.186824000,3.141592654,0.000000015,0.829037542,-0.000000022,-0.000000054,0.559192949,1.395152983,0.001110973,1.481517837
1720620065.119336,0.026026000,0.000000000,0.000000000,-1.221374000,0.000000000,0.000000000,1.012726000,0.000000000,0.000000000,0.046048000,0.000000000,0.000000000,0.235872000,0.000000000,0.000000000,-0.050752000,0.000038380,0.009134350,1720620065.107935429,,,,,,,,,,,
1720620065.128304,0.026026000,0.000000000,0.000000000,-1.219218000,0.000000000,0.000000000,1.012726000,0.000000000,0.000000000,0.046048000,0.000000000,0.000000000,0.235136000,0.000000000,0.000000000,-0.049696000,0.000000000,0.000000000,1720620065.116935492,,,,,,,,,,,
1720620065.129888,0.026026000,0.000000000,0.000000000,-1.219218000,0.000000000,0.000000000,1.012726000,0.000000000,0.000000000,0.046048000,0.000000000,0.000000000,0.235136000,0.000000000,0.000000000,-0.049696000,0.000000000,0.000000000,1720620065.118935347,,,,,,,,,,,
1720620065.132155,0.026026000,0.000000000,0.000000000,-1.219218000,0.000000000,0.000000000,1.012726000,0.000000000,0.000000000,0.046048000,0.000000000,0.000000000,0.235328000,0.000000000,0.000000000,-0.049952000,0.000000000,0.000000000,1720620065.120935440,,,,,,,,,,,
1720620065.133001,0.026026000,0.000000000,0.000000000,-1.219218000,0.000000000,0.000000000,1.012726000,0.000000000,0.000000000,0.046048000,0.000000000,0.000000000,0.235328000,0.000000000,0.000000000,-0.049952000,0.000000000,0.000000000,1720620065.121935368,,,,,,,,,,,
1720620065.142010,0.024882000,0.000000000,0.000000000,-1.219218000,0.000000000,0.000000000,1.012726000,0.000000000,0.000000000,0.046112000,0.000000000,0.000000000,0.235328000,0.000000000,0.000000000,-0.049088000,0.000000000,0.000000000,1720620065.125935316,,,,,,,,,,,
1720620065.144017,0.025454000,0.000000000,0.000000000,-1.215984000,0.000000000,0.000000000,1.012726000,0.000000000,0.000000000,0.046112000,0.000000000,0.000000000,0.235520000,0.000000000,0.000000000,-0.048832000,0.000000000,0.009134350,1720620065.132935286,,,,,,,,,,,
1720620065.145090,0.025454000,0.000000000,0.000000000,-1.215984000,0.000000000,0.000000000,1.012726000,0.000000000,0.000000000,0.046112000,0.000000000,0.000000000,0.235520000,0.000000000,0.000000000,-0.048832000,0.000000000,0.009134350,1720620065.133935452,,,,,,,,,,,
1720620065.148744,0.025454000,0.000000000,0.000000000,-1.217062000,0.000000000,0.000000000,1.012726000,0.000000000,0.000000000,0.046112000,0.000000000,0.000000000,0.234400000,0.000000000,0.000000000,-0.050432000,0.000038380,0.009134350,1720620065.137935400,,,,,,,,,,,
1720620065.156625,0.025454000,0.000000000,0.000000000,-1.217062000,0.000000000,0.000000000,1.012726000,0.000000000,0.000000000,0.046048000,0.000000000,0.000000000,0.235200000,0.000000000,0.000000000,-0.050176000,0.000038380,0.009134350,1720620065.144935369,,,,,,,,,,,
1720620065.157269,0.025454000,0.000000000,0.000000000,-1.217062000,0.000000000,0.000000000,1.012726000,0.000000000,0.000000000,0.046048000,0.000000000,0.000000000,0.235200000,0.000000000,0.000000000,-0.050176000,0.000038380,0.009134350,1720620065.145935297,,,,,,,,,,,
1720620065.161572,0.025454000,0.000000000,0.000000000,-1.217062000,0.000000000,0.000000000,1.012726000,0.000000000,0.000000000,0.046048000,0.000000000,0.000000000,0.235392000,0.000000000,0.000000000,-0.048896000,0.000000000,0.009134350,1720620065.149935484,,,,,,,,,,,
1720620065.168234,0.025454000,0.000000000,0.000000000,-1.210594000,0.000000000,0.000000000,1.012726000,0.000000000,0.000000000,0.046048000,0.000000000,0.000000000,0.235200000,0.000000000,0.000000000,-0.048768000,0.000000000,0.009134350,1720620065.156935453,,,,,,,,,,,
1720620065.168807,,,,,,,,,,,,,,,,,,,,1720620065.156935453,-1.186824000,3.141592654,0.000000015,0.829037542,-0.000000022,-0.000000054,0.559192949,1.395152983,0.001110973,1.481517837
1720620065.169075,0.025454000,0.000000000,0.000000000,-1.210594000,0.000000000,0.000000000,1.012726000,0.000000000,0.000000000,0.046048000,0.000000000,0.000000000,0.235200000,0.000000000,0.000000000,-0.048768000,0.000000000,0.009134350,1720620065.157935381,,,,,,,,,,,
1720620065.174015,0.025454000,0.000000000,0.000000000,-1.220296000,0.000000000,0.000000000,1.012726000,0.000000000,0.000000000,0.046048000,0.000000000,0.000000000,0.234944000,0.000000000,0.000000000,-0.049504000,0.000000000,0.000000000,1720620065.162935495,,,,,,,,,,,
1720620065.180188,0.025454000,0.000000000,0.000000000,-1.220296000,0.000000000,0.000000000,1.012726000,0.000000000,0.000000000,0.046048000,0.000000000,0.000000000,0.235520000,0.000000000,0.000000000,-0.049696000,0.000000000,0.000000000,1720620065.168935299,,,,,,,,,,,
1720620065.181143,0.025454000,0.000000000,0.000000000,-1.220296000,0.000000000,0.000000000,1.012726000,0.000000000,0.000000000,0.046048000,0.000000000,0.000000000,0.235520000,0.000000000,0.000000000,-0.049696000,0.000000000,0.000000000,1720620065.169935465,,,,,,,,,,,
1720620065.183665,0.025454000,0.000000000,0.000000000,-1.219218000,0.000000000,0.000000000,1.012726000,0.000000000,0.000000000,0.046048000,0.000000000,0.000000000,0.235200000,0.000000000,0.000000000,-0.049504000,0.000000000,0.000000000,1720620065.171935320,,,,,,,,,,,
1720620065.188030,0.025454000,0.000000000,0.000000000,-1.210594000,0.000000000,0.000000000,1.012726000,0.000000000,0.000000000,0.045984000,0.000000000,0.000000000,0.235328000,0.000000000,0.000000000,-0.049568000,0.000000000,0.000000000,1720620065.176935434,,,,,,,,,,,
1720620065.194521,0.025454000,0.000000000,0.000000000,-1.222991000,0.000000000,0.000000000,1.012726000,0.000000000,0.000000000,0.045984000,0.000000000,0.000000000,0.234464000,0.000000000,0.000000000,-0.049824000,0.000000000,0.000000000,1720620065.182935476,,,,,,,,,,,
1720620065.196670,0.025454000,0.000000000,0.000000000,-1.214367000,0.000000000,0.000000000,1.012726000,0.000000000,0.000000000,0.045984000,0.000000000,0.000000000,0.234944000,0.000000000,0.000000000,-0.049376000,0.000000000,0.000000000,1720620065.184935331,,,,,,,,,,,
1720620065.205072,0.025454000,0.000000000,0.000000000,-1.214906000,0.000000000,0.000000000,1.012726000,0.000000000,0.000000000,0.045984000,0.000000000,0.000000000,0.236000000,0.000000000,0.000000000,-0.049760000,0.000000000,0.000000000,1720620065.189935446,,,,,,,,,,,
1720620065.208065,0.025454000,0.000000000,0.000000000,-1.218679000,0.000000000,0.000000000,1.012726000,0.000000000,0.000000000,0.045984000,0.000000000,0.000000000,0.234752000,0.000000000,0.000000000,-0.049152000,0.000000000,0.009134350,1720620065.196935415,,,,,,,,,,,
1720620065.209179,0.025454000,0.000000000,0.000000000,-1.218679000,0.000000000,0.000000000,1.012726000,0.000000000,0.000000000,0.045984000,0.000000000,0.000000000,0.234752000,0.000000000,0.000000000,-0.049152000,0.000000000,0.009134350,1720620065.197935343,,,,,,,,,,,
1720620065.213629,0.025454000,0.000000000,0.000000000,-1.219218000,0.000000000,0.000000000,1.012726000,0.000000000,0.000000000,0.045984000,0.000000000,0.000000000,0.234944000,0.000000000,0.000000000,-0.049440000,0.000000000,0.000000000,1720620065.201935291,,,,,,,,,,,
1720620065.220397,0.025454000,0.000000000,0.000000000,-1.224608000,0.000000000,0.000000000,1.012726000,0.000000000,0.000000000,0.045984000,0.000000000,0.000000000,0.235680000,0.000000000,0.000000000,-0.049088000,0.000000000,0.000000000,1720620065.218370199,,,,,,,,,,,
1720620065.221203,0.025454000,0.000000000,0.000000000,-1.224608000,0.000000000,0.000000000,1.012726000,0.000000000,0.000000000,0.045984000,0.000000000,0.000000000,0.235680000,0.000000000,0.000000000,-0.049088000,0.000000000,0.000000000,1720620065.219370127,,,,,,,,,,,
1720620065.222088,0.025454000,0.000000000,0.000000000,-1.224608000,0.000000000,0.000000000,1.012726000,0.000000000,0.000000000,0.045984000,0.000000000,0.000000000,0.235680000,0.000000000,0.000000000,-0.049088000,0.000000000,0.000000000,1720620065.220370293,,,,,,,,,,,
1720620065.224128,0.025454000,0.000000000,0.000000000,-1.222991000,0.000000000,0.000000000,1.012726000,0.000000000,0.000000000,0.045984000,0.000000000,0.000000000,0.235072000,0.000000000,0.000000000,-0.050080000,0.000000000,0.000000000,1720620065.222370148,,,,,,,,,,,
1720620065.225211,0.025454000,0.000000000,0.000000000,-1.222991000,0.000000000,0.000000000,1.012726000,0.000000000,0.000000000,0.045984000,0.000000000,0.000000000,0.235072000,0.000000000,0.000000000,-0.050080000,0.000000000,0.000000000,1720620065.223370075,,,,,,,,,,,
1720620065.228847,,,,,,,,,,,,,,,,,,,,1720620065.218370199,-1.186824000,3.141592654,0.000000015,0.829037542,-0.000000022,-0.000000054,0.559192949,1.395152983,0.001110973,1.481517837
1720620065.228955,0.025454000,0.000000000,0.000000000,-1.225686000,0.000000000,0.000000000,1.012726000,0.000000000,0.000000000,0.045984000,0.000000000,0.000000000,0.235008000,0.000000000,0.000000000,-0.048896000,0.000000000,0.000000000,1720620065.227370262,,,,,,,,,,,
1720620065.236733,0.025454000,0.000000000,0.000000000,-1.224608000,0.000000000,0.000000000,1.012726000,0.000000000,0.000000000,0.045984000,0.000000000,0.000000000,0.235264000,0.000000000,0.000000000,-0.049024000,0.000000000,0.009134350,1720620065.234370232,,,,,,,,,,,
1720620065.237362,0.025454000,0.000000000,0.000000000,-1.224608000,0.000000000,0.000000000,1.012726000,0.000000000,0.000000000,0.045984000,0.000000000,0.000000000,0.235264000,0.000000000,0.000000000,-0.049024000,0.000000000,0.009134350,1720620065.235370159,,,,,,,,,,,
1720620065.241105,0.025454000,0.000000000,0.000000000,-1.222991000,0.000000000,0.000000000,1.012726000,0.000000000,0.000000000,0.045984000,0.000000000,0.000000000,0.235520000,0.000000000,0.000000000,-0.049216000,0.000000000,0.000000000,1720620065.239370108,,,,,,,,,,,
1720620065.248259,0.025454000,0.000000000,0.000000000,-1.222991000,0.000000000,0.000000000,1.012726000,0.000000000,0.000000000,0.046048000,0.000000000,0.000000000,0.235264000,0.000000000,0.000000000,-0.048960000,0.000000000,0.009134350,1720620065.246370077,,,,,,,,,,,
1720620065.249215,0.025454000,0.000000000,0.000000000,-1.222991000,0.000000000,0.000000000,1.012726000,0.000000000,0.000000000,0.046048000,0.000000000,0.000000000,0.235264000,0.000000000,0.000000000,-0.048960000,0.000000000,0.009134350,1720620065.247370243,,,,,,,,,,,
1720620065.253465,0.025454000,0.000000000,0.000000000,-1.228381000,0.000000000,0.000000000,1.012726000,0.000000000,0.000000000,0.046048000,0.000000000,0.000000000,0.235744000,0.000000000,0.000000000,-0.049888000,0.000000000,0.000000000,1720620065.251370192,,,,,,,,,,,
1720620065.260350,0.025454000,0.000000000,0.000000000,-1.221913000,0.000000000,0.000000000,1.012726000,0.000000000,0.000000000,0.046112000,0.000000000,0.000000000,0.235328000,0.000000000,0.000000000,-0.049568000,0.000000000,0.000000000,1720620065.258370161,,,,,,,,,,,
1720620065.261491,0.025454000,0.000000000,0.000000000,-1.221913000,0.000000000,0.000000000,1.012726000,0.000000000,0.000000000,0.046112000,0.000000000,0.000000000,0.235328000,0.000000000,0.000000000,-0.049568000,0.000000000,0.000000000,1720620065.259370089,,,,,,,,,,,
1720620065.265245,0.025454000,0.000000000,0.000000000,-1.221374000,0.000000000,0.000000000,1.012726000,0.000000000,0.000000000,0.046112000,0.000000000,0.000000000,0.235872000,0.000000000,0.000000000,-0.049312000,0.000000000,0.000000000,1720620065.263370275,,,,,,,,,,,
1720620065.272469,0.025454000,0.000000000,0.000000000,-1.191190000,0.000000000,0.000000000,1.012726000,0.000000000,0.000000000,0.046112000,0.000000000,0.000000000,0.235136000,0.000000000,0.000000000,-0.049504000,0.000000000,0.000000000,1720620065.270370245,,,,,,,,,,,
1720620065.273882,0.025454000,0.000000000,0.000000000,-1.191190000,0.000000000,0.000000000,1.012726000,0.000000000,0.000000000,0.046112000,0.000000000,0.000000000,0.235136000,0.000000000,0.000000000,-0.049504000,0.000000000,0.000000000,1720620065.271370173,,,,,,,,,,,
1720620065.277391,0.025454000,0.000000000,0.000000000,-1.221374000,0.000000000,0.000000000,1.012726000,0.000000000,0.000000000,0.046112000,0.000000000,0.000000000,0.235936000,0.000000000,0.000000000,-0.049888000,0.000000000,0.000000000,1720620065.275370121,,,,,,,,,,,
1720620065.278850,,,,,,,,,,,,,,,,,,,,1720620065.270370245,-1.186824000,3.141592654,0.000000015,0.829037542,-0.000000022,-0.000000054,0.559192949,1.395152983,0.001110973,1.481517837
1720620065.284445,0.025454000,0.000000000,0.000000000,-1.220296000,0.000000000,0.000000000,1.012726000,0.000000000,0.000000000,0.046112000,0.000000000,0.000000000,0.235136000,0.000000000,0.000000000,-0.050016000,0.000000000,0.000000000,1720620065.282370090,,,,,,,,,,,
1720620065.285417,0.025454000,0.000000000,0.000000000,-1.220296000,0.000000000,0.000000000,1.012726000,0.000000000,0.000000000,0.046112000,0.000000000,0.000000000,0.235136000,0.000000000,0.000000000,-0.050016000,0.000000000,0.000000000,1720620065.283370256,,,,,,,,,,,
1720620065.290177,0.025454000,0.000000000,0.000000000,-1.220296000,0.000000000,0.000000000,1.012726000,0.000000000,0.000000000,0.046112000,0.000000000,0.000000000,0.235136000,0.000000000,0.000000000,-0.049216000,0.000000000,0.000000000,1720620065.288370132,,,,,,,,,,,
1720620065.297455,0.025454000,0.000000000,0.000000000,-1.220296000,0.000000000,0.000000000,1.012726000,0.000000000,0.000000000,0.046112000,0.000000000,0.000000000,0.235136000,0.000000000,0.000000000,-0.049504000,0.000000000,0.000000000,1720620065.295370102,,,,,,,,,,,
1720620065.298261,0.025454000,0.000000000,0.000000000,-1.220296000,0.000000000,0.000000000,1.012726000,0.000000000,0.000000000,0.046112000,0.000000000,0.000000000,0.235136000,0.000000000,0.000000000,-0.049504000,0.000000000,0.000000000,1720620065.296370268,,,,,,,,,,,
1720620065.304339,0.025454000,0.000000000,0.000000000,-1.210594000,0.000000000,0.000000000,1.012726000,0.000000000,0.000000000,0.046112000,0.000000000,0.000000000,0.234752000,0.000000000,0.000000000,-0.050432000,0.000000000,0.000000000,1720620065.302370071,,,,,,,,,,,
1720620065.311336,0.025454000,0.000000000,0.000000000,-1.217601000,0.000000000,0.000000000,1.012726000,0.000000000,0.000000000,0.046112000,0.000000000,0.000000000,0.235744000,0.000000000,0.000000000,-0.049024000,0.000000000,0.000000000,1720620065.308370113,,,,,,,,,,,
1720620065.320551,0.025454000,0.000000000,0.000000000,-1.217601000,0.000000000,0.000000000,1.012726000,0.000000000,0.000000000,0.046112000,0.000000000,0.000000000,0.235680000,0.000000000,0.000000000,-0.050816000,0.000038380,0.009134350,1720620065.318370104,,,,,,,,,,,
1720620065.321469,0.025454000,0.000000000,0.000000000,-1.217601000,0.000000000,0.000000000,1.012726000,0.000000000,0.000000000,0.046112000,0.000000000,0.000000000,0.235680000,0.000000000,0.000000000,-0.050816000,0.000038380,0.009134350,1720620065.319370270,,,,,,,,,,,
1720620065.323950,0.025454000,0.000000000,0.000000000,-1.217601000,0.000000000,0.000000000,1.012726000,0.000000000,0.000000000,0.046112000,0.000000000,0.000000000,0.235680000,0.000000000,0.000000000,-0.050816000,0.000038380,0.009134350,1720620065.320370197,,,,,,,,,,,
1720620065.328798,,,,,,,,,,,,,,,,,,,,1720620065.320370197,-1.186823998,3.141490200,0.000015924,0.829037542,0.000010709,0.000094939,0.559192948,1.395152983,0.001108959,1.481517794
1720620065.332656,0.025454000,0.000000000,0.000000000,-1.205204000,0.000000000,0.000000000,1.012726000,0.000000000,0.000000000,0.046048000,0.000000000,0.000000000,0.235392000,0.000000000,0.000000000,-0.048576000,0.000000000,0.009134350,1720620065.330370188,,,,,,,,,,,
1720620065.333980,0.025454000,0.000000000,0.000000000,-1.205204000,0.000000000,0.000000000,1.012726000,0.000000000,0.000000000,0.046048000,0.000000000,0.000000000,0.235392000,0.000000000,0.000000000,-0.048576000,0.000000000,0.009134350,1720620065.331370115,,,,,,,,,,,
1720620065.335198,0.025454000,0.000000000,0.000000000,-1.205204000,0.000000000,0.000000000,1.012726000,0.000000000,0.000000000,0.046048000,0.000000000,0.000000000,0.235392000,0.000000000,0.000000000,-0.048576000,0.000000000,0.009134350,1720620065.332370281,,,,,,,,,,,
1720620065.344701,0.025454000,0.000000000,0.000000000,-1.217062000,0.000000000,0.000000000,1.012726000,0.000000000,0.000000000,0.046048000,0.000000000,0.000000000,0.234816000,0.000000000,0.000000000,-0.050016000,0.000000000,0.000000000,1720620065.342370272,,,,,,,,,,,
1720620065.345474,0.025454000,0.000000000,0.000000000,-1.217062000,0.000000000,0.000000000,1.012726000,0.000000000,0.000000000,0.046048000,0.000000000,0.000000000,0.234816000,0.000000000,0.000000000,-0.050016000,0.000000000,0.000000000,1720620065.343370199,,,,,,,,,,,
1720620065.346412,0.025454000,0.000000000,0.000000000,-1.217062000,0.000000000,0.000000000,1.012726000,0.000000000,0.000000000,0.046048000,0.000000000,0.000000000,0.234816000,0.000000000,0.000000000,-0.050016000,0.000000000,0.000000000,1720620065.344370127,,,,,,,,,,,
1720620065.356663,0.025454000,0.000000000,0.000000000,-1.219218000,0.000000000,0.000000000,1.012726000,0.000000000,0.000000000,0.046112000,0.000000000,0.000000000,0.235392000,0.000000000,0.000000000,-0.049568000,0.000000000,0.000000000,1720620065.354370117,,,,,,,,,,,
1720620065.357873,0.025454000,0.000000000,0.000000000,-1.219218000,0.000000000,0.000000000,1.012726000,0.000000000,0.000000000,0.046112000,0.000000000,0.000000000,0.235392000,0.000000000,0.000000000,-0.049568000,0.000000000,0.000000000,1720620065.355370283,,,,,,,,,,,
1720620065.358458,0.025454000,0.000000000,0.000000000,-1.219218000,0.000000000,0.000000000,1.012726000,0.000000000,0.000000000,0.046112000,0.000000000,0.000000000,0.235392000,0.000000000,0.000000000,-0.049568000,0.000000000,0.000000000,1720620065.356370211,,,,,,,,,,,
1720620065.360439,0.025454000,0.000000000,0.000000000,-1.218679000,0.000000000,0.000000000,1.012726000,0.000000000,0.000000000,0.046112000,0.000000000,0.000000000,0.234880000,0.000000000,0.000000000,-0.049152000,0.000000000,0.000000000,1720620065.358370066,,,,,,,,,,,
1720620065.361305,0.025454000,0.000000000,0.000000000,-1.218679000,0.000000000,0.000000000,1.012726000,0.000000000,0.000000000,0.046112000,0.000000000,0.000000000,0.234880000,0.000000000,0.000000000,-0.049152000,0.000000000,0.000000000,1720620065.359370232,,,,,,,,,,,
1720620065.365146,0.025454000,0.000000000,0.000000000,-1.218679000,0.000000000,0.000000000,1.012726000,0.000000000,0.000000000,0.046176000,0.000000000,0.000000000,0.235200000,0.000000000,0.000000000,-0.050240000,0.000038380,0.009134350,1720620065.363370180,,,,,,,,,,,
1720620065.372682,0.025454000,0.000000000,0.000000000,-1.218679000,0.000000000,0.000000000,1.012726000,0.000000000,0.000000000,0.046048000,0.000000000,0.000000000,0.235328000,0.000000000,0.000000000,-0.050240000,0.000038380,0.009134350,1720620065.370370150,,,,,,,,,,,
1720620065.373955,0.025454000,0.000000000,0.000000000,-1.218679000,0.000000000,0.000000000,1.012726000,0.000000000,0.000000000,0.046048000,0.000000000,0.000000000,0.235328000,0.000000000,0.000000000,-0.050240000,0.000038380,0.009134350,1720620065.371370077,,,,,,,,,,,
1720620065.377676,0.025454000,0.000000000,0.000000000,-1.253714000,0.000000000,0.000000000,1.012726000,0.000000000,0.000000000,0.046048000,0.000000000,0.000000000,0.235392000,0.000000000,0.000000000,-0.048768000,0.000000000,0.009134350,1720620065.375370264,,,,,,,,,,,
1720620065.378913,,,,,,,,,,,,,,,,,,,,1720620065.370370150,-1.186823998,3.141490200,0.000015924,0.829037542,0.000010709,0.000094939,0.559192948,1.395152983,0.001108959,1.481517794
1720620065.384663,0.025454000,0.000000000,0.000000000,-1.221913000,0.000000000,0.000000000,1.012726000,0.000000000,0.000000000,0.046112000,0.000000000,0.000000000,0.235328000,0.000000000,0.000000000,-0.049824000,0.000038380,0.000000000,1720620065.382370234,,,,,,,,,,,
1720620065.385401,0.025454000,0.000000000,0.000000000,-1.221913000,0.000000000,0.000000000,1.012726000,0.000000000,0.000000000,0.046112000,0.000000000,0.000000000,0.235328000,0.000000000,0.000000000,-0.049824000,0.000038380,0.000000000,1720620065.383370161,,,,,,,,,,,
1720620065.389385,0.025454000,0.000000000,0.000000000,-1.221374000,0.000000000,0.000000000,1.012726000,0.000000000,0.000000000,0.046112000,0.000000000,0.000000000,0.235520000,0.000000000,0.000000000,-0.049632000,0.000000000,0.009134350,1720620065.387370110,,,,,,,,,,,
1720620065.396628,0.024882000,0.000000000,0.000000000,-1.220296000,0.000000000,0.000000000,1.012726000,0.000000000,0.000000000,0.046112000,0.000000000,0.000000000,0.235328000,0.000000000,0.000000000,-0.050240000,0.000000000,0.000000000,1720620065.394370079,,,,,,,,,,,
1720620065.398053,0.024882000,0.000000000,0.000000000,-1.220296000,0.000000000,0.000000000,1.012726000,0.000000000,0.000000000,0.046112000,0.000000000,0.000000000,0.235328000,0.000000000,0.000000000,-0.050240000,0.000000000,0.000000000,1720620065.395370245,,,,,,,,,,,
1720620065.401240,0.024882000,0.000000000,0.000000000,-1.220296000,0.000000000,0.000000000,1.012726000,0.000000000,0.000000000,0.046048000,0.000000000,0.000000000,0.235200000,0.000000000,0.000000000,-0.049152000,0.000000000,0.000000000,1720620065.399370193,,,,,,,,,,,
1720620065.408767,0.025454000,0.000000000,0.000000000,-1.227303000,0.000000000,0.000000000,1.012726000,0.000000000,0.000000000,0.046048000,0.000000000,0.000000000,0.234464000,0.000000000,0.000000000,-0.049376000,0.000000000,0.009134350,1720620065.406370163,,,,,,,,,,,
1720620065.409392,0.025454000,0.000000000,0.000000000,-1.227303000,0.000000000,0.000000000,1.012726000,0.000000000,0.000000000,0.046048000,0.000000000,0.000000000,0.234464000,0.000000000,0.000000000,-0.049376000,0.000000000,0.009134350,1720620065.407370090,,,,,,,,,,,
1720620065.414149,0.026026000,0.000000000,0.000000000,-1.213289000,0.000000000,0.000000000,1.012726000,0.000000000,0.000000000,0.046112000,0.000000000,0.000000000,0.235328000,0.000000000,0.000000000,-0.049312000,0.000000000,0.000000000,1720620065.411370277,,,,,,,,,,,
1720620065.420562,0.026026000,0.000000000,0.000000000,-1.217601000,0.000000000,0.000000000,1.012726000,0.000000000,0.000000000,0.046112000,0.000000000,0.000000000,0.234752000,0.000000000,0.000000000,-0.049216000,0.000000000,0.009134350,1720620065.418370247,,,,,,,,,,,
1720620065.421510,0.026026000,0.000000000,0.000000000,-1.217601000,0.000000000,0.000000000,1.012726000,0.000000000,0.000000000,0.046112000,0.000000000,0.000000000,0.234752000,0.000000000,0.000000000,-0.049216000,0.000000000,0.009134350,1720620065.419370174,,,,,,,,,,,
1720620065.430437,0.026026000,0.000000000,0.000000000,-1.213289000,0.000000000,0.000000000,1.012726000,0.000000000,0.000000000,0.046112000,0.000000000,0.000000000,0.235584000,0.000000000,0.000000000,-0.049440000,0.000000000,0.000000000,1720620065.424370289,,,,,,,,,,,
1720620065.434052,0.026026000,0.000000000,0.000000000,-1.219218000,0.000000000,0.000000000,1.012726000,0.000000000,0.000000000,0.046048000,0.000000000,0.000000000,0.235008000,0.000000000,0.000000000,-0.048640000,0.000000000,0.000000000,1720620065.431370258,,,,,,,,,,,
1720620065.435206,0.026026000,0.000000000,0.000000000,-1.219218000,0.000000000,0.000000000,1.012726000,0.000000000,0.000000000,0.045728000,0.000000000,0.000000000,0.235328000,0.000000000,0.000000000,-0.050432000,0.000038380,0.009134350,1720620065.433370113,,,,,,,,,,,
1720620065.438760,,,,,,,,,,,,,,,,,,,,1720620065.424370289,-1.186824000,3.141592654,0.000000015,0.829037542,-0.000000022,-0.000000054,0.559192949,1.395152983,0.001110973,1.481517837
1720620065.444843,0.026026000,0.000000000,0.000000000,-1.218679000,0.000000000,0.000000000,1.012726000,0.000000000,0.000000000,0.046112000,0.000000000,0.000000000,0.235520000,0.000000000,0.000000000,-0.049760000,0.000000000,0.000000000,1720620065.442370176,,,,,,,,,,,
1720620065.445514,0.026026000,0.000000000,0.000000000,-1.218679000,0.000000000,0.000000000,1.012726000,0.000000000,0.000000000,0.046112000,0.000000000,0.000000000,0.235520000,0.000000000,0.000000000,-0.049760000,0.000000000,0.000000000,1720620065.443370104,,,,,,,,,,,
1720620065.447769,0.026026000,0.000000000,0.000000000,-1.218679000,0.000000000,0.000000000,1.012726000,0.000000000,0.000000000,0.046112000,0.000000000,0.000000000,0.235456000,0.000000000,0.000000000,-0.049568000,0.000000000,0.000000000,1720620065.445370197,,,,,,,,,,,
1720620065.456809,0.026026000,0.000000000,0.000000000,-1.245090000,0.000000000,0.000000000,1.012726000,0.000000000,0.000000000,0.046112000,0.000000000,0.000000000,0.235744000,0.000000000,0.000000000,-0.049312000,0.000000000,0.009134350,1720620065.454370260,,,,,,,,,,,
1720620065.457844,0.026026000,0.000000000,0.000000000,-1.245090000,0.000000000,0.000000000,1.012726000,0.000000000,0.000000000,0.046112000,0.000000000,0.000000000,0.235744000,0.000000000,0.000000000,-0.049312000,0.000000000,0.009134350,1720620065.455370188,,,,,,,,,,,
1720620065.459218,0.026026000,0.000000000,0.000000000,-1.192807000,0.000000000,0.000000000,1.012726000,0.000000000,0.000000000,0.046112000,0.000000000,0.000000000,0.235456000,0.000000000,0.000000000,-0.050240000,0.000038380,0.009134350,1720620065.457370281,,,,,,,,,,,
1720620065.468881,0.026026000,0.000000000,0.000000000,-1.220296000,0.000000000,0.000000000,1.012726000,0.000000000,0.000000000,0.046112000,0.000000000,0.000000000,0.235584000,0.000000000,0.000000000,-0.050016000,0.000038380,0.009134350,1720620065.466370106,,,,,,,,,,,
1720620065.469441,0.026026000,0.000000000,0.000000000,-1.220296000,0.000000000,0.000000000,1.012726000,0.000000000,0.000000000,0.046112000,0.000000000,0.000000000,0.235584000,0.000000000,0.000000000,-0.050016000,0.000038380,0.009134350,1720620065.467370272,,,,,,,,,,,
1720620065.472648,0.026026000,0.000000000,0.000000000,-1.220296000,0.000000000,0.000000000,1.012726000,0.000000000,0.000000000,0.046048000,0.000000000,0.000000000,0.234752000,0.000000000,0.000000000,-0.049824000,0.000000000,0.009134350,1720620065.470370293,,,,,,,,,,,
1720620065.480789,0.026026000,0.000000000,0.000000000,-1.220296000,0.000000000,0.000000000,1.012726000,0.000000000,0.000000000,0.046048000,0.000000000,0.000000000,0.234528000,0.000000000,0.000000000,-0.050624000,0.000038380,0.009134350,1720620065.478370190,,,,,,,,,,,
1720620065.481304,0.026026000,0.000000000,0.000000000,-1.220296000,0.000000000,0.000000000,1.012726000,0.000000000,0.000000000,0.046048000,0.000000000,0.000000000,0.234528000,0.000000000,0.000000000,-0.050624000,0.000038380,0.009134350,1720620065.479370117,,,,,,,,,,,
1720620065.484657,0.026026000,0.000000000,0.000000000,-1.220296000,0.000000000,0.000000000,1.012726000,0.000000000,0.000000000,0.046048000,0.000000000,0.000000000,0.235136000,0.000000000,0.000000000,-0.048576000,0.000000000,0.009134350,1720620065.482370138,,,,,,,,,,,
1720620065.488810,,,,,,,,,,,,,,,,,,,,1720620065.478370190,-1.186823998,3.141490200,0.000015924,0.829037542,0.000010709,0.000094939,0.559192948,1.395152983,0.001108959,1.481517794
1720620065.492989,0.026026000,0.000000000,0.000000000,-1.251019000,0.000000000,0.000000000,1.012726000,0.000000000,0.000000000,0.046048000,0.000000000,0.000000000,0.235008000,0.000000000,0.000000000,-0.049216000,0.000000000,0.009134350,1720620065.490370274,,,,,,,,,,,
1720620065.494002,0.026026000,0.000000000,0.000000000,-1.251019000,0.000000000,0.000000000,1.012726000,0.000000000,0.000000000,0.046048000,0.000000000,0.000000000,0.235008000,0.000000000,0.000000000,-0.049216000,0.000000000,0.009134350,1720620065.491370201,,,,,,,,,,,
1720620065.495378,0.026026000,0.000000000,0.000000000,-1.219218000,0.000000000,0.000000000,1.012726000,0.000000000,0.000000000,0.046048000,0.000000000,0.000000000,0.235872000,0.000000000,0.000000000,-0.049696000,0.000038380,0.009134350,1720620065.493370295,,,,,,,,,,,
1720620065.504807,0.026026000,0.000000000,0.000000000,-1.219218000,0.000000000,0.000000000,1.012726000,0.000000000,0.000000000,0.046048000,0.000000000,0.000000000,0.234400000,0.000000000,0.000000000,-0.049888000,0.000038380,0.009134350,1720620065.502370119,,,,,,,,,,,
1720620065.505346,0.026026000,0.000000000,0.000000000,-1.219218000,0.000000000,0.000000000,1.012726000,0.000000000,0.000000000,0.046048000,0.000000000,0.000000000,0.234400000,0.000000000,0.000000000,-0.049888000,0.000038380,0.009134350,1720620065.503370285,,,,,,,,,,,
1720620065.508491,0.026026000,0.000000000,0.000000000,-1.219218000,0.000000000,0.000000000,1.012726000,0.000000000,0.000000000,0.046048000,0.000000000,0.000000000,0.235456000,0.000000000,0.000000000,-0.049152000,0.000000000,0.009134350,1720620065.506370068,,,,,,,,,,,
1720620065.516957,0.026026000,0.000000000,0.000000000,-1.218679000,0.000000000,0.000000000,1.012726000,0.000000000,0.000000000,0.046048000,0.000000000,0.000000000,0.235808000,0.000000000,0.000000000,-0.048896000,0.000000000,0.009134350,1720620065.514370203,,,,,,,,,,,
1720620065.517933,0.026026000,0.000000000,0.000000000,-1.218679000,0.000000000,0.000000000,1.012726000,0.000000000,0.000000000,0.046048000,0.000000000,0.000000000,0.235808000,0.000000000,0.000000000,-0.048896000,0.000000000,0.009134350,1720620065.515370131,,,,,,,,,,,
1720620065.519259,0.026026000,0.000000000,0.000000000,-1.218679000,0.000000000,0.000000000,1.012726000,0.000000000,0.000000000,0.045984000,0.000000000,0.000000000,0.234752000,0.000000000,0.000000000,-0.049952000,0.000000000,0.000000000,1720620065.517370224,,,,,,,,,,,
1720620065.529223,0.026026000,0.000000000,0.000000000,-1.219218000,0.000000000,0.000000000,1.012726000,0.000000000,0.000000000,0.045984000,0.000000000,0.000000000,0.235328000,0.000000000,0.000000000,-0.049632000,0.000000000,0.000000000,1720620065.526370287,,,,,,,,,,,
1720620065.529728,0.026026000,0.000000000,0.000000000,-1.219218000,0.000000000,0.000000000,1.012726000,0.000000000,0.000000000,0.045984000,0.000000000,0.000000000,0.235328000,0.000000000,0.000000000,-0.049632000,0.000000000,0.000000000,1720620065.527370214,,,,,,,,,,,
1720620065.533004,0.026026000,0.000000000,0.000000000,-1.219218000,0.000000000,0.000000000,1.012726000,0.000000000,0.000000000,0.045984000,0.000000000,0.000000000,0.235392000,0.000000000,0.000000000,-0.049088000,0.000000000,0.000000000,1720620065.528370142,,,,,,,,,,,
1720620065.538955,,,,,,,,,,,,,,,,,,,,1720620065.528370142,-1.186824000,3.141592654,0.000000015,0.829037542,-0.000000022,-0.000000054,0.559192949,1.395152983,0.001110973,1.481517837
1720620065.541204,0.026026000,0.000000000,0.000000000,-1.219218000,0.000000000,0.000000000,1.012726000,0.000000000,0.000000000,0.045984000,0.000000000,0.000000000,0.235520000,0.000000000,0.000000000,-0.049216000,0.000000000,0.009134350,1720620065.538370132,,,,,,,,,,,
1720620065.541891,0.026026000,0.000000000,0.000000000,-1.219218000,0.000000000,0.000000000,1.012726000,0.000000000,0.000000000,0.045984000,0.000000000,0.000000000,0.235520000,0.000000000,0.000000000,-0.049216000,0.000000000,0.009134350,1720620065.539370060,,,,,,,,,,,
1720620065.544343,0.026026000,0.000000000,0.000000000,-1.219218000,0.000000000,0.000000000,1.012726000,0.000000000,0.000000000,0.045984000,0.000000000,0.000000000,0.235328000,0.000000000,0.000000000,-0.049760000,0.000038380,0.009134350,1720620065.541370153,,,,,,,,,,,
1720620065.553193,0.026026000,0.000000000,0.000000000,-1.219218000,0.000000000,0.000000000,1.012726000,0.000000000,0.000000000,0.046048000,0.000000000,0.000000000,0.234880000,0.000000000,0.000000000,-0.048640000,0.000000000,0.000000000,1720620065.550370216,,,,,,,,,,,
1720620065.555669,0.026026000,0.000000000,0.000000000,-1.215984000,0.000000000,0.000000000,1.012726000,0.000000000,0.000000000,0.045984000,0.000000000,0.000000000,0.235744000,0.000000000,0.000000000,-0.050688000,0.000000000,0.000000000,1720620065.553370237,,,,,,,,,,,
1720620065.565832,0.026026000,0.000000000,0.000000000,-1.215984000,0.000000000,0.000000000,1.012726000,0.000000000,0.000000000,0.045984000,0.000000000,0.000000000,0.234752000,0.000000000,0.000000000,-0.050816000,0.000038380,0.009134350,1720620065.563370228,,,,,,,,,,,
1720620065.575519,0.026026000,0.000000000,0.000000000,-1.217601000,0.000000000,0.000000000,1.012726000,0.000000000,0.000000000,0.045984000,0.000000000,0.000000000,0.234656000,0.000000000,0.000000000,-0.048896000,0.000000000,0.009134350,1720620065.572370291,,,,,,,,,,,
1720620065.588274,0.026026000,0.000000000,0.000000000,-1.213289000,0.000000000,0.000000000,1.012726000,0.000000000,0.000000000,0.046048000,0.000000000,0.000000000,0.235072000,0.000000000,0.000000000,-0.049632000,0.000000000,0.000000000,1720620065.585370064,,,,,,,,,,,
1720620065.588587,,,,,,,,,,,,,,,,,,,,1720620065.585370064,-1.186824000,3.141592654,0.000000015,0.829037542,-0.000000022,-0.000000054,0.559192949,1.395152983,0.001110973,1.481517837
1720620065.600929,0.026026000,0.000000000,0.000000000,-1.217062000,0.000000000,0.000000000,1.012726000,0.000000000,0.000000000,0.046048000,0.000000000,0.000000000,0.235456000,0.000000000,0.000000000,-0.049440000,0.000000000,0.000000000,1720620065.594370127,,,,,,,,,,,
1720620065.604965,0.026026000,0.000000000,0.000000000,-1.217062000,0.000000000,0.000000000,1.012726000,0.000000000,0.000000000,0.045984000,0.000000000,0.000000000,0.235328000,0.000000000,0.000000000,-0.049504000,0.000000000,0.000000000,1720620065.602370262,,,,,,,,,,,
1720620065.615499,0.026026000,0.000000000,0.000000000,-1.217601000,0.000000000,0.000000000,1.012726000,0.000000000,0.000000000,0.045984000,0.000000000,0.000000000,0.235136000,0.000000000,0.000000000,-0.048704000,0.000000000,0.000000000,1720620065.612370253,,,,,,,,,,,
1720620065.625098,0.026026000,0.000000000,0.000000000,-1.218679000,0.000000000,0.000000000,1.012726000,0.000000000,0.000000000,0.045984000,0.000000000,0.000000000,0.234880000,0.000000000,0.000000000,-0.048768000,0.000000000,0.000000000,1720620065.622370243,,,,,,,,,,,
1720620065.638504,0.026026000,0.000000000,0.000000000,-1.218679000,0.000000000,0.000000000,1.012726000,0.000000000,0.000000000,0.045984000,0.000000000,0.000000000,0.235520000,0.000000000,0.000000000,-0.049952000,0.000000000,0.000000000,1720620065.635370255,,,,,,,,,,,
1720620065.645249,0.026026000,0.000000000,0.000000000,-1.198197000,0.000000000,0.000000000,1.012726000,0.000000000,0.000000000,0.046048000,0.000000000,0.000000000,0.234464000,0.000000000,0.000000000,-0.050080000,0.000000000,0.000000000,1720620065.642370224,,,,,,,,,,,
1720620065.645970,0.026026000,0.000000000,0.000000000,-1.198197000,0.000000000,0.000000000,1.012726000,0.000000000,0.000000000,0.046048000,0.000000000,0.000000000,0.234464000,0.000000000,0.000000000,-0.050080000,0.000000000,0.000000000,1720620065.643370152,,,,,,,,,,,
1720620065.648695,,,,,,,,,,,,,,,,,,,,1720620065.635370255,-1.186824000,3.141592654,0.000000015,0.829037542,-0.000000022,-0.000000054,0.559192949,1.395152983,0.001110973,1.481517837
1720620065.651826,0.026026000,0.000000000,0.000000000,-1.228920000,0.000000000,0.000000000,1.012726000,0.000000000,0.000000000,0.046048000,0.000000000,0.000000000,0.234944000,0.000000000,0.000000000,-0.050432000,0.000038380,0.009134350,1720620065.649370193,,,,,,,,,,,
1720620065.659549,0.026026000,0.000000000,0.000000000,-1.218679000,0.000000000,0.000000000,1.012726000,0.000000000,0.000000000,0.046048000,0.000000000,0.000000000,0.235456000,0.000000000,0.000000000,-0.049504000,0.000000000,0.000000000,1720620065.656370163,,,,,,,,,,,
1720620065.672106,0.026026000,0.000000000,0.000000000,-1.199275000,0.000000000,0.000000000,1.012726000,0.000000000,0.000000000,0.046048000,0.000000000,0.000000000,0.235008000,0.000000000,0.000000000,-0.050880000,0.000038380,0.009134350,1720620065.669370174,,,,,,,,,,,
1720620065.679364,0.026026000,0.000000000,0.000000000,-1.224069000,0.000000000,0.000000000,1.012726000,0.000000000,0.000000000,0.046048000,0.000000000,0.000000000,0.235456000,0.000000000,0.000000000,-0.050752000,0.000038380,0.009134350,1720620065.676370144,,,,,,,,,,,
1720620065.689003,0.026026000,0.000000000,0.000000000,-1.221374000,0.000000000,0.000000000,1.012726000,0.000000000,0.000000000,0.046048000,0.000000000,0.000000000,0.235136000,0.000000000,0.000000000,-0.050080000,0.000000000,0.000000000,1720620065.686370134,,,,,,,,,,,
1720620065.698781,,,,,,,,,,,,,,,,,,,,1720620065.686370134,-1.186824000,3.141592654,0.000000015,0.829037542,-0.000000022,-0.000000054,0.559192949,1.395152983,0.001110973,1.481517837
1720620065.701000,0.026026000,0.000000000,0.000000000,-1.224608000,0.000000000,0.000000000,1.012726000,0.000000000,0.000000000,0.046112000,0.000000000,0.000000000,0.235744000,0.000000000,0.000000000,-0.049376000,0.000000000,0.000000000,1720620065.698370218,,,,,,,,,,,
1720620065.708939,0.026026000,0.000000000,0.000000000,-1.217601000,0.000000000,0.000000000,1.012726000,0.000000000,0.000000000,0.046048000,0.000000000,0.000000000,0.235136000,0.000000000,0.000000000,-0.048960000,0.000000000,0.000000000,1720620065.706370115,,,,,,,,,,,
1720620065.722188,0.026026000,0.000000000,0.000000000,-1.220296000,0.000000000,0.000000000,1.012726000,0.000000000,0.000000000,0.046048000,0.000000000,0.000000000,0.234880000,0.000000000,0.000000000,-0.049152000,0.000000000,0.000000000,1720620065.719370127,,,,,,,,,,,
1720620065.729439,0.026026000,0.000000000,0.000000000,-1.219218000,0.000000000,0.000000000,1.012726000,0.000000000,0.000000000,0.046112000,0.000000000,0.000000000,0.235136000,0.000000000,0.000000000,-0.049824000,0.000000000,0.000000000,1720620065.726370096,,,,,,,,,,,
1720620065.730262,0.026026000,0.000000000,0.000000000,-1.219218000,0.000000000,0.000000000,1.012726000,0.000000000,0.000000000,0.046112000,0.000000000,0.000000000,0.235136000,0.000000000,0.000000000,-0.049824000,0.000000000,0.000000000,1720620065.727370262,,,,,,,,,,,
1720620065.742102,0.026026000,0.000000000,0.000000000,-1.218679000,0.000000000,0.000000000,1.012726000,0.000000000,0.000000000,0.046112000,0.000000000,0.000000000,0.235072000,0.000000000,0.000000000,-0.049152000,0.000000000,0.000000000,1720620065.734370232,,,,,,,,,,,
1720620065.743612,0.026026000,0.000000000,0.000000000,-1.218679000,0.000000000,0.000000000,1.012726000,0.000000000,0.000000000,0.046048000,0.000000000,0.000000000,0.235328000,0.000000000,0.000000000,-0.049632000,0.000000000,0.000000000,1720620065.740370274,,,,,,,,,,,
1720620065.748656,0.026026000,0.000000000,0.000000000,-1.243473000,0.000000000,0.000000000,1.012726000,0.000000000,0.000000000,0.045984000,0.000000000,0.000000000,0.234944000,0.000000000,0.000000000,-0.049952000,0.000000000,0.000000000,1720620065.745370150,,,,,,,,,,,
1720620065.748681,,,,,,,,,,,,,,,,,,,,1720620065.740370274,-1.186824000,3.141592654,0.000000015,0.829037542,-0.000000022,-0.000000054,0.559192949,1.395152983,0.001110973,1.481517837
1720620065.754426,0.026026000,0.000000000,0.000000000,-1.215984000,0.000000000,0.000000000,1.012726000,0.000000000,0.000000000,0.045984000,0.000000000,0.000000000,0.235392000,0.000000000,0.000000000,-0.048896000,0.000000000,0.000000000,1720620065.751370192,,,,,,,,,,,
1720620065.756253,0.026026000,0.000000000,0.000000000,-1.210594000,0.000000000,0.000000000,1.012726000,0.000000000,0.000000000,0.045984000,0.000000000,0.000000000,0.235136000,0.000000000,0.000000000,-0.050432000,0.000038380,0.009134350,1720620065.753370285,,,,,,,,,,,
1720620065.761086,0.026026000,0.000000000,0.000000000,-1.221374000,0.000000000,0.000000000,1.012726000,0.000000000,0.000000000,0.045984000,0.000000000,0.000000000,0.235072000,0.000000000,0.000000000,-0.048768000,0.000000000,0.009134350,1720620065.758370161,,,,,,,,,,,
1720620065.769354,0.026026000,0.000000000,0.000000000,-1.220296000,0.000000000,0.000000000,1.012726000,0.000000000,0.000000000,0.045984000,0.000000000,0.000000000,0.235456000,0.000000000,0.000000000,-0.049952000,0.000000000,0.000000000,1720620065.766370058,,,,,,,,,,,
1720620065.779769,0.026026000,0.000000000,0.000000000,-1.220296000,0.000000000,0.000000000,1.012726000,0.000000000,0.000000000,0.046048000,0.000000000,0.000000000,0.236064000,0.000000000,0.000000000,-0.048768000,0.000000000,0.000000000,1720620065.776370287,,,,,,,,,,,
1720620065.779932,0.026026000,0.000000000,0.000000000,-1.220296000,0.000000000,0.000000000,1.012726000,0.000000000,0.000000000,0.046048000,0.000000000,0.000000000,0.236064000,0.000000000,0.000000000,-0.048768000,0.000000000,0.000000000,1720620065.777370214,,,,,,,,,,,
1720620065.781238,0.026026000,0.000000000,0.000000000,-1.220296000,0.000000000,0.000000000,1.012726000,0.000000000,0.000000000,0.046048000,0.000000000,0.000000000,0.236064000,0.000000000,0.000000000,-0.048768000,0.000000000,0.000000000,1720620065.778370142,,,,,,,,,,,
1720620065.785040,0.026026000,0.000000000,0.000000000,-1.219218000,0.000000000,0.000000000,1.012726000,0.000000000,0.000000000,0.046048000,0.000000000,0.000000000,0.235008000,0.000000000,0.000000000,-0.050432000,0.000038380,0.009134350,1720620065.782370090,,,,,,,,,,,
1720620065.792446,0.026026000,0.000000000,0.000000000,-1.219218000,0.000000000,0.000000000,1.012726000,0.000000000,0.000000000,0.046048000,0.000000000,0.000000000,0.235328000,0.000000000,0.000000000,-0.050240000,0.000038380,0.009134350,1720620065.789370060,,,,,,,,,,,
1720620065.793247,0.026026000,0.000000000,0.000000000,-1.219218000,0.000000000,0.000000000,1.012726000,0.000000000,0.000000000,0.046048000,0.000000000,0.000000000,0.235328000,0.000000000,0.000000000,-0.050240000,0.000038380,0.009134350,1720620065.790370226,,,,,,,,,,,
1720620065.797879,0.026026000,0.000000000,0.000000000,-1.219218000,0.000000000,0.000000000,1.012726000,0.000000000,0.000000000,0.046048000,0.000000000,0.000000000,0.234816000,0.000000000,0.000000000,-0.049376000,0.000000000,0.009134350,1720620065.794370174,,,,,,,,,,,
1720620065.798789,,,,,,,,,,,,,,,,,,,,1720620065.790370226,-1.186823998,3.141490200,0.000015924,0.829037542,0.000010709,0.000094939,0.559192948,1.395152983,0.001108959,1.481517794
1720620065.804417,0.026026000,0.000000000,0.000000000,-1.218679000,0.000000000,0.000000000,1.012726000,0.000000000,0.000000000,0.046048000,0.000000000,0.000000000,0.235328000,0.000000000,0.000000000,-0.049152000,0.000000000,0.000000000,1720620065.801370144,,,,,,,,,,,
1720620065.805434,0.026026000,0.000000000,0.000000000,-1.218679000,0.000000000,0.000000000,1.012726000,0.000000000,0.000000000,0.046048000,0.000000000,0.000000000,0.235328000,0.000000000,0.000000000,-0.049152000,0.000000000,0.000000000,1720620065.802370071,,,,,,,,,,,
1720620065.809698,0.026026000,0.000000000,0.000000000,-1.218679000,0.000000000,0.000000000,1.012726000,0.000000000,0.000000000,0.046048000,0.000000000,0.000000000,0.235392000,0.000000000,0.000000000,-0.049824000,0.000000000,0.000000000,1720620065.806370258,,,,,,,,,,,
1720620065.816424,0.026026000,0.000000000,0.000000000,-1.219218000,0.000000000,0.000000000,1.012726000,0.000000000,0.000000000,0.046048000,0.000000000,0.000000000,0.235392000,0.000000000,0.000000000,-0.049888000,0.000038380,0.009134350,1720620065.813370228,,,,,,,,,,,
1720620065.818070,0.026026000,0.000000000,0.000000000,-1.219218000,0.000000000,0.000000000,1.012726000,0.000000000,0.000000000,0.046048000,0.000000000,0.000000000,0.235392000,0.000000000,0.000000000,-0.049888000,0.000038380,0.009134350,1720620065.814370155,,,,,,,,,,,
1720620065.821350,0.026026000,0.000000000,0.000000000,-1.219218000,0.000000000,0.000000000,1.012726000,0.000000000,0.000000000,0.046048000,0.000000000,0.000000000,0.235328000,0.000000000,0.000000000,-0.049696000,0.000000000,0.009134350,1720620065.818370104,,,,,,,,,,,
1720620065.828760,0.026026000,0.000000000,0.000000000,-1.219218000,0.000000000,0.000000000,1.012726000,0.000000000,0.000000000,0.046368000,0.000000000,0.000000000,0.235328000,0.000000000,0.000000000,-0.049952000,0.000000000,0.000000000,1720620065.825370073,,,,,,,,,,,
1720620065.829806,0.026026000,0.000000000,0.000000000,-1.219218000,0.000000000,0.000000000,1.012726000,0.000000000,0.000000000,0.046368000,0.000000000,0.000000000,0.235328000,0.000000000,0.000000000,-0.049952000,0.000000000,0.000000000,1720620065.826370239,,,,,,,,,,,
1720620065.833313,0.026026000,0.000000000,0.000000000,-1.219218000,0.000000000,0.000000000,1.012726000,0.000000000,0.000000000,0.046048000,0.000000000,0.000000000,0.235200000,0.000000000,0.000000000,-0.049824000,0.000000000,0.000000000,1720620065.830370188,,,,,,,,,,,
1720620065.840539,0.026026000,0.000000000,0.000000000,-1.188495000,0.000000000,0.000000000,1.012726000,0.000000000,0.000000000,0.046048000,0.000000000,0.000000000,0.234656000,0.000000000,0.000000000,-0.049504000,0.000000000,0.000000000,1720620065.837370157,,,,,,,,,,,
1720620065.841583,0.026026000,0.000000000,0.000000000,-1.188495000,0.000000000,0.000000000,1.012726000,0.000000000,0.000000000,0.046048000,0.000000000,0.000000000,0.234656000,0.000000000,0.000000000,-0.049504000,0.000000000,0.000000000,1720620065.838370085,,,,,,,,,,,
1720620065.845364,0.026026000,0.000000000,0.000000000,-1.207899000,0.000000000,0.000000000,1.012726000,0.000000000,0.000000000,0.046048000,0.000000000,0.000000000,0.235328000,0.000000000,0.000000000,-0.050176000,0.000000000,0.000000000,1720620065.842370272,,,,,,,,,,,
1720620065.848891,,,,,,,,,,,,,,,,,,,,1720620065.842370272,-1.186824000,3.141592654,0.000000015,0.829037542,-0.000000022,-0.000000054,0.559192949,1.395152983,0.001110973,1.481517837
1720620065.852564,0.026026000,0.000000000,0.000000000,-1.220296000,0.000000000,0.000000000,1.012726000,0.000000000,0.000000000,0.046048000,0.000000000,0.000000000,0.235072000,0.000000000,0.000000000,-0.050176000,0.000000000,0.000000000,1720620065.849370241,,,,,,,,,,,
1720620065.853341,0.026026000,0.000000000,0.000000000,-1.220296000,0.000000000,0.000000000,1.012726000,0.000000000,0.000000000,0.046048000,0.000000000,0.000000000,0.235072000,0.000000000,0.000000000,-0.050176000,0.000000000,0.000000000,1720620065.850370169,,,,,,,,,,,
1720620065.857654,0.026026000,0.000000000,0.000000000,-1.224608000,0.000000000,0.000000000,1.012726000,0.000000000,0.000000000,0.046048000,0.000000000,0.000000000,0.235744000,0.000000000,0.000000000,-0.049696000,0.000000000,0.000000000,1720620065.854370117,,,,,,,,,,,
1720620065.864670,0.026026000,0.000000000,0.000000000,-1.217601000,0.000000000,0.000000000,1.012726000,0.000000000,0.000000000,0.046048000,0.000000000,0.000000000,0.235392000,0.000000000,0.000000000,-0.049952000,0.000038380,0.009134350,1720620065.861370087,,,,,,,,,,,
1720620065.865410,0.026026000,0.000000000,0.000000000,-1.217601000,0.000000000,0.000000000,1.012726000,0.000000000,0.000000000,0.046048000,0.000000000,0.000000000,0.235392000,0.000000000,0.000000000,-0.049952000,0.000038380,0.009134350,1720620065.862370253,,,,,,,,,,,
1720620065.869667,0.026026000,0.000000000,0.000000000,-1.217601000,0.000000000,0.000000000,1.012726000,0.000000000,0.000000000,0.046048000,0.000000000,0.000000000,0.234816000,0.000000000,0.000000000,-0.048960000,0.000000000,0.009134350,1720620065.866370201,,,,,,,,,,,
1720620065.876656,0.026026000,0.000000000,0.000000000,-1.217601000,0.000000000,0.000000000,1.012726000,0.000000000,0.000000000,0.046048000,0.000000000,0.000000000,0.235264000,0.000000000,0.000000000,-0.049952000,0.000000000,0.000000000,1720620065.873370171,,,,,,,,,,,
1720620065.878178,0.026026000,0.000000000,0.000000000,-1.217601000,0.000000000,0.000000000,1.012726000,0.000000000,0.000000000,0.046048000,0.000000000,0.000000000,0.235264000,0.000000000,0.000000000,-0.049952000,0.000000000,0.000000000,1720620065.874370098,,,,,,,,,,,
1720620065.881598,0.026026000,0.000000000,0.000000000,-1.217601000,0.000000000,0.000000000,1.012726000,0.000000000,0.000000000,0.046048000,0.000000000,0.000000000,0.235456000,0.000000000,0.000000000,-0.049696000,0.000000000,0.000000000,1720620065.878370285,,,,,,,,,,,
1720620065.889061,0.026026000,0.000000000,0.000000000,-1.248324000,0.000000000,0.000000000,1.012726000,0.000000000,0.000000000,0.046048000,0.000000000,0.000000000,0.235392000,0.000000000,0.000000000,-0.049696000,0.000000000,0.000000000,1720620065.885370255,,,,,,,,,,,
1720620065.889838,0.026026000,0.000000000,0.000000000,-1.248324000,0.000000000,0.000000000,1.012726000,0.000000000,0.000000000,0.046048000,0.000000000,0.000000000,0.235392000,0.000000000,0.000000000,-0.049696000,0.000000000,0.000000000,1720620065.886370182,,,,,,,,,,,
1720620065.894463,0.026026000,0.000000000,0.000000000,-1.222991000,0.000000000,0.000000000,1.012726000,0.000000000,0.000000000,0.046048000,0.000000000,0.000000000,0.235008000,0.000000000,0.000000000,-0.049760000,0.000000000,0.000000000,1720620065.891370058,,,,,,,,,,,
1720620065.900653,0.026026000,0.000000000,0.000000000,-1.217601000,0.000000000,0.000000000,1.012726000,0.000000000,0.000000000,0.046048000,0.000000000,0.000000000,0.235072000,0.000000000,0.000000000,-0.049888000,0.000000000,0.000000000,1720620065.897370100,,,,,,,,,,,
1720620065.901334,0.026026000,0.000000000,0.000000000,-1.217601000,0.000000000,0.000000000,1.012726000,0.000000000,0.000000000,0.046048000,0.000000000,0.000000000,0.235072000,0.000000000,0.000000000,-0.049888000,0.000000000,0.000000000,1720620065.898370266,,,,,,,,,,,
1720620065.903390,0.026026000,0.000000000,0.000000000,-1.218679000,0.000000000,0.000000000,1.012726000,0.000000000,0.000000000,0.046048000,0.000000000,0.000000000,0.235264000,0.000000000,0.000000000,-0.049376000,0.000000000,0.000000000,1720620065.900370121,,,,,,,,,,,
1720620065.908889,,,,,,,,,,,,,,,,,,,,1720620065.897370100,-1.186824000,3.141592654,0.000000015,0.829037542,-0.000000022,-0.000000054,0.559192949,1.395152983,0.001110973,1.481517837
1720620065.912619,0.026026000,0.000000000,0.000000000,-1.219218000,0.000000000,0.000000000,1.012726000,0.000000000,0.000000000,0.046112000,0.000000000,0.000000000,0.234880000,0.000000000,0.000000000,-0.049568000,0.000000000,0.000000000,1720620065.909370184,,,,,,,,,,,
1720620065.913564,0.026026000,0.000000000,0.000000000,-1.219218000,0.000000000,0.000000000,1.012726000,0.000000000,0.000000000,0.046112000,0.000000000,0.000000000,0.234880000,0.000000000,0.000000000,-0.049568000,0.000000000,0.000000000,1720620065.910370111,,,,,,,,,,,
1720620065.916312,0.026026000,0.000000000,0.000000000,-1.219218000,0.000000000,0.000000000,1.012726000,0.000000000,0.000000000,0.046112000,0.000000000,0.000000000,0.235520000,0.000000000,0.000000000,-0.049312000,0.000000000,0.000000000,1720620065.911370277,,,,,,,,,,,
1720620065.924777,0.026026000,0.000000000,0.000000000,-1.218679000,0.000000000,0.000000000,1.012726000,0.000000000,0.000000000,0.046368000,0.000000000,0.000000000,0.235136000,0.000000000,0.000000000,-0.049376000,0.000000000,0.000000000,1720620065.921370268,,,,,,,,,,,
1720620065.925771,0.026026000,0.000000000,0.000000000,-1.218679000,0.000000000,0.000000000,1.012726000,0.000000000,0.000000000,0.046368000,0.000000000,0.000000000,0.235136000,0.000000000,0.000000000,-0.049376000,0.000000000,0.000000000,1720620065.922370195,,,,,,,,,,,
1720620065.928425,0.026026000,0.000000000,0.000000000,-1.218679000,0.000000000,0.000000000,1.012726000,0.000000000,0.000000000,0.046112000,0.000000000,0.000000000,0.235072000,0.000000000,0.000000000,-0.049568000,0.000000000,0.000000000,1720620065.923370123,,,,,,,,,,,
1720620065.936891,0.026026000,0.000000000,0.000000000,-1.218679000,0.000000000,0.000000000,1.012726000,0.000000000,0.000000000,0.046112000,0.000000000,0.000000000,0.235520000,0.000000000,0.000000000,-0.049952000,0.000038380,0.009134350,1720620065.933370113,,,,,,,,,,,
1720620065.938296,0.026026000,0.000000000,0.000000000,-1.218679000,0.000000000,0.000000000,1.012726000,0.000000000,0.000000000,0.046112000,0.000000000,0.000000000,0.235520000,0.000000000,0.000000000,-0.049952000,0.000038380,0.009134350,1720620065.934370279,,,,,,,,,,,
1720620065.939841,0.026026000,0.000000000,0.000000000,-1.218679000,0.000000000,0.000000000,1.012726000,0.000000000,0.000000000,0.046112000,0.000000000,0.000000000,0.235072000,0.000000000,0.000000000,-0.049376000,0.000000000,0.009134350,1720620065.936370134,,,,,,,,,,,
1720620065.948857,0.026026000,0.000000000,0.000000000,-1.219218000,0.000000000,0.000000000,1.012726000,0.000000000,0.000000000,0.046112000,0.000000000,0.000000000,0.235808000,0.000000000,0.000000000,-0.050016000,0.000000000,0.000000000,1720620065.945370197,,,,,,,,,,,
1720620065.949803,0.026026000,0.000000000,0.000000000,-1.219218000,0.000000000,0.000000000,1.012726000,0.000000000,0.000000000,0.046112000,0.000000000,0.000000000,0.235808000,0.000000000,0.000000000,-0.050016000,0.000000000,0.000000000,1720620065.946370125,,,,,,,,,,,
1720620065.951257,0.026026000,0.000000000,0.000000000,-1.219218000,0.000000000,0.000000000,1.012726000,0.000000000,0.000000000,0.046112000,0.000000000,0.000000000,0.235456000,0.000000000,0.000000000,-0.048832000,0.000000000,0.000000000,1720620065.948370218,,,,,,,,,,,
1720620065.958995,,,,,,,,,,,,,,,,,,,,1720620065.948370218,-1.186824000,3.141592654,0.000000015,0.829037542,-0.000000022,-0.000000054,0.559192949,1.395152983,0.001110973,1.481517837
1720620065.964693,0.026026000,0.000000000,0.000000000,-1.219218000,0.000000000,0.000000000,1.012726000,0.000000000,0.000000000,0.046112000,0.000000000,0.000000000,0.235264000,0.000000000,0.000000000,-0.050240000,0.000038380,0.009134350,1720620065.959370136,,,,,,,,,,,
1720620065.971834,0.026026000,0.000000000,0.000000000,-1.219218000,0.000000000,0.000000000,1.012726000,0.000000000,0.000000000,0.046112000,0.000000000,0.000000000,0.236128000,0.000000000,0.000000000,-0.050016000,0.000038380,0.009134350,1720620065.968370199,,,,,,,,,,,
1720620065.983536,0.026026000,0.000000000,0.000000000,-1.218679000,0.000000000,0.000000000,1.012726000,0.000000000,0.000000000,0.046112000,0.000000000,0.000000000,0.235808000,0.000000000,0.000000000,-0.049824000,0.000000000,0.000000000,1720620065.980370283,,,,,,,,,,,
1720620065.991546,0.026026000,0.000000000,0.000000000,-1.218679000,0.000000000,0.000000000,1.012726000,0.000000000,0.000000000,0.046112000,0.000000000,0.000000000,0.235264000,0.000000000,0.000000000,-0.049152000,0.000000000,0.000000000,1720620065.988370180,,,,,,,,,,,
1720620066.000878,0.026026000,0.000000000,0.000000000,-1.219218000,0.000000000,0.000000000,1.012726000,0.000000000,0.000000000,0.046112000,0.000000000,0.000000000,0.235392000,0.000000000,0.000000000,-0.048640000,0.000000000,0.000000000,1720620065.997370243,,,,,,,,,,,
1720620066.001536,0.026026000,0.000000000,0.000000000,-1.219218000,0.000000000,0.000000000,1.012726000,0.000000000,0.000000000,0.046112000,0.000000000,0.000000000,0.235392000,0.000000000,0.000000000,-0.048640000,0.000000000,0.000000000,1720620065.998370171,,,,,,,,,,,
1720620066.004754,0.026026000,0.000000000,0.000000000,-1.219218000,0.000000000,0.000000000,1.012726000,0.000000000,0.000000000,0.046176000,0.000000000,0.000000000,0.235264000,0.000000000,0.000000000,-0.050176000,0.000038380,0.009134350,1720620066.001370192,,,,,,,,,,,
1720620066.008760,,,,,,,,,,,,,,,,,,,,1720620065.998370171,-1.186824000,3.141592654,0.000000015,0.829037542,-0.000000022,-0.000000054,0.559192949,1.395152983,0.001110973,1.481517837
1720620066.013048,0.026026000,0.000000000,0.000000000,-1.219218000,0.000000000,0.000000000,1.012726000,0.000000000,0.000000000,0.046112000,0.000000000,0.000000000,0.235744000,0.000000000,0.000000000,-0.049696000,0.000000000,0.000000000,1720620066.009370089,,,,,,,,,,,
1720620066.013747,0.026026000,0.000000000,0.000000000,-1.219218000,0.000000000,0.000000000,1.012726000,0.000000000,0.000000000,0.046112000,0.000000000,0.000000000,0.235744000,0.000000000,0.000000000,-0.049696000,0.000000000,0.000000000,1720620066.010370255,,,,,,,,,,,
1720620066.016645,0.026026000,0.000000000,0.000000000,-1.228381000,0.000000000,0.000000000,1.012726000,0.000000000,0.000000000,0.046048000,0.000000000,0.000000000,0.234880000,0.000000000,0.000000000,-0.050016000,0.000000000,0.000000000,1720620066.011370182,,,,,,,,,,,
1720620066.024973,0.026026000,0.000000000,0.000000000,-1.221374000,0.000000000,0.000000000,1.012726000,0.000000000,0.000000000,0.045984000,0.000000000,0.000000000,0.235200000,0.000000000,0.000000000,-0.049888000,0.000000000,0.000000000,1720620066.021370173,,,,,,,,,,,
1720620066.025805,0.026026000,0.000000000,0.000000000,-1.221374000,0.000000000,0.000000000,1.012726000,0.000000000,0.000000000,0.045984000,0.000000000,0.000000000,0.235200000,0.000000000,0.000000000,-0.049888000,0.000000000,0.000000000,1720620066.022370100,,,,,,,,,,,
1720620066.027239,0.026026000,0.000000000,0.000000000,-1.221374000,0.000000000,0.000000000,1.012726000,0.000000000,0.000000000,0.045984000,0.000000000,0.000000000,0.235328000,0.000000000,0.000000000,-0.049632000,0.000000000,0.000000000,1720620066.023370266,,,,,,,,,,,
1720620066.037182,0.026026000,0.000000000,0.000000000,-1.210594000,0.000000000,0.000000000,1.012726000,0.000000000,0.000000000,0.045984000,0.000000000,0.000000000,0.235392000,0.000000000,0.000000000,-0.049696000,0.000000000,0.000000000,1720620066.033370256,,,,,,,,,,,
1720620066.040083,0.026026000,0.000000000,0.000000000,-1.217601000,0.000000000,0.000000000,1.012726000,0.000000000,0.000000000,0.045984000,0.000000000,0.000000000,0.234464000,0.000000000,0.000000000,-0.049824000,0.000000000,0.000000000,1720620066.036370277,,,,,,,,,,,
1720620066.050340,0.026026000,0.000000000,0.000000000,-1.241317000,0.000000000,0.000000000,1.012726000,0.000000000,0.000000000,0.045984000,0.000000000,0.000000000,0.235872000,0.000000000,0.000000000,-0.049568000,0.000000000,0.000000000,1720620066.046370268,,,,,,,,,,,
1720620066.060272,0.026026000,0.000000000,0.000000000,-1.252097000,0.000000000,0.000000000,1.012726000,0.000000000,0.000000000,0.045984000,0.000000000,0.000000000,0.235264000,0.000000000,0.000000000,-0.049568000,0.000038380,0.009134350,1720620066.056370258,,,,,,,,,,,
1720620066.068820,,,,,,,,,,,,,,,,,,,,1720620066.056370258,-1.186823998,3.141490200,0.000015924,0.829037542,0.000010709,0.000094939,0.559192948,1.395152983,0.001108959,1.481517794
1720620066.076041,0.026026000,0.000000000,0.000000000,-1.210594000,0.000000000,0.000000000,1.012726000,0.000000000,0.000000000,0.045984000,0.000000000,0.000000000,0.235520000,0.000000000,0.000000000,-0.049024000,0.000000000,0.000000000,1720620066.066370249,,,,,,,,,,,
1720620066.080933,0.026026000,0.000000000,0.000000000,-1.219218000,0.000000000,0.000000000,1.012726000,0.000000000,0.000000000,0.045984000,0.000000000,0.000000000,0.235264000,0.000000000,0.000000000,-0.050176000,0.000038380,0.009134350,1720620066.077370167,,,,,,,,,,,
1720620066.088970,0.026026000,0.000000000,0.000000000,-1.219218000,0.000000000,0.000000000,1.012726000,0.000000000,0.000000000,0.045984000,0.000000000,0.000000000,0.235520000,0.000000000,0.000000000,-0.049760000,0.000000000,0.000000000,1720620066.085370064,,,,,,,,,,,
1720620066.099760,0.026026000,0.000000000,0.000000000,-1.219218000,0.000000000,0.000000000,1.012726000,0.000000000,0.000000000,0.045984000,0.000000000,0.000000000,0.234752000,0.000000000,0.000000000,-0.049760000,0.000000000,0.000000000,1720620066.095370293,,,,,,,,,,,
1720620066.112023,0.026026000,0.000000000,0.000000000,-1.219218000,0.000000000,0.000000000,1.012726000,0.000000000,0.000000000,0.046048000,0.000000000,0.000000000,0.234944000,0.000000000,0.000000000,-0.048448000,0.000000000,0.009134350,1720620066.108370066,,,,,,,,,,,
1720620066.118914,,,,,,,,,,,,,,,,,,,,1720620066.108370066,-1.186824000,3.141592654,0.000000015,0.829037542,-0.000000022,-0.000000054,0.559192949,1.395152983,0.001110973,1.481517837
1720620066.119790,0.026026000,0.000000000,0.000000000,-1.217601000,0.000000000,0.000000000,1.012726000,0.000000000,0.000000000,0.046048000,0.000000000,0.000000000,0.235456000,0.000000000,0.000000000,-0.049376000,0.000000000,0.009134350,1720620066.115370274,,,,,,,,,,,
1720620066.129186,0.024882000,0.000000000,0.000000000,-1.224069000,0.000000000,0.000000000,1.012726000,0.000000000,0.000000000,0.046048000,0.000000000,0.000000000,0.234272000,0.000000000,0.000000000,-0.049504000,0.000000000,0.000000000,1720620066.125370264,,,,,,,,,,,
1720620066.142193,0.026026000,0.000000000,0.000000000,-1.215984000,0.000000000,0.000000000,1.012726000,0.000000000,0.000000000,0.046048000,0.000000000,0.000000000,0.235808000,0.000000000,0.000000000,-0.049824000,0.000038380,0.009134350,1720620066.138370275,,,,,,,,,,,
1720620066.149563,0.026026000,0.000000000,0.000000000,-1.217062000,0.000000000,0.000000000,1.012726000,0.000000000,0.000000000,0.046048000,0.000000000,0.000000000,0.235392000,0.000000000,0.000000000,-0.049632000,0.000000000,0.000000000,1720620066.145370245,,,,,,,,,,,
1720620066.151584,0.026026000,0.000000000,0.000000000,-1.217062000,0.000000000,0.000000000,1.012726000,0.000000000,0.000000000,0.046048000,0.000000000,0.000000000,0.235392000,0.000000000,0.000000000,-0.049632000,0.000000000,0.000000000,1720620066.146370173,,,,,,,,,,,
1720620066.160861,0.026026000,0.000000000,0.000000000,-1.218679000,0.000000000,0.000000000,1.012726000,0.000000000,0.000000000,0.046048000,0.000000000,0.000000000,0.236064000,0.000000000,0.000000000,-0.050080000,0.000000000,0.000000000,1720620066.156370163,,,,,,,,,,,
1720620066.160955,0.026026000,0.000000000,0.000000000,-1.218679000,0.000000000,0.000000000,1.012726000,0.000000000,0.000000000,0.046048000,0.000000000,0.000000000,0.236064000,0.000000000,0.000000000,-0.050080000,0.000000000,0.000000000,1720620066.157370090,,,,,,,,,,,
1720620066.162128,0.026026000,0.000000000,0.000000000,-1.218679000,0.000000000,0.000000000,1.012726000,0.000000000,0.000000000,0.046048000,0.000000000,0.000000000,0.236064000,0.000000000,0.000000000,-0.050080000,0.000000000,0.000000000,1720620066.158370256,,,,,,,,,,,
1720620066.164339,0.024882000,0.000000000,0.000000000,-1.219218000,0.000000000,0.000000000,1.012726000,0.000000000,0.000000000,0.046048000,0.000000000,0.000000000,0.234944000,0.000000000,0.000000000,-0.048096000,0.000000000,0.000000000,1720620066.160370111,,,,,,,,,,,
1720620066.168720,0.024882000,0.000000000,0.000000000,-1.220296000,0.000000000,0.000000000,1.012726000,0.000000000,0.000000000,0.046048000,0.000000000,0.000000000,0.235008000,0.000000000,0.000000000,-0.051104000,0.000038380,0.009134350,1720620066.164370060,,,,,,,,,,,
1720620066.169530,,,,,,,,,,,,,,,,,,,,1720620066.158370256,-1.186824000,3.141592654,0.000000015,0.829037542,-0.000000022,-0.000000054,0.559192949,1.395152983,0.001110973,1.481517837
1720620066.176363,0.024882000,0.000000000,0.000000000,-1.220296000,0.000000000,0.000000000,1.012726000,0.000000000,0.000000000,0.046048000,0.000000000,0.000000000,0.235136000,0.000000000,0.000000000,-0.051168000,0.000038380,0.009134350,1720620066.172370195,,,,,,,,,,,
1720620066.180445,0.025454000,0.000000000,0.000000000,-1.221374000,0.000000000,0.000000000,1.012726000,0.000000000,0.000000000,0.046048000,0.000000000,0.000000000,0.235008000,0.000000000,0.000000000,-0.048096000,0.000000000,0.009134350,1720620066.176370144,,,,,,,,,,,
1720620066.201091,0.025454000,0.000000000,0.000000000,-1.212211000,0.000000000,0.000000000,1.012726000,0.000000000,0.000000000,0.046112000,0.000000000,0.000000000,0.235072000,0.000000000,0.000000000,-0.051360000,0.000038380,0.009134350,1720620066.189370155,,,,,,,,,,,
1720620066.202074,0.026026000,0.000000000,0.000000000,-1.211672000,0.000000000,0.000000000,1.012726000,0.000000000,0.000000000,0.045984000,0.000000000,0.000000000,0.235456000,0.000000000,0.000000000,-0.050752000,0.000038380,0.009134350,1720620066.198370218,,,,,,,,,,,
1720620066.204144,0.026026000,0.000000000,0.000000000,-1.219218000,0.000000000,0.000000000,1.012726000,0.000000000,0.000000000,0.045984000,0.000000000,0.000000000,0.235520000,0.000000000,0.000000000,-0.048960000,0.000000000,0.009134350,1720620066.200370073,,,,,,,,,,,
1720620066.208132,0.026026000,0.000000000,0.000000000,-1.217601000,0.000000000,0.000000000,1.012726000,0.000000000,0.000000000,0.045728000,0.000000000,0.000000000,0.234272000,0.000000000,0.000000000,-0.049760000,0.000038380,0.009134350,1720620066.204370260,,,,,,,,,,,
1720620066.216326,0.025454000,0.000000000,0.000000000,-1.217601000,0.000000000,0.000000000,1.012726000,0.000000000,0.000000000,0.045984000,0.000000000,0.000000000,0.235072000,0.000000000,0.000000000,-0.049312000,0.000000000,0.000000000,1720620066.212370157,,,,,,,,,,,
1720620066.218839,,,,,,,,,,,,,,,,,,,,1720620066.212370157,-1.186824000,3.141592654,0.000000015,0.829037542,-0.000000022,-0.000000054,0.559192949,1.395152983,0.001110973,1.481517837
1720620066.221076,0.025454000,0.000000000,0.000000000,-1.218679000,0.000000000,0.000000000,1.012726000,0.000000000,0.000000000,0.045984000,0.000000000,0.000000000,0.234464000,0.000000000,0.000000000,-0.050016000,0.000000000,0.000000000,1720620066.217370272,,,,,,,,,,,
1720620066.228409,0.025454000,0.000000000,0.000000000,-1.219218000,0.000000000,0.000000000,1.012726000,0.000000000,0.000000000,0.045984000,0.000000000,0.000000000,0.235200000,0.000000000,0.000000000,-0.049568000,0.000000000,0.009134350,1720620066.224370241,,,,,,,,,,,
1720620066.232054,0.025454000,0.000000000,0.000000000,-1.218679000,0.000000000,0.000000000,1.012726000,0.000000000,0.000000000,0.045984000,0.000000000,0.000000000,0.235136000,0.000000000,0.000000000,-0.049696000,0.000000000,0.000000000,1720620066.228370190,,,,,,,,,,,
1720620066.240679,0.025454000,0.000000000,0.000000000,-1.219218000,0.000000000,0.000000000,1.012726000,0.000000000,0.000000000,0.045984000,0.000000000,0.000000000,0.235584000,0.000000000,0.000000000,-0.049440000,0.000038380,0.009134350,1720620066.236370087,,,,,,,,,,,
