zakjeens/yaskawa_debug_materials/t5/joints.csv
__time,/joint_states/group_1/joint_1/effort,/joint_states/group_1/joint_1/position,/joint_states/group_1/joint_1/velocity,/joint_states/group_1/joint_2/effort,/joint_states/group_1/joint_2/position,/joint_states/group_1/joint_2/velocity,/joint_states/group_1/joint_3/effort,/joint_states/group_1/joint_3/position,/joint_states/group_1/joint_3/velocity,/joint_states/group_1/joint_4/effort,/joint_states/group_1/joint_4/position,/joint_states/group_1/joint_4/velocity,/joint_states/group_1/joint_5/effort,/joint_states/group_1/joint_5/position,/joint_states/group_1/joint_5/velocity,/joint_states/group_1/joint_6/effort,/joint_states/group_1/joint_6/position,/joint_states/group_1/joint_6/velocity,/joint_states/header/stamp,/world_to_torch/header/header/stamp,/world_to_torch/transform/rotation/pitch,/world_to_torch/transform/rotation/roll,/world_to_torch/transform/rotation/w,/world_to_torch/transform/rotation/x,/world_to_torch/transform/rotation/y,/world_to_torch/transform/rotation/yaw,/world_to_torch/transform/rotation/z,/world_to_torch/transform/translation/x,/world_to_torch/transform/translation/y,/world_to_torch/transform/translation/z
1720619311.278175,0.025454000,0.000000000,0.000000000,-1.202509000,0.000000000,0.000000000,1.013584000,0.000000000,0.000000000,0.046176000,0.000000000,0.000000000,0.235680000,0.000000000,0.000000000,-0.046784000,0.000000000,0.000000000,1720619311.267388105,,,,,,,,,,,
1720619311.278190,0.025454000,0.000000000,0.000000000,-1.202509000,0.000000000,0.000000000,1.013584000,0.000000000,0.000000000,0.046176000,0.000000000,0.000000000,0.235680000,0.000000000,0.000000000,-0.046784000,0.000000000,0.000000000,1720619311.268388271,,,,,,,,,,,
1720619311.278203,0.025454000,0.000000000,0.000000000,-1.203587000,0.000000000,0.000000000,1.013584000,0.000000000,0.000000000,0.046176000,0.000000000,0.000000000,0.235200000,0.000000000,0.000000000,-0.047520000,0.000000000,0.000000000,1720619311.270388126,,,,,,,,,,,
1720619311.280371,0.025454000,0.000000000,0.000000000,-1.202509000,0.000000000,0.000000000,1.013584000,0.000000000,0.000000000,0.046176000,0.000000000,0.000000000,0.236128000,0.000000000,0.000000000,-0.046112000,0.000000000,0.000000000,1720619311.274388313,,,,,,,,,,,
1720619311.289006,0.025454000,0.000000000,0.000000000,-1.204665000,0.000000000,0.000000000,1.013584000,0.000000000,0.000000000,0.046176000,0.000000000,0.000000000,0.236800000,0.000000000,0.000000000,-0.047104000,0.000000000,0.009134350,1720619311.282388210,,,,,,,,,,,
1720619311.293293,0.025454000,0.000000000,0.000000000,-1.204665000,0.000000000,0.000000000,1.013584000,0.000000000,0.000000000,0.046176000,0.000000000,0.000000000,0.235200000,0.000000000,0.000000000,-0.046784000,0.000000000,0.000000000,1720619311.286388159,,,,,,,,,,,
1720619311.301307,0.025454000,0.000000000,0.000000000,-1.203587000,0.000000000,0.000000000,1.013584000,0.000000000,0.000000000,0.046176000,0.000000000,0.000000000,0.235872000,0.000000000,0.000000000,-0.047424000,0.000000000,0.000000000,1720619311.294388294,,,,,,,,,,,
1720619311.304708,,,,,,,,,,,,,,,,,,,,1720619311.294388294,-1.186824000,3.141592654,0.000000015,0.829037542,-0.000000022,-0.000000054,0.559192949,1.395152983,0.001110973,1.481517837
1720619311.304741,0.025454000,0.000000000,0.000000000,-1.203587000,0.000000000,0.000000000,1.013584000,0.000000000,0.000000000,0.046176000,0.000000000,0.000000000,0.235328000,0.000000000,0.000000000,-0.046720000,0.000000000,0.000000000,1720619311.298388243,,,,,,,,,,,
1720619311.313830,0.025454000,0.000000000,0.000000000,-1.202509000,0.000000000,0.000000000,1.013584000,0.000000000,0.000000000,0.046112000,0.000000000,0.000000000,0.235456000,0.000000000,0.000000000,-0.045792000,0.000000000,0.000000000,1720619311.306388140,,,,,,,,,,,
1720619311.324400,0.025454000,0.000000000,0.000000000,-1.196580000,0.000000000,0.000000000,1.013584000,0.000000000,0.000000000,0.046112000,0.000000000,0.000000000,0.235744000,0.000000000,0.000000000,-0.048576000,0.000038380,0.009134350,1720619311.317388296,,,,,,,,,,,
1720619311.324628,0.025454000,0.000000000,0.000000000,-1.196580000,0.000000000,0.000000000,1.013584000,0.000000000,0.000000000,0.046112000,0.000000000,0.000000000,0.235744000,0.000000000,0.000000000,-0.048576000,0.000038380,0.009134350,1720619311.318388224,,,,,,,,,,,
1720619311.325837,0.025454000,0.000000000,0.000000000,-1.196580000,0.000000000,0.000000000,1.013584000,0.000000000,0.000000000,0.046112000,0.000000000,0.000000000,0.235744000,0.000000000,0.000000000,-0.048576000,0.000038380,0.009134350,1720619311.319388151,,,,,,,,,,,
1720619311.330145,0.025454000,0.000000000,0.000000000,-1.199814000,0.000000000,0.000000000,1.013584000,0.000000000,0.000000000,0.046112000,0.000000000,0.000000000,0.236000000,0.000000000,0.000000000,-0.045984000,0.000000000,0.009134350,1720619311.323388100,,,,,,,,,,,
1720619311.337235,0.025454000,0.000000000,0.000000000,-1.200892000,0.000000000,0.000000000,1.013584000,0.000000000,0.000000000,0.046112000,0.000000000,0.000000000,0.235136000,0.000000000,0.000000000,-0.045632000,0.000000000,0.009134350,1720619311.330388308,,,,,,,,,,,
1720619311.338052,0.025454000,0.000000000,0.000000000,-1.200892000,0.000000000,0.000000000,1.013584000,0.000000000,0.000000000,0.046112000,0.000000000,0.000000000,0.235136000,0.000000000,0.000000000,-0.045632000,0.000000000,0.009134350,1720619311.331388235,,,,,,,,,,,
1720619311.341887,0.025454000,0.000000000,0.000000000,-1.200892000,0.000000000,0.000000000,1.013584000,0.000000000,0.000000000,0.046112000,0.000000000,0.000000000,0.235680000,0.000000000,0.000000000,-0.048384000,0.000038380,0.009134350,1720619311.335388184,,,,,,,,,,,
1720619311.349291,0.025454000,0.000000000,0.000000000,-1.201970000,0.000000000,0.000000000,1.013584000,0.000000000,0.000000000,0.045856000,0.000000000,0.000000000,0.236192000,0.000000000,0.000000000,-0.047840000,0.000038380,0.009134350,1720619311.342388153,,,,,,,,,,,
1720619311.350500,0.025454000,0.000000000,0.000000000,-1.201970000,0.000000000,0.000000000,1.013584000,0.000000000,0.000000000,0.045856000,0.000000000,0.000000000,0.236192000,0.000000000,0.000000000,-0.047840000,0.000038380,0.009134350,1720619311.343388319,,,,,,,,,,,
1720619311.353812,0.025454000,0.000000000,0.000000000,-1.202509000,0.000000000,0.000000000,1.013584000,0.000000000,0.000000000,0.046176000,0.000000000,0.000000000,0.235072000,0.000000000,0.000000000,-0.046496000,0.000000000,0.009134350,1720619311.347388268,,,,,,,,,,,
1720619311.354756,,,,,,,,,,,,,,,,,,,,1720619311.347388268,-1.186824000,3.141592654,0.000000015,0.829037542,-0.000000022,-0.000000054,0.559192949,1.395152983,0.001110973,1.481517837
1720619311.361362,0.025454000,0.000000000,0.000000000,-1.202509000,0.000000000,0.000000000,1.013584000,0.000000000,0.000000000,0.046176000,0.000000000,0.000000000,0.235744000,0.000000000,0.000000000,-0.045792000,0.000000000,0.009134350,1720619311.354388237,,,,,,,,,,,
1720619311.361979,0.025454000,0.000000000,0.000000000,-1.202509000,0.000000000,0.000000000,1.013584000,0.000000000,0.000000000,0.046176000,0.000000000,0.000000000,0.235744000,0.000000000,0.000000000,-0.045792000,0.000000000,0.009134350,1720619311.355388165,,,,,,,,,,,
1720619311.366827,0.025454000,0.000000000,0.000000000,-1.195502000,0.000000000,0.000000000,1.013584000,0.000000000,0.000000000,0.046176000,0.000000000,0.000000000,0.236064000,0.000000000,0.000000000,-0.048576000,0.000038380,0.009134350,1720619311.360388279,,,,,,,,,,,
1720619311.374285,0.025454000,0.000000000,0.000000000,-1.200892000,0.000000000,0.000000000,1.013584000,0.000000000,0.000000000,0.046176000,0.000000000,0.000000000,0.235680000,0.000000000,0.000000000,-0.048160000,0.000038380,0.009134350,1720619311.367388248,,,,,,,,,,,
1720619311.374948,0.025454000,0.000000000,0.000000000,-1.200892000,0.000000000,0.000000000,1.013584000,0.000000000,0.000000000,0.046176000,0.000000000,0.000000000,0.235680000,0.000000000,0.000000000,-0.048160000,0.000038380,0.009134350,1720619311.368388176,,,,,,,,,,,
1720619311.380955,0.025454000,0.000000000,0.000000000,-1.202509000,0.000000000,0.000000000,1.013584000,0.000000000,0.000000000,0.046176000,0.000000000,0.000000000,0.236192000,0.000000000,0.000000000,-0.048768000,0.000038380,0.009134350,1720619311.374388218,,,,,,,,,,,
1720619311.387993,0.025454000,0.000000000,0.000000000,-1.202509000,0.000000000,0.000000000,1.013584000,0.000000000,0.000000000,0.046176000,0.000000000,0.000000000,0.235744000,0.000000000,0.000000000,-0.048448000,0.000000000,0.009134350,1720619311.380388260,,,,,,,,,,,
1720619311.401296,0.025454000,0.000000000,0.000000000,-1.202509000,0.000000000,0.000000000,1.013584000,0.000000000,0.000000000,0.046176000,0.000000000,0.000000000,0.235200000,0.000000000,0.000000000,-0.046592000,0.000000000,0.009134350,1720619311.394388199,,,,,,,,,,,
1720619311.408177,0.025454000,0.000000000,0.000000000,-1.174481000,0.000000000,0.000000000,1.013584000,0.000000000,0.000000000,0.046112000,0.000000000,0.000000000,0.235744000,0.000000000,0.000000000,-0.046784000,0.000000000,0.009134350,1720619311.401388168,,,,,,,,,,,
1720619311.415047,,,,,,,,,,,,,,,,,,,,1720619311.401388168,-1.186824000,3.141592654,0.000000015,0.829037542,-0.000000022,-0.000000054,0.559192949,1.395152983,0.001110973,1.481517837
1720619311.417509,0.025454000,0.000000000,0.000000000,-1.205204000,0.000000000,0.000000000,1.013584000,0.000000000,0.000000000,0.046176000,0.000000000,0.000000000,0.235872000,0.000000000,0.000000000,-0.047584000,0.000000000,0.000000000,1720619311.410388231,,,,,,,,,,,
1720619311.418307,0.025454000,0.000000000,0.000000000,-1.205204000,0.000000000,0.000000000,1.013584000,0.000000000,0.000000000,0.046176000,0.000000000,0.000000000,0.235872000,0.000000000,0.000000000,-0.047584000,0.000000000,0.000000000,1720619311.411388159,,,,,,,,,,,
1720619311.420556,0.025454000,0.000000000,0.000000000,-1.205204000,0.000000000,0.000000000,1.013584000,0.000000000,0.000000000,0.045792000,0.000000000,0.000000000,0.235936000,0.000000000,0.000000000,-0.045920000,0.000000000,0.000000000,1720619311.413388252,,,,,,,,,,,
1720619311.429792,0.025454000,0.000000000,0.000000000,-1.205204000,0.000000000,0.000000000,1.013584000,0.000000000,0.000000000,0.046112000,0.000000000,0.000000000,0.235808000,0.000000000,0.000000000,-0.046848000,0.000000000,0.000000000,1720619311.422388315,,,,,,,,,,,
1720619311.430899,0.025454000,0.000000000,0.000000000,-1.205204000,0.000000000,0.000000000,1.013584000,0.000000000,0.000000000,0.046112000,0.000000000,0.000000000,0.235808000,0.000000000,0.000000000,-0.046848000,0.000000000,0.000000000,1720619311.423388243,,,,,,,,,,,
1720619311.432206,0.025454000,0.000000000,0.000000000,-1.205204000,0.000000000,0.000000000,1.013584000,0.000000000,0.000000000,0.046112000,0.000000000,0.000000000,0.235808000,0.000000000,0.000000000,-0.047296000,0.000000000,0.000000000,1720619311.425388098,,,,,,,,,,,
1720619311.441713,0.025454000,0.000000000,0.000000000,-1.203587000,0.000000000,0.000000000,1.013584000,0.000000000,0.000000000,0.046176000,0.000000000,0.000000000,0.235936000,0.000000000,0.000000000,-0.047584000,0.000000000,0.000000000,1720619311.434388161,,,,,,,,,,,
1720619311.442421,0.025454000,0.000000000,0.000000000,-1.203587000,0.000000000,0.000000000,1.013584000,0.000000000,0.000000000,0.046176000,0.000000000,0.000000000,0.235936000,0.000000000,0.000000000,-0.047584000,0.000000000,0.000000000,1720619311.435388327,,,,,,,,,,,
1720619311.445305,0.025454000,0.000000000,0.000000000,-1.202509000,0.000000000,0.000000000,1.013584000,0.000000000,0.000000000,0.046176000,0.000000000,0.000000000,0.235264000,0.000000000,0.000000000,-0.046848000,0.000000000,0.000000000,1720619311.438388109,,,,,,,,,,,
1720619311.453666,0.025454000,0.000000000,0.000000000,-1.202509000,0.000000000,0.000000000,1.013584000,0.000000000,0.000000000,0.046176000,0.000000000,0.000000000,0.235520000,0.000000000,0.000000000,-0.047168000,0.000000000,0.000000000,1720619311.446388245,,,,,,,,,,,
1720619311.454846,0.025454000,0.000000000,0.000000000,-1.202509000,0.000000000,0.000000000,1.013584000,0.000000000,0.000000000,0.046176000,0.000000000,0.000000000,0.235520000,0.000000000,0.000000000,-0.047168000,0.000000000,0.000000000,1720619311.447388172,,,,,,,,,,,
1720619311.455920,0.025454000,0.000000000,0.000000000,-1.198197000,0.000000000,0.000000000,1.013584000,0.000000000,0.000000000,0.046112000,0.000000000,0.000000000,0.235872000,0.000000000,0.000000000,-0.047648000,0.000038380,0.009134350,1720619311.449388266,,,,,,,,,,,
1720619311.465818,0.025454000,0.000000000,0.000000000,-1.199814000,0.000000000,0.000000000,1.013584000,0.000000000,0.000000000,0.046112000,0.000000000,0.000000000,0.235872000,0.000000000,0.000000000,-0.047296000,0.000000000,0.000000000,1720619311.458388329,,,,,,,,,,,
1720619311.466170,0.025454000,0.000000000,0.000000000,-1.199814000,0.000000000,0.000000000,1.013584000,0.000000000,0.000000000,0.046112000,0.000000000,0.000000000,0.235872000,0.000000000,0.000000000,-0.047296000,0.000000000,0.000000000,1720619311.459388256,,,,,,,,,,,
1720619311.469649,0.025454000,0.000000000,0.000000000,-1.200892000,0.000000000,0.000000000,1.013584000,0.000000000,0.000000000,0.046496000,0.000000000,0.000000000,0.235744000,0.000000000,0.000000000,-0.046496000,0.000000000,0.000000000,1720619311.462388277,,,,,,,,,,,
1720619311.474944,,,,,,,,,,,,,,,,,,,,1720619311.458388329,-1.186824000,3.141592654,0.000000015,0.829037542,-0.000000022,-0.000000054,0.559192949,1.395152983,0.001110973,1.481517837
1720619311.477432,0.025454000,0.000000000,0.000000000,-1.200892000,0.000000000,0.000000000,1.013584000,0.000000000,0.000000000,0.046112000,0.000000000,0.000000000,0.235200000,0.000000000,0.000000000,-0.047584000,0.000000000,0.000000000,1720619311.470388174,,,,,,,,,,,
1720619311.478328,0.025454000,0.000000000,0.000000000,-1.200892000,0.000000000,0.000000000,1.013584000,0.000000000,0.000000000,0.046112000,0.000000000,0.000000000,0.235200000,0.000000000,0.000000000,-0.047584000,0.000000000,0.000000000,1720619311.471388102,,,,,,,,,,,
1720619311.481563,0.025454000,0.000000000,0.000000000,-1.201970000,0.000000000,0.000000000,1.013584000,0.000000000,0.000000000,0.046112000,0.000000000,0.000000000,0.235744000,0.000000000,0.000000000,-0.046240000,0.000000000,0.000000000,1720619311.474388123,,,,,,,,,,,
1720619311.489517,0.025454000,0.000000000,0.000000000,-1.202509000,0.000000000,0.000000000,1.013584000,0.000000000,0.000000000,0.046112000,0.000000000,0.000000000,0.236128000,0.000000000,0.000000000,-0.046048000,0.000000000,0.009134350,1720619311.482388258,,,,,,,,,,,
1720619311.490615,0.025454000,0.000000000,0.000000000,-1.202509000,0.000000000,0.000000000,1.013584000,0.000000000,0.000000000,0.046112000,0.000000000,0.000000000,0.236128000,0.000000000,0.000000000,-0.046048000,0.000000000,0.009134350,1720619311.483388186,,,,,,,,,,,
1720619311.491954,0.025454000,0.000000000,0.000000000,-1.202509000,0.000000000,0.000000000,1.013584000,0.000000000,0.000000000,0.046112000,0.000000000,0.000000000,0.235264000,0.000000000,0.000000000,-0.048384000,0.000038380,0.009134350,1720619311.485388279,,,,,,,,,,,
1720619311.501615,0.025454000,0.000000000,0.000000000,-1.206282000,0.000000000,0.000000000,1.013584000,0.000000000,0.000000000,0.046112000,0.000000000,0.000000000,0.235808000,0.000000000,0.000000000,-0.047296000,0.000000000,0.000000000,1720619311.494388103,,,,,,,,,,,
1720619311.502241,0.025454000,0.000000000,0.000000000,-1.206282000,0.000000000,0.000000000,1.013584000,0.000000000,0.000000000,0.046112000,0.000000000,0.000000000,0.235808000,0.000000000,0.000000000,-0.047296000,0.000000000,0.000000000,1720619311.495388269,,,,,,,,,,,
1720619311.505281,0.025454000,0.000000000,0.000000000,-1.206282000,0.000000000,0.000000000,1.013584000,0.000000000,0.000000000,0.046112000,0.000000000,0.000000000,0.235264000,0.000000000,0.000000000,-0.046432000,0.000000000,0.000000000,1720619311.498388290,,,,,,,,,,,
1720619311.516154,0.025454000,0.000000000,0.000000000,-1.205204000,0.000000000,0.000000000,1.013584000,0.000000000,0.000000000,0.046176000,0.000000000,0.000000000,0.235520000,0.000000000,0.000000000,-0.048032000,0.000038380,0.009134350,1720619311.509388208,,,,,,,,,,,
1720619311.524768,0.025454000,0.000000000,0.000000000,-1.202509000,0.000000000,0.000000000,1.013584000,0.000000000,0.000000000,0.046112000,0.000000000,0.000000000,0.235872000,0.000000000,0.000000000,-0.048512000,0.000038380,0.009134350,1720619311.517388105,,,,,,,,,,,
1720619311.524997,,,,,,,,,,,,,,,,,,,,1720619311.509388208,-1.186823998,3.141490200,0.000015924,0.829037542,0.000010709,0.000094939,0.559192948,1.395152983,0.001108959,1.481517794
1720619311.533707,0.025454000,0.000000000,0.000000000,-1.201970000,0.000000000,0.000000000,1.013584000,0.000000000,0.000000000,0.046176000,0.000000000,0.000000000,0.235744000,0.000000000,0.000000000,-0.048224000,0.000038380,0.009134350,1720619311.526388168,,,,,,,,,,,
1720619311.534827,0.025454000,0.000000000,0.000000000,-1.201970000,0.000000000,0.000000000,1.013584000,0.000000000,0.000000000,0.046176000,0.000000000,0.000000000,0.235744000,0.000000000,0.000000000,-0.048224000,0.000038380,0.009134350,1720619311.527388096,,,,,,,,,,,
1720619311.536114,0.025454000,0.000000000,0.000000000,-1.207899000,0.000000000,0.000000000,1.013584000,0.000000000,0.000000000,0.046176000,0.000000000,0.000000000,0.235744000,0.000000000,0.000000000,-0.046240000,0.000000000,0.009134350,1720619311.529388189,,,,,,,,,,,
1720619311.545768,0.025454000,0.000000000,0.000000000,-1.199275000,0.000000000,0.000000000,1.013584000,0.000000000,0.000000000,0.046112000,0.000000000,0.000000000,0.235808000,0.000000000,0.000000000,-0.046304000,0.000000000,0.000000000,1720619311.538388252,,,,,,,,,,,
1720619311.546166,0.025454000,0.000000000,0.000000000,-1.199275000,0.000000000,0.000000000,1.013584000,0.000000000,0.000000000,0.046112000,0.000000000,0.000000000,0.235808000,0.000000000,0.000000000,-0.046304000,0.000000000,0.000000000,1720619311.539388180,,,,,,,,,,,
1720619311.548235,0.025454000,0.000000000,0.000000000,-1.199275000,0.000000000,0.000000000,1.013584000,0.000000000,0.000000000,0.046112000,0.000000000,0.000000000,0.236320000,0.000000000,0.000000000,-0.047712000,0.000038380,0.009134350,1720619311.541388273,,,,,,,,,,,
1720619311.557532,0.025454000,0.000000000,0.000000000,-1.204665000,0.000000000,0.000000000,1.013584000,0.000000000,0.000000000,0.046112000,0.000000000,0.000000000,0.236000000,0.000000000,0.000000000,-0.047296000,0.000000000,0.000000000,1720619311.550388098,,,,,,,,,,,
1720619311.558304,0.025454000,0.000000000,0.000000000,-1.204665000,0.000000000,0.000000000,1.013584000,0.000000000,0.000000000,0.046112000,0.000000000,0.000000000,0.236000000,0.000000000,0.000000000,-0.047296000,0.000000000,0.000000000,1720619311.551388264,,,,,,,,,,,
1720619311.561418,0.025454000,0.000000000,0.000000000,-1.203587000,0.000000000,0.000000000,1.013584000,0.000000000,0.000000000,0.046112000,0.000000000,0.000000000,0.236384000,0.000000000,0.000000000,-0.046912000,0.000000000,0.000000000,1720619311.554388285,,,,,,,,,,,
1720619311.569709,0.025454000,0.000000000,0.000000000,-1.203587000,0.000000000,0.000000000,1.013584000,0.000000000,0.000000000,0.046112000,0.000000000,0.000000000,0.236256000,0.000000000,0.000000000,-0.047296000,0.000000000,0.000000000,1720619311.562388182,,,,,,,,,,,
1720619311.572311,0.025454000,0.000000000,0.000000000,-1.203587000,0.000000000,0.000000000,1.013584000,0.000000000,0.000000000,0.046112000,0.000000000,0.000000000,0.236256000,0.000000000,0.000000000,-0.047296000,0.000000000,0.000000000,1720619311.563388109,,,,,,,,,,,
1720619311.574689,,,,,,,,,,,,,,,,,,,,1720619311.562388182,-1.186824000,3.141592654,0.000000015,0.829037542,-0.000000022,-0.000000054,0.559192949,1.395152983,0.001110973,1.481517837
1720619311.581460,0.025454000,0.000000000,0.000000000,-1.205204000,0.000000000,0.000000000,1.013584000,0.000000000,0.000000000,0.046176000,0.000000000,0.000000000,0.235872000,0.000000000,0.000000000,-0.046176000,0.000000000,0.000000000,1720619311.574388266,,,,,,,,,,,
1720619311.592339,0.025454000,0.000000000,0.000000000,-1.205204000,0.000000000,0.000000000,1.013584000,0.000000000,0.000000000,0.046112000,0.000000000,0.000000000,0.236128000,0.000000000,0.000000000,-0.047712000,0.000038380,0.009134350,1720619311.585388184,,,,,,,,,,,
1720619311.605424,0.026598000,0.000000000,0.000000000,-1.211672000,0.000000000,0.000000000,1.013584000,0.000000000,0.000000000,0.046112000,0.000000000,0.000000000,0.235680000,0.000000000,0.000000000,-0.047584000,0.000038380,0.009134350,1720619311.595388174,,,,,,,,,,,
1720619311.613580,0.026598000,0.000000000,0.000000000,-1.177176000,0.000000000,0.000000000,1.013584000,0.000000000,0.000000000,0.046112000,0.000000000,0.000000000,0.236128000,0.000000000,0.000000000,-0.046368000,0.000000000,0.009134350,1720619311.606388092,,,,,,,,,,,
1720619311.621707,0.026598000,0.000000000,0.000000000,-1.206282000,0.000000000,0.000000000,1.013584000,0.000000000,0.000000000,0.046112000,0.000000000,0.000000000,0.236320000,0.000000000,0.000000000,-0.046112000,0.000000000,0.009134350,1720619311.614388227,,,,,,,,,,,
1720619311.624871,,,,,,,,,,,,,,,,,,,,1720619311.614388227,-1.186824000,3.141592654,0.000000015,0.829037542,-0.000000022,-0.000000054,0.559192949,1.395152983,0.001110973,1.481517837
1720619311.633584,0.026598000,0.000000000,0.000000000,-1.207360000,0.000000000,0.000000000,1.013584000,0.000000000,0.000000000,0.046112000,0.000000000,0.000000000,0.235936000,0.000000000,0.000000000,-0.047648000,0.000038380,0.009134350,1720619311.626388311,,,,,,,,,,,
1720619311.640607,0.026598000,0.000000000,0.000000000,-1.206282000,0.000000000,0.000000000,1.013584000,0.000000000,0.000000000,0.046176000,0.000000000,0.000000000,0.235808000,0.000000000,0.000000000,-0.047840000,0.000038380,0.009134350,1720619311.633388281,,,,,,,,,,,
1720619311.642174,0.026598000,0.000000000,0.000000000,-1.206282000,0.000000000,0.000000000,1.013584000,0.000000000,0.000000000,0.046176000,0.000000000,0.000000000,0.235808000,0.000000000,0.000000000,-0.047840000,0.000038380,0.009134350,1720619311.634388208,,,,,,,,,,,
1720619311.645525,0.026598000,0.000000000,0.000000000,-1.205204000,0.000000000,0.000000000,1.013584000,0.000000000,0.000000000,0.046176000,0.000000000,0.000000000,0.235744000,0.000000000,0.000000000,-0.046432000,0.000000000,0.009134350,1720619311.638388157,,,,,,,,,,,
1720619311.653959,0.026598000,0.000000000,0.000000000,-1.203587000,0.000000000,0.000000000,1.013584000,0.000000000,0.000000000,0.046496000,0.000000000,0.000000000,0.235456000,0.000000000,0.000000000,-0.047360000,0.000000000,0.009134350,1720619311.646388292,,,,,,,,,,,
1720619311.657548,0.026598000,0.000000000,0.000000000,-1.201970000,0.000000000,0.000000000,1.013584000,0.000000000,0.000000000,0.046112000,0.000000000,0.000000000,0.236256000,0.000000000,0.000000000,-0.046848000,0.000000000,0.000000000,1720619311.650388241,,,,,,,,,,,
1720619311.666629,0.026598000,0.000000000,0.000000000,-1.201970000,0.000000000,0.000000000,1.013584000,0.000000000,0.000000000,0.046176000,0.000000000,0.000000000,0.235936000,0.000000000,0.000000000,-0.047648000,0.000038380,0.009134350,1720619311.657388210,,,,,,,,,,,
1720619311.676064,0.026598000,0.000000000,0.000000000,-1.204665000,0.000000000,0.000000000,1.013584000,0.000000000,0.000000000,0.046176000,0.000000000,0.000000000,0.235008000,0.000000000,0.000000000,-0.046112000,0.000000000,0.009134350,1720619311.668388128,,,,,,,,,,,
1720619311.684935,,,,,,,,,,,,,,,,,,,,1720619311.668388128,-1.186824000,3.141592654,0.000000015,0.829037542,-0.000000022,-0.000000054,0.559192949,1.395152983,0.001110973,1.481517837
1720619311.686617,0.026598000,0.000000000,0.000000000,-1.207360000,0.000000000,0.000000000,1.013584000,0.000000000,0.000000000,0.046176000,0.000000000,0.000000000,0.236128000,0.000000000,0.000000000,-0.046656000,0.000000000,0.009134350,1720619311.679388285,,,,,,,,,,,
1720619311.696208,0.026598000,0.000000000,0.000000000,-1.211672000,0.000000000,0.000000000,1.013584000,0.000000000,0.000000000,0.046176000,0.000000000,0.000000000,0.235936000,0.000000000,0.000000000,-0.047104000,0.000000000,0.000000000,1720619311.688388109,,,,,,,,,,,
1720619311.706588,0.026598000,0.000000000,0.000000000,-1.203587000,0.000000000,0.000000000,1.013584000,0.000000000,0.000000000,0.046112000,0.000000000,0.000000000,0.235808000,0.000000000,0.000000000,-0.047776000,0.000038380,0.009134350,1720619311.699388266,,,,,,,,,,,
1720619311.715965,0.026598000,0.000000000,0.000000000,-1.206282000,0.000000000,0.000000000,1.013584000,0.000000000,0.000000000,0.046176000,0.000000000,0.000000000,0.235936000,0.000000000,0.000000000,-0.046848000,0.000000000,0.000000000,1720619311.708388329,,,,,,,,,,,
1720619311.725714,0.026598000,0.000000000,0.000000000,-1.224608000,0.000000000,0.000000000,1.013584000,0.000000000,0.000000000,0.046112000,0.000000000,0.000000000,0.235936000,0.000000000,0.000000000,-0.046592000,0.000000000,0.000000000,1720619311.718388319,,,,,,,,,,,
1720619311.734895,,,,,,,,,,,,,,,,,,,,1720619311.718388319,-1.186824000,3.141592654,0.000000015,0.829037542,-0.000000022,-0.000000054,0.559192949,1.395152983,0.001110973,1.481517837
1720619311.737818,0.026598000,0.000000000,0.000000000,-1.203587000,0.000000000,0.000000000,1.013584000,0.000000000,0.000000000,0.046112000,0.000000000,0.000000000,0.236192000,0.000000000,0.000000000,-0.047104000,0.000000000,0.000000000,1720619311.730388165,,,,,,,,,,,
1720619311.746826,0.026598000,0.000000000,0.000000000,-1.203587000,0.000000000,0.000000000,1.013584000,0.000000000,0.000000000,0.046112000,0.000000000,0.000000000,0.235872000,0.000000000,0.000000000,-0.046848000,0.000000000,0.000000000,1720619311.739388227,,,,,,,,,,,
1720619311.756506,0.026598000,0.000000000,0.000000000,-1.201970000,0.000000000,0.000000000,1.013584000,0.000000000,0.000000000,0.046112000,0.000000000,0.000000000,0.235456000,0.000000000,0.000000000,-0.047776000,0.000038380,0.009134350,1720619311.748388290,,,,,,,,,,,
1720619311.756822,0.026598000,0.000000000,0.000000000,-1.201970000,0.000000000,0.000000000,1.013584000,0.000000000,0.000000000,0.046112000,0.000000000,0.000000000,0.235456000,0.000000000,0.000000000,-0.047776000,0.000038380,0.009134350,1720619311.749388218,,,,,,,,,,,
1720619311.758022,0.026598000,0.000000000,0.000000000,-1.201970000,0.000000000,0.000000000,1.013584000,0.000000000,0.000000000,0.046112000,0.000000000,0.000000000,0.235456000,0.000000000,0.000000000,-0.047776000,0.000038380,0.009134350,1720619311.750388145,,,,,,,,,,,
1720619311.761884,0.026598000,0.000000000,0.000000000,-1.201970000,0.000000000,0.000000000,1.013584000,0.000000000,0.000000000,0.046112000,0.000000000,0.000000000,0.236320000,0.000000000,0.000000000,-0.046496000,0.000000000,0.009134350,1720619311.754388094,,,,,,,,,,,
1720619311.768949,0.026598000,0.000000000,0.000000000,-1.200892000,0.000000000,0.000000000,1.013584000,0.000000000,0.000000000,0.046112000,0.000000000,0.000000000,0.235328000,0.000000000,0.000000000,-0.047360000,0.000000000,0.000000000,1720619311.761388302,,,,,,,,,,,
1720619311.770093,0.026598000,0.000000000,0.000000000,-1.200892000,0.000000000,0.000000000,1.013584000,0.000000000,0.000000000,0.046112000,0.000000000,0.000000000,0.235328000,0.000000000,0.000000000,-0.047360000,0.000000000,0.000000000,1720619311.762388229,,,,,,,,,,,
1720619311.774549,0.026598000,0.000000000,0.000000000,-1.199814000,0.000000000,0.000000000,1.013584000,0.000000000,0.000000000,0.046112000,0.000000000,0.000000000,0.235456000,0.000000000,0.000000000,-0.046848000,0.000000000,0.000000000,1720619311.766388178,,,,,,,,,,,
1720619311.781163,0.026598000,0.000000000,0.000000000,-1.199814000,0.000000000,0.000000000,1.013584000,0.000000000,0.000000000,0.046112000,0.000000000,0.000000000,0.236608000,0.000000000,0.000000000,-0.046048000,0.000000000,0.009134350,1720619311.773388147,,,,,,,,,,,
1720619311.782008,0.026598000,0.000000000,0.000000000,-1.199814000,0.000000000,0.000000000,1.013584000,0.000000000,0.000000000,0.046112000,0.000000000,0.000000000,0.236608000,0.000000000,0.000000000,-0.046048000,0.000000000,0.009134350,1720619311.774388313,,,,,,,,,,,
1720619311.784865,,,,,,,,,,,,,,,,,,,,1720619311.773388147,-1.186824000,3.141592654,0.000000015,0.829037542,-0.000000022,-0.000000054,0.559192949,1.395152983,0.001110973,1.481517837
1720619311.786084,0.026598000,0.000000000,0.000000000,-1.200892000,0.000000000,0.000000000,1.013584000,0.000000000,0.000000000,0.046112000,0.000000000,0.000000000,0.235328000,0.000000000,0.000000000,-0.048384000,0.000038380,0.009134350,1720619311.778388262,,,,,,,,,,,
1720619311.793130,0.026598000,0.000000000,0.000000000,-1.214367000,0.000000000,0.000000000,1.013584000,0.000000000,0.000000000,0.046112000,0.000000000,0.000000000,0.236256000,0.000000000,0.000000000,-0.047840000,0.000038380,0.009134350,1720619311.785388231,,,,,,,,,,,
1720619311.794568,0.026598000,0.000000000,0.000000000,-1.214367000,0.000000000,0.000000000,1.013584000,0.000000000,0.000000000,0.046112000,0.000000000,0.000000000,0.236256000,0.000000000,0.000000000,-0.047840000,0.000038380,0.009134350,1720619311.786388159,,,,,,,,,,,
1720619311.799044,0.026598000,0.000000000,0.000000000,-1.164779000,0.000000000,0.000000000,1.013584000,0.000000000,0.000000000,0.046112000,0.000000000,0.000000000,0.235584000,0.000000000,0.000000000,-0.046240000,0.000000000,0.009134350,1720619311.791388273,,,,,,,,,,,
1720619311.806139,0.026598000,0.000000000,0.000000000,-1.179871000,0.000000000,0.000000000,1.013584000,0.000000000,0.000000000,0.046432000,0.000000000,0.000000000,0.235744000,0.000000000,0.000000000,-0.046720000,0.000000000,0.000000000,1720619311.798388243,,,,,,,,,,,
1720619311.807006,0.026598000,0.000000000,0.000000000,-1.179871000,0.000000000,0.000000000,1.013584000,0.000000000,0.000000000,0.046432000,0.000000000,0.000000000,0.235744000,0.000000000,0.000000000,-0.046720000,0.000000000,0.000000000,1720619311.799388170,,,,,,,,,,,
1720619311.812776,0.026598000,0.000000000,0.000000000,-1.207360000,0.000000000,0.000000000,1.013584000,0.000000000,0.000000000,0.046112000,0.000000000,0.000000000,0.236000000,0.000000000,0.000000000,-0.047104000,0.000000000,0.000000000,1720619311.805388212,,,,,,,,,,,
1720619311.819001,0.026598000,0.000000000,0.000000000,-1.204665000,0.000000000,0.000000000,1.013584000,0.000000000,0.000000000,0.046112000,0.000000000,0.000000000,0.235392000,0.000000000,0.000000000,-0.047232000,0.000000000,0.000000000,1720619311.811388254,,,,,,,,,,,
1720619311.821072,0.026598000,0.000000000,0.000000000,-1.203587000,0.000000000,0.000000000,1.013584000,0.000000000,0.000000000,0.046112000,0.000000000,0.000000000,0.235680000,0.000000000,0.000000000,-0.046848000,0.000000000,0.000000000,1720619311.813388109,,,,,,,,,,,
1720619311.824845,0.026598000,0.000000000,0.000000000,-1.203587000,0.000000000,0.000000000,1.013584000,0.000000000,0.000000000,0.046112000,0.000000000,0.000000000,0.236256000,0.000000000,0.000000000,-0.047360000,0.000000000,0.000000000,1720619311.817388296,,,,,,,,,,,
1720619311.833040,0.026598000,0.000000000,0.000000000,-1.203587000,0.000000000,0.000000000,1.013584000,0.000000000,0.000000000,0.046112000,0.000000000,0.000000000,0.235520000,0.000000000,0.000000000,-0.046240000,0.000000000,0.000000000,1720619311.825388193,,,,,,,,,,,
1720619311.834763,,,,,,,,,,,,,,,,,,,,1720619311.825388193,-1.186824000,3.141592654,0.000000015,0.829037542,-0.000000022,-0.000000054,0.559192949,1.395152983,0.001110973,1.481517837
1720619311.836266,0.026598000,0.000000000,0.000000000,-1.203587000,0.000000000,0.000000000,1.013584000,0.000000000,0.000000000,0.046112000,0.000000000,0.000000000,0.236128000,0.000000000,0.000000000,-0.048160000,0.000038380,0.009134350,1720619311.828388214,,,,,,,,,,,
1720619311.845546,0.026598000,0.000000000,0.000000000,-1.203587000,0.000000000,0.000000000,1.013584000,0.000000000,0.000000000,0.046112000,0.000000000,0.000000000,0.236128000,0.000000000,0.000000000,-0.047520000,0.000000000,0.000000000,1720619311.837388277,,,,,,,,,,,
1720619311.848944,0.026598000,0.000000000,0.000000000,-1.203587000,0.000000000,0.000000000,1.013584000,0.000000000,0.000000000,0.046112000,0.000000000,0.000000000,0.235744000,0.000000000,0.000000000,-0.046912000,0.000000000,0.000000000,1720619311.841388226,,,,,,,,,,,
1720619311.856601,0.026598000,0.000000000,0.000000000,-1.203587000,0.000000000,0.000000000,1.013584000,0.000000000,0.000000000,0.046176000,0.000000000,0.000000000,0.236128000,0.000000000,0.000000000,-0.046912000,0.000000000,0.000000000,1720619311.848388195,,,,,,,,,,,
1720619311.860914,0.026598000,0.000000000,0.000000000,-1.203587000,0.000000000,0.000000000,1.013584000,0.000000000,0.000000000,0.046176000,0.000000000,0.000000000,0.235680000,0.000000000,0.000000000,-0.047520000,0.000000000,0.000000000,1720619311.853388309,,,,,,,,,,,
1720619311.868069,0.026598000,0.000000000,0.000000000,-1.203587000,0.000000000,0.000000000,1.013584000,0.000000000,0.000000000,0.046112000,0.000000000,0.000000000,0.236064000,0.000000000,0.000000000,-0.047648000,0.000038380,0.009134350,1720619311.860388279,,,,,,,,,,,
1720619311.877721,0.026598000,0.000000000,0.000000000,-1.200892000,0.000000000,0.000000000,1.013584000,0.000000000,0.000000000,0.046176000,0.000000000,0.000000000,0.235264000,0.000000000,0.000000000,-0.048096000,0.000038380,0.009134350,1720619311.869388103,,,,,,,,,,,
1720619311.878431,0.026598000,0.000000000,0.000000000,-1.200892000,0.000000000,0.000000000,1.013584000,0.000000000,0.000000000,0.046176000,0.000000000,0.000000000,0.235264000,0.000000000,0.000000000,-0.048096000,0.000038380,0.009134350,1720619311.870388269,,,,,,,,,,,
1720619311.879232,0.026598000,0.000000000,0.000000000,-1.200892000,0.000000000,0.000000000,1.013584000,0.000000000,0.000000000,0.046176000,0.000000000,0.000000000,0.235264000,0.000000000,0.000000000,-0.048096000,0.000038380,0.009134350,1720619311.871388197,,,,,,,,,,,
1720619311.881487,0.026598000,0.000000000,0.000000000,-1.200892000,0.000000000,0.000000000,1.013584000,0.000000000,0.000000000,0.046176000,0.000000000,0.000000000,0.236320000,0.000000000,0.000000000,-0.046304000,0.000000000,0.009134350,1720619311.873388290,,,,,,,,,,,
1720619311.884969,0.026598000,0.000000000,0.000000000,-1.200892000,0.000000000,0.000000000,1.013584000,0.000000000,0.000000000,0.046112000,0.000000000,0.000000000,0.235680000,0.000000000,0.000000000,-0.047776000,0.000038380,0.009134350,1720619311.877388239,,,,,,,,,,,
1720619311.893137,0.026598000,0.000000000,0.000000000,-1.200892000,0.000000000,0.000000000,1.013584000,0.000000000,0.000000000,0.046112000,0.000000000,0.000000000,0.235744000,0.000000000,0.000000000,-0.047296000,0.000000000,0.000000000,1720619311.885388136,,,,,,,,,,,
1720619311.894719,,,,,,,,,,,,,,,,,,,,1720619311.877388239,-1.186823998,3.141490200,0.000015924,0.829037542,0.000010709,0.000094939,0.559192948,1.395152983,0.001108959,1.481517794
1720619311.896737,0.026598000,0.000000000,0.000000000,-1.195502000,0.000000000,0.000000000,1.013584000,0.000000000,0.000000000,0.046112000,0.000000000,0.000000000,0.236000000,0.000000000,0.000000000,-0.047296000,0.000000000,0.000000000,1720619311.889388323,,,,,,,,,,,
1720619311.905477,0.026598000,0.000000000,0.000000000,-1.201970000,0.000000000,0.000000000,1.013584000,0.000000000,0.000000000,0.046112000,0.000000000,0.000000000,0.235872000,0.000000000,0.000000000,-0.048768000,0.000038380,0.009134350,1720619311.897388220,,,,,,,,,,,
1720619311.910171,0.026598000,0.000000000,0.000000000,-1.201970000,0.000000000,0.000000000,1.013584000,0.000000000,0.000000000,0.046112000,0.000000000,0.000000000,0.235520000,0.000000000,0.000000000,-0.045984000,0.000000000,0.009134350,1720619311.902388096,,,,,,,,,,,
1720619311.917729,0.026598000,0.000000000,0.000000000,-1.201970000,0.000000000,0.000000000,1.013584000,0.000000000,0.000000000,0.046112000,0.000000000,0.000000000,0.235584000,0.000000000,0.000000000,-0.047904000,0.000000000,0.009134350,1720619311.909388304,,,,,,,,,,,
1720619311.921272,0.026598000,0.000000000,0.000000000,-1.201970000,0.000000000,0.000000000,1.013584000,0.000000000,0.000000000,0.046112000,0.000000000,0.000000000,0.235680000,0.000000000,0.000000000,-0.046720000,0.000000000,0.000000000,1720619311.913388252,,,,,,,,,,,
1720619311.929648,0.026598000,0.000000000,0.000000000,-1.201970000,0.000000000,0.000000000,1.013584000,0.000000000,0.000000000,0.046112000,0.000000000,0.000000000,0.235456000,0.000000000,0.000000000,-0.045856000,0.000000000,0.000000000,1720619311.921388149,,,,,,,,,,,
1720619311.932991,0.026598000,0.000000000,0.000000000,-1.201970000,0.000000000,0.000000000,1.013584000,0.000000000,0.000000000,0.046176000,0.000000000,0.000000000,0.235680000,0.000000000,0.000000000,-0.047712000,0.000000000,0.000000000,1720619311.925388098,,,,,,,,,,,
1720619311.941821,0.026598000,0.000000000,0.000000000,-1.200892000,0.000000000,0.000000000,1.013584000,0.000000000,0.000000000,0.045792000,0.000000000,0.000000000,0.236064000,0.000000000,0.000000000,-0.047904000,0.000038380,0.009134350,1720619311.933388233,,,,,,,,,,,
1720619311.944883,,,,,,,,,,,,,,,,,,,,1720619311.933388233,-1.186823998,3.141490200,0.000015924,0.829037542,0.000010709,0.000094939,0.559192948,1.395152983,0.001108959,1.481517794
1720619311.945754,0.026598000,0.000000000,0.000000000,-1.207360000,0.000000000,0.000000000,1.013584000,0.000000000,0.000000000,0.046176000,0.000000000,0.000000000,0.235808000,0.000000000,0.000000000,-0.046432000,0.000000000,0.009134350,1720619311.937388182,,,,,,,,,,,
1720619311.952564,0.026598000,0.000000000,0.000000000,-1.204665000,0.000000000,0.000000000,1.013584000,0.000000000,0.000000000,0.046176000,0.000000000,0.000000000,0.236192000,0.000000000,0.000000000,-0.046112000,0.000000000,0.009134350,1720619311.944388151,,,,,,,,,,,
1720619311.957376,0.026598000,0.000000000,0.000000000,-1.204665000,0.000000000,0.000000000,1.013584000,0.000000000,0.000000000,0.046176000,0.000000000,0.000000000,0.235744000,0.000000000,0.000000000,-0.047584000,0.000000000,0.000000000,1720619311.949388266,,,,,,,,,,,
1720619311.964752,0.026598000,0.000000000,0.000000000,-1.204665000,0.000000000,0.000000000,1.013584000,0.000000000,0.000000000,0.046176000,0.000000000,0.000000000,0.235680000,0.000000000,0.000000000,-0.047584000,0.000038380,0.009134350,1720619311.956388235,,,,,,,,,,,
1720619311.977732,0.026598000,0.000000000,0.000000000,-1.207899000,0.000000000,0.000000000,1.013584000,0.000000000,0.000000000,0.046176000,0.000000000,0.000000000,0.235808000,0.000000000,0.000000000,-0.048224000,0.000038380,0.009134350,1720619311.969388247,,,,,,,,,,,
1720619311.985253,0.026598000,0.000000000,0.000000000,-1.202509000,0.000000000,0.000000000,1.013584000,0.000000000,0.000000000,0.046176000,0.000000000,0.000000000,0.235264000,0.000000000,0.000000000,-0.048640000,0.000038380,0.009134350,1720619311.976388216,,,,,,,,,,,
1720619311.993928,0.026598000,0.000000000,0.000000000,-1.202509000,0.000000000,0.000000000,1.013584000,0.000000000,0.000000000,0.046112000,0.000000000,0.000000000,0.236128000,0.000000000,0.000000000,-0.047232000,0.000000000,0.000000000,1720619311.985388279,,,,,,,,,,,
1720619311.994861,,,,,,,,,,,,,,,,,,,,1720619311.985388279,-1.186824000,3.141592654,0.000000015,0.829037542,-0.000000022,-0.000000054,0.559192949,1.395152983,0.001110973,1.481517837
1720619311.995018,0.026598000,0.000000000,0.000000000,-1.202509000,0.000000000,0.000000000,1.013584000,0.000000000,0.000000000,0.046112000,0.000000000,0.000000000,0.236128000,0.000000000,0.000000000,-0.047232000,0.000000000,0.000000000,1720619311.986388206,,,,,,,,,,,
1720619311.997805,0.026598000,0.000000000,0.000000000,-1.206282000,0.000000000,0.000000000,1.013584000,0.000000000,0.000000000,0.046176000,0.000000000,0.000000000,0.235808000,0.000000000,0.000000000,-0.047296000,0.000000000,0.000000000,1720619311.989388227,,,,,,,,,,,
1720619312.001427,0.026598000,0.000000000,0.000000000,-1.203587000,0.000000000,0.000000000,1.013584000,0.000000000,0.000000000,0.046176000,0.000000000,0.000000000,0.235136000,0.000000000,0.000000000,-0.046432000,0.000000000,0.000000000,1720619311.993388176,,,,,,,,,,,
1720619312.008652,0.026598000,0.000000000,0.000000000,-1.203587000,0.000000000,0.000000000,1.013584000,0.000000000,0.000000000,0.046176000,0.000000000,0.000000000,0.236256000,0.000000000,0.000000000,-0.045984000,0.000000000,0.000000000,1720619312.000388145,,,,,,,,,,,
1720619312.009707,0.026598000,0.000000000,0.000000000,-1.203587000,0.000000000,0.000000000,1.013584000,0.000000000,0.000000000,0.046176000,0.000000000,0.000000000,0.236256000,0.000000000,0.000000000,-0.045984000,0.000000000,0.000000000,1720619312.001388311,,,,,,,,,,,
1720619312.013550,0.026598000,0.000000000,0.000000000,-1.203587000,0.000000000,0.000000000,1.013584000,0.000000000,0.000000000,0.046176000,0.000000000,0.000000000,0.235680000,0.000000000,0.000000000,-0.047968000,0.000000000,0.000000000,1720619312.005388260,,,,,,,,,,,
1720619312.020486,0.026598000,0.000000000,0.000000000,-1.202509000,0.000000000,0.000000000,1.013584000,0.000000000,0.000000000,0.046112000,0.000000000,0.000000000,0.236128000,0.000000000,0.000000000,-0.047424000,0.000000000,0.000000000,1720619312.012388229,,,,,,,,,,,
1720619312.021707,0.026598000,0.000000000,0.000000000,-1.202509000,0.000000000,0.000000000,1.013584000,0.000000000,0.000000000,0.046112000,0.000000000,0.000000000,0.236128000,0.000000000,0.000000000,-0.047424000,0.000000000,0.000000000,1720619312.013388157,,,,,,,,,,,
1720619312.025598,0.026598000,0.000000000,0.000000000,-1.202509000,0.000000000,0.000000000,1.013584000,0.000000000,0.000000000,0.046112000,0.000000000,0.000000000,0.235264000,0.000000000,0.000000000,-0.046784000,0.000000000,0.000000000,1720619312.017388105,,,,,,,,,,,
1720619312.032406,0.026598000,0.000000000,0.000000000,-1.201970000,0.000000000,0.000000000,1.013584000,0.000000000,0.000000000,0.046112000,0.000000000,0.000000000,0.235744000,0.000000000,0.000000000,-0.046496000,0.000000000,0.000000000,1720619312.024388313,,,,,,,,,,,
1720619312.033760,0.026598000,0.000000000,0.000000000,-1.201970000,0.000000000,0.000000000,1.013584000,0.000000000,0.000000000,0.046112000,0.000000000,0.000000000,0.235744000,0.000000000,0.000000000,-0.046496000,0.000000000,0.000000000,1720619312.025388241,,,,,,,,,,,
1720619312.037715,0.026598000,0.000000000,0.000000000,-1.201970000,0.000000000,0.000000000,1.013584000,0.000000000,0.000000000,0.046112000,0.000000000,0.000000000,0.235936000,0.000000000,0.000000000,-0.048224000,0.000038380,0.009134350,1720619312.029388189,,,,,,,,,,,
1720619312.044971,0.026598000,0.000000000,0.000000000,-1.198197000,0.000000000,0.000000000,1.013584000,0.000000000,0.000000000,0.046112000,0.000000000,0.000000000,0.235136000,0.000000000,0.000000000,-0.048448000,0.000038380,0.009134350,1720619312.036388159,,,,,,,,,,,
1720619312.045643,0.026598000,0.000000000,0.000000000,-1.198197000,0.000000000,0.000000000,1.013584000,0.000000000,0.000000000,0.046112000,0.000000000,0.000000000,0.235136000,0.000000000,0.000000000,-0.048448000,0.000038380,0.009134350,1720619312.037388325,,,,,,,,,,,
1720619312.049342,0.026598000,0.000000000,0.000000000,-1.228381000,0.000000000,0.000000000,1.013584000,0.000000000,0.000000000,0.046112000,0.000000000,0.000000000,0.236128000,0.000000000,0.000000000,-0.045632000,0.000000000,0.009134350,1720619312.041388273,,,,,,,,,,,
1720619312.054949,,,,,,,,,,,,,,,,,,,,1720619312.036388159,-1.186823998,3.141490200,0.000015924,0.829037542,0.000010709,0.000094939,0.559192948,1.395152983,0.001108959,1.481517794
1720619312.056623,0.026598000,0.000000000,0.000000000,-1.199814000,0.000000000,0.000000000,1.013584000,0.000000000,0.000000000,0.046112000,0.000000000,0.000000000,0.235744000,0.000000000,0.000000000,-0.045728000,0.000000000,0.009134350,1720619312.048388243,,,,,,,,,,,
1720619312.057460,0.026598000,0.000000000,0.000000000,-1.199814000,0.000000000,0.000000000,1.013584000,0.000000000,0.000000000,0.046112000,0.000000000,0.000000000,0.235744000,0.000000000,0.000000000,-0.045728000,0.000000000,0.009134350,1720619312.049388170,,,,,,,,,,,
1720619312.061389,0.026598000,0.000000000,0.000000000,-1.199814000,0.000000000,0.000000000,1.013584000,0.000000000,0.000000000,0.046112000,0.000000000,0.000000000,0.236128000,0.000000000,0.000000000,-0.047840000,0.000000000,0.000000000,1720619312.053388119,,,,,,,,,,,
1720619312.068606,0.026598000,0.000000000,0.000000000,-1.199814000,0.000000000,0.000000000,1.013584000,0.000000000,0.000000000,0.046112000,0.000000000,0.000000000,0.235744000,0.000000000,0.000000000,-0.047648000,0.000000000,0.000000000,1720619312.060388327,,,,,,,,,,,
1720619312.069719,0.026598000,0.000000000,0.000000000,-1.199814000,0.000000000,0.000000000,1.013584000,0.000000000,0.000000000,0.046112000,0.000000000,0.000000000,0.235744000,0.000000000,0.000000000,-0.047648000,0.000000000,0.000000000,1720619312.061388254,,,,,,,,,,,
1720619312.073557,0.026598000,0.000000000,0.000000000,-1.199814000,0.000000000,0.000000000,1.013584000,0.000000000,0.000000000,0.046112000,0.000000000,0.000000000,0.235264000,0.000000000,0.000000000,-0.046432000,0.000000000,0.000000000,1720619312.065388203,,,,,,,,,,,
1720619312.080604,0.023452000,0.000000000,0.000000000,-1.202509000,0.000000000,0.000000000,1.013584000,0.000000000,0.000000000,0.046112000,0.000000000,0.000000000,0.235808000,0.000000000,0.000000000,-0.047296000,0.000000000,0.000000000,1720619312.072388172,,,,,,,,,,,
1720619312.081727,0.023452000,0.000000000,0.000000000,-1.202509000,0.000000000,0.000000000,1.013584000,0.000000000,0.000000000,0.046112000,0.000000000,0.000000000,0.235808000,0.000000000,0.000000000,-0.047296000,0.000000000,0.000000000,1720619312.073388100,,,,,,,,,,,
1720619312.085593,0.024882000,0.000000000,0.000000000,-1.199814000,0.000000000,0.000000000,1.013584000,0.000000000,0.000000000,0.046112000,0.000000000,0.000000000,0.235744000,0.000000000,0.000000000,-0.046368000,0.000000000,0.000000000,1720619312.077388287,,,,,,,,,,,
1720619312.092488,0.024882000,0.000000000,0.000000000,-1.201970000,0.000000000,0.000000000,1.013584000,0.000000000,0.000000000,0.046112000,0.000000000,0.000000000,0.236000000,0.000000000,0.000000000,-0.046496000,0.000000000,0.009134350,1720619312.084388256,,,,,,,,,,,
1720619312.096107,0.025454000,0.000000000,0.000000000,-1.201970000,0.000000000,0.000000000,1.013584000,0.000000000,0.000000000,0.046112000,0.000000000,0.000000000,0.235808000,0.000000000,0.000000000,-0.048384000,0.000038380,0.009134350,1720619312.087388277,,,,,,,,,,,
1720619312.104897,,,,,,,,,,,,,,,,,,,,1720619312.087388277,-1.186823998,3.141490200,0.000015924,0.829037542,0.000010709,0.000094939,0.559192948,1.395152983,0.001108959,1.481517794
1720619312.105450,0.026026000,0.000000000,0.000000000,-1.201970000,0.000000000,0.000000000,1.013584000,0.000000000,0.000000000,0.046112000,0.000000000,0.000000000,0.236256000,0.000000000,0.000000000,-0.048640000,0.000038380,0.009134350,1720619312.097388268,,,,,,,,,,,
1720619312.115962,0.026598000,0.000000000,0.000000000,-1.201970000,0.000000000,0.000000000,1.013584000,0.000000000,0.000000000,0.046176000,0.000000000,0.000000000,0.235136000,0.000000000,0.000000000,-0.046240000,0.000000000,0.009134350,1720619312.107388258,,,,,,,,,,,
1720619312.125733,0.026026000,0.000000000,0.000000000,-1.201970000,0.000000000,0.000000000,1.013584000,0.000000000,0.000000000,0.046176000,0.000000000,0.000000000,0.235584000,0.000000000,0.000000000,-0.046240000,0.000000000,0.009134350,1720619312.117388248,,,,,,,,,,,
1720619312.137638,0.026026000,0.000000000,0.000000000,-1.196580000,0.000000000,0.000000000,1.013584000,0.000000000,0.000000000,0.046176000,0.000000000,0.000000000,0.235264000,0.000000000,0.000000000,-0.048768000,0.000038380,0.009134350,1720619312.129388094,,,,,,,,,,,
1720619312.153641,0.026026000,0.000000000,0.000000000,-1.203587000,0.000000000,0.000000000,1.013584000,0.000000000,0.000000000,0.046112000,0.000000000,0.000000000,0.235584000,0.000000000,0.000000000,-0.045568000,0.000000000,0.009134350,1720619312.140388250,,,,,,,,,,,
1720619312.154723,0.026598000,0.000000000,0.000000000,-1.201970000,0.000000000,0.000000000,1.013584000,0.000000000,0.000000000,0.046112000,0.000000000,0.000000000,0.235680000,0.000000000,0.000000000,-0.047840000,0.000038380,0.009134350,1720619312.146388292,,,,,,,,,,,
1720619312.154853,,,,,,,,,,,,,,,,,,,,1720619312.140388250,-1.186824000,3.141592654,0.000000015,0.829037542,-0.000000022,-0.000000054,0.559192949,1.395152983,0.001110973,1.481517837
1720619312.157811,0.026026000,0.000000000,0.000000000,-1.201970000,0.000000000,0.000000000,1.013584000,0.000000000,0.000000000,0.046112000,0.000000000,0.000000000,0.235584000,0.000000000,0.000000000,-0.046496000,0.000000000,0.009134350,1720619312.149388313,,,,,,,,,,,
1720619312.161587,0.026026000,0.000000000,0.000000000,-1.201970000,0.000000000,0.000000000,1.013584000,0.000000000,0.000000000,0.046112000,0.000000000,0.000000000,0.235936000,0.000000000,0.000000000,-0.047520000,0.000038380,0.009134350,1720619312.153388262,,,,,,,,,,,
1720619312.168818,0.026026000,0.000000000,0.000000000,-1.201970000,0.000000000,0.000000000,1.013584000,0.000000000,0.000000000,0.046112000,0.000000000,0.000000000,0.235392000,0.000000000,0.000000000,-0.046848000,0.000000000,0.000000000,1720619312.160388231,,,,,,,,,,,
1720619312.169914,0.026026000,0.000000000,0.000000000,-1.201970000,0.000000000,0.000000000,1.013584000,0.000000000,0.000000000,0.046112000,0.000000000,0.000000000,0.235392000,0.000000000,0.000000000,-0.046848000,0.000000000,0.000000000,1720619312.161388159,,,,,,,,,,,
1720619312.173671,0.026026000,0.000000000,0.000000000,-1.201970000,0.000000000,0.000000000,1.013584000,0.000000000,0.000000000,0.045856000,0.000000000,0.000000000,0.236128000,0.000000000,0.000000000,-0.047040000,0.000000000,0.000000000,1720619312.165388107,,,,,,,,,,,
1720619312.180804,0.026026000,0.000000000,0.000000000,-1.201970000,0.000000000,0.000000000,1.013584000,0.000000000,0.000000000,0.046112000,0.000000000,0.000000000,0.235584000,0.000000000,0.000000000,-0.047104000,0.000000000,0.000000000,1720619312.172388315,,,,,,,,,,,
1720619312.181971,0.026026000,0.000000000,0.000000000,-1.201970000,0.000000000,0.000000000,1.013584000,0.000000000,0.000000000,0.046112000,0.000000000,0.000000000,0.235584000,0.000000000,0.000000000,-0.047104000,0.000000000,0.000000000,1720619312.173388243,,,,,,,,,,,
1720619312.185855,0.026026000,0.000000000,0.000000000,-1.202509000,0.000000000,0.000000000,1.013584000,0.000000000,0.000000000,0.046112000,0.000000000,0.000000000,0.236192000,0.000000000,0.000000000,-0.047648000,0.000000000,0.000000000,1720619312.177388191,,,,,,,,,,,
1720619312.192763,0.026026000,0.000000000,0.000000000,-1.202509000,0.000000000,0.000000000,1.013584000,0.000000000,0.000000000,0.046112000,0.000000000,0.000000000,0.236128000,0.000000000,0.000000000,-0.047776000,0.000038380,0.009134350,1720619312.184388161,,,,,,,,,,,
1720619312.193961,0.026026000,0.000000000,0.000000000,-1.202509000,0.000000000,0.000000000,1.013584000,0.000000000,0.000000000,0.046112000,0.000000000,0.000000000,0.236128000,0.000000000,0.000000000,-0.047776000,0.000038380,0.009134350,1720619312.185388327,,,,,,,,,,,
1720619312.197818,0.026026000,0.000000000,0.000000000,-1.232693000,0.000000000,0.000000000,1.013584000,0.000000000,0.000000000,0.046112000,0.000000000,0.000000000,0.235328000,0.000000000,0.000000000,-0.046112000,0.000000000,0.009134350,1720619312.189388275,,,,,,,,,,,
1720619312.204645,0.026026000,0.000000000,0.000000000,-1.201970000,0.000000000,0.000000000,1.013584000,0.000000000,0.000000000,0.046112000,0.000000000,0.000000000,0.235392000,0.000000000,0.000000000,-0.046240000,0.000000000,0.009134350,1720619312.196388245,,,,,,,,,,,
1720619312.206048,0.026026000,0.000000000,0.000000000,-1.201970000,0.000000000,0.000000000,1.013584000,0.000000000,0.000000000,0.046112000,0.000000000,0.000000000,0.235392000,0.000000000,0.000000000,-0.046240000,0.000000000,0.009134350,1720619312.197388172,,,,,,,,,,,
1720619312.210294,0.026026000,0.000000000,0.000000000,-1.201970000,0.000000000,0.000000000,1.013584000,0.000000000,0.000000000,0.046112000,0.000000000,0.000000000,0.235328000,0.000000000,0.000000000,-0.047520000,0.000000000,0.000000000,1720619312.201388121,,,,,,,,,,,
1720619312.214856,,,,,,,,,,,,,,,,,,,,1720619312.196388245,-1.186824000,3.141592654,0.000000015,0.829037542,-0.000000022,-0.000000054,0.559192949,1.395152983,0.001110973,1.481517837
1720619312.217376,0.026026000,0.000000000,0.000000000,-1.201970000,0.000000000,0.000000000,1.013584000,0.000000000,0.000000000,0.046112000,0.000000000,0.000000000,0.235392000,0.000000000,0.000000000,-0.047648000,0.000038380,0.009134350,1720619312.208388329,,,,,,,,,,,
1720619312.217854,0.026026000,0.000000000,0.000000000,-1.201970000,0.000000000,0.000000000,1.013584000,0.000000000,0.000000000,0.046112000,0.000000000,0.000000000,0.235392000,0.000000000,0.000000000,-0.047648000,0.000038380,0.009134350,1720619312.209388256,,,,,,,,,,,
1720619312.222783,0.026026000,0.000000000,0.000000000,-1.203587000,0.000000000,0.000000000,1.013584000,0.000000000,0.000000000,0.046112000,0.000000000,0.000000000,0.236000000,0.000000000,0.000000000,-0.046112000,0.000000000,0.009134350,1720619312.214388132,,,,,,,,,,,
1720619312.228819,0.026026000,0.000000000,0.000000000,-1.203587000,0.000000000,0.000000000,1.013584000,0.000000000,0.000000000,0.046176000,0.000000000,0.000000000,0.235808000,0.000000000,0.000000000,-0.046112000,0.000000000,0.000000000,1720619312.220388174,,,,,,,,,,,
1720619312.230556,0.026026000,0.000000000,0.000000000,-1.203587000,0.000000000,0.000000000,1.013584000,0.000000000,0.000000000,0.046176000,0.000000000,0.000000000,0.235808000,0.000000000,0.000000000,-0.046112000,0.000000000,0.000000000,1720619312.221388102,,,,,,,,,,,
1720619312.230589,0.026026000,0.000000000,0.000000000,-1.203587000,0.000000000,0.000000000,1.013584000,0.000000000,0.000000000,0.046176000,0.000000000,0.000000000,0.235808000,0.000000000,0.000000000,-0.046112000,0.000000000,0.000000000,1720619312.222388268,,,,,,,,,,,
1720619312.236920,0.026026000,0.000000000,0.000000000,-1.203587000,0.000000000,0.000000000,1.013584000,0.000000000,0.000000000,0.046176000,0.000000000,0.000000000,0.235872000,0.000000000,0.000000000,-0.046592000,0.000000000,0.000000000,1720619312.228388309,,,,,,,,,,,
1720619312.242619,0.026026000,0.000000000,0.000000000,-1.203587000,0.000000000,0.000000000,1.013584000,0.000000000,0.000000000,0.046176000,0.000000000,0.000000000,0.235936000,0.000000000,0.000000000,-0.047520000,0.000000000,0.000000000,1720619312.234388113,,,,,,,,,,,
1720619312.244564,0.026026000,0.000000000,0.000000000,-1.211672000,0.000000000,0.000000000,1.013584000,0.000000000,0.000000000,0.046176000,0.000000000,0.000000000,0.235456000,0.000000000,0.000000000,-0.046592000,0.000000000,0.000000000,1720619312.236388206,,,,,,,,,,,
1720619312.247747,0.026026000,0.000000000,0.000000000,-1.203587000,0.000000000,0.000000000,1.013584000,0.000000000,0.000000000,0.046176000,0.000000000,0.000000000,0.235744000,0.000000000,0.000000000,-0.047648000,0.000000000,0.000000000,1720619312.239388227,,,,,,,,,,,
1720619312.257371,0.026026000,0.000000000,0.000000000,-1.203587000,0.000000000,0.000000000,1.013584000,0.000000000,0.000000000,0.046176000,0.000000000,0.000000000,0.235936000,0.000000000,0.000000000,-0.047040000,0.000000000,0.000000000,1720619312.248388290,,,,,,,,,,,
1720619312.260761,0.026026000,0.000000000,0.000000000,-1.196580000,0.000000000,0.000000000,1.013584000,0.000000000,0.000000000,0.046112000,0.000000000,0.000000000,0.235456000,0.000000000,0.000000000,-0.047104000,0.000000000,0.000000000,1720619312.252388239,,,,,,,,,,,
1720619312.264744,,,,,,,,,,,,,,,,,,,,1720619312.248388290,-1.186824000,3.141592654,0.000000015,0.829037542,-0.000000022,-0.000000054,0.559192949,1.395152983,0.001110973,1.481517837
1720619312.268918,0.026026000,0.000000000,0.000000000,-1.201970000,0.000000000,0.000000000,1.013584000,0.000000000,0.000000000,0.046176000,0.000000000,0.000000000,0.236320000,0.000000000,0.000000000,-0.047648000,0.000038380,0.009134350,1720619312.260388136,,,,,,,,,,,
1720619312.272641,0.026026000,0.000000000,0.000000000,-1.201970000,0.000000000,0.000000000,1.013584000,0.000000000,0.000000000,0.046176000,0.000000000,0.000000000,0.235808000,0.000000000,0.000000000,-0.046368000,0.000000000,0.009134350,1720619312.264388323,,,,,,,,,,,
1720619312.281230,0.026026000,0.000000000,0.000000000,-1.201970000,0.000000000,0.000000000,1.013584000,0.000000000,0.000000000,0.046176000,0.000000000,0.000000000,0.236256000,0.000000000,0.000000000,-0.046368000,0.000000000,0.009134350,1720619312.272388220,,,,,,,,,,,
1720619312.284710,0.026026000,0.000000000,0.000000000,-1.228920000,0.000000000,0.000000000,1.013584000,0.000000000,0.000000000,0.046176000,0.000000000,0.000000000,0.235264000,0.000000000,0.000000000,-0.047360000,0.000000000,0.000000000,1720619312.276388168,,,,,,,,,,,
1720619312.293104,0.026026000,0.000000000,0.000000000,-1.200892000,0.000000000,0.000000000,1.013584000,0.000000000,0.000000000,0.046496000,0.000000000,0.000000000,0.235744000,0.000000000,0.000000000,-0.046240000,0.000000000,0.000000000,1720619312.284388304,,,,,,,,,,,
1720619312.297023,0.026026000,0.000000000,0.000000000,-1.200892000,0.000000000,0.000000000,1.013584000,0.000000000,0.000000000,0.046176000,0.000000000,0.000000000,0.235680000,0.000000000,0.000000000,-0.047840000,0.000038380,0.009134350,1720619312.288388252,,,,,,,,,,,
1720619312.305107,0.026026000,0.000000000,0.000000000,-1.199814000,0.000000000,0.000000000,1.013584000,0.000000000,0.000000000,0.046176000,0.000000000,0.000000000,0.236128000,0.000000000,0.000000000,-0.047712000,0.000038380,0.009134350,1720619312.296388149,,,,,,,,,,,
1720619312.308745,0.026026000,0.000000000,0.000000000,-1.199814000,0.000000000,0.000000000,1.013584000,0.000000000,0.000000000,0.046176000,0.000000000,0.000000000,0.235520000,0.000000000,0.000000000,-0.046976000,0.000000000,0.009134350,1720619312.300388098,,,,,,,,,,,
1720619312.314977,,,,,,,,,,,,,,,,,,,,1720619312.300388098,-1.186824000,3.141592654,0.000000015,0.829037542,-0.000000022,-0.000000054,0.559192949,1.395152983,0.001110973,1.481517837
1720619312.317668,0.024596000,0.000000000,0.000000000,-1.200892000,0.000000000,0.000000000,1.013584000,0.000000000,0.000000000,0.046176000,0.000000000,0.000000000,0.235456000,0.000000000,0.000000000,-0.047104000,0.000000000,0.000000000,1720619312.308388233,,,,,,,,,,,
1720619312.326072,0.024882000,0.000000000,0.000000000,-1.200892000,0.000000000,0.000000000,1.013584000,0.000000000,0.000000000,0.046176000,0.000000000,0.000000000,0.235744000,0.000000000,0.000000000,-0.046848000,0.000000000,0.000000000,1720619312.313388109,,,,,,,,,,,
1720619312.329077,0.024882000,0.000000000,0.000000000,-1.202509000,0.000000000,0.000000000,1.013584000,0.000000000,0.000000000,0.046176000,0.000000000,0.000000000,0.236128000,0.000000000,0.000000000,-0.046656000,0.000000000,0.000000000,1720619312.320388317,,,,,,,,,,,
1720619312.330573,0.024882000,0.000000000,0.000000000,-1.202509000,0.000000000,0.000000000,1.013584000,0.000000000,0.000000000,0.046176000,0.000000000,0.000000000,0.236128000,0.000000000,0.000000000,-0.046656000,0.000000000,0.000000000,1720619312.321388245,,,,,,,,,,,
1720619312.333767,0.025454000,0.000000000,0.000000000,-1.202509000,0.000000000,0.000000000,1.012154000,0.000000000,0.000000000,0.046176000,0.000000000,0.000000000,0.235936000,0.000000000,0.000000000,-0.047296000,0.000000000,0.000000000,1720619312.325388193,,,,,,,,,,,
1720619312.341442,0.025454000,0.000000000,0.000000000,-1.202509000,0.000000000,0.000000000,1.012726000,0.000000000,0.000000000,0.046176000,0.000000000,0.000000000,0.235936000,0.000000000,0.000000000,-0.046848000,0.000000000,0.000000000,1720619312.332388163,,,,,,,,,,,
1720619312.342007,0.025454000,0.000000000,0.000000000,-1.202509000,0.000000000,0.000000000,1.012726000,0.000000000,0.000000000,0.046176000,0.000000000,0.000000000,0.235936000,0.000000000,0.000000000,-0.046848000,0.000000000,0.000000000,1720619312.333388329,,,,,,,,,,,
1720619312.346104,0.025454000,0.000000000,0.000000000,-1.202509000,0.000000000,0.000000000,1.012726000,0.000000000,0.000000000,0.046176000,0.000000000,0.000000000,0.235872000,0.000000000,0.000000000,-0.047232000,0.000000000,0.000000000,1720619312.337388277,,,,,,,,,,,
1720619312.353581,0.025454000,0.000000000,0.000000000,-1.167474000,0.000000000,0.000000000,1.012726000,0.000000000,0.000000000,0.046176000,0.000000000,0.000000000,0.235392000,0.000000000,0.000000000,-0.046496000,0.000000000,0.000000000,1720619312.344388247,,,,,,,,,,,
1720619312.354134,0.025454000,0.000000000,0.000000000,-1.167474000,0.000000000,0.000000000,1.012726000,0.000000000,0.000000000,0.046176000,0.000000000,0.000000000,0.235392000,0.000000000,0.000000000,-0.046496000,0.000000000,0.000000000,1720619312.345388174,,,,,,,,,,,
1720619312.357861,0.025454000,0.000000000,0.000000000,-1.203587000,0.000000000,0.000000000,1.012726000,0.000000000,0.000000000,0.046176000,0.000000000,0.000000000,0.235808000,0.000000000,0.000000000,-0.047776000,0.000000000,0.000000000,1720619312.349388123,,,,,,,,,,,
1720619312.365285,0.025454000,0.000000000,0.000000000,-1.204665000,0.000000000,0.000000000,1.012726000,0.000000000,0.000000000,0.046176000,0.000000000,0.000000000,0.236320000,0.000000000,0.000000000,-0.047904000,0.000038380,0.009134350,1720619312.356388092,,,,,,,,,,,
1720619312.366158,0.025454000,0.000000000,0.000000000,-1.204665000,0.000000000,0.000000000,1.012726000,0.000000000,0.000000000,0.046176000,0.000000000,0.000000000,0.236320000,0.000000000,0.000000000,-0.047904000,0.000038380,0.009134350,1720619312.357388258,,,,,,,,,,,
1720619312.371073,0.025454000,0.000000000,0.000000000,-1.171786000,0.000000000,0.000000000,1.012726000,0.000000000,0.000000000,0.046176000,0.000000000,0.000000000,0.235872000,0.000000000,0.000000000,-0.046368000,0.000000000,0.009134350,1720619312.362388134,,,,,,,,,,,
1720619312.374799,,,,,,,,,,,,,,,,,,,,1720619312.356388092,-1.186823998,3.141490200,0.000015924,0.829037542,0.000010709,0.000094939,0.559192948,1.395152983,0.001108959,1.481517794
1720619312.378502,0.025454000,0.000000000,0.000000000,-1.175559000,0.000000000,0.000000000,1.012726000,0.000000000,0.000000000,0.046176000,0.000000000,0.000000000,0.235584000,0.000000000,0.000000000,-0.046592000,0.000000000,0.009134350,1720619312.369388103,,,,,,,,,,,
1720619312.378776,0.025454000,0.000000000,0.000000000,-1.175559000,0.000000000,0.000000000,1.012726000,0.000000000,0.000000000,0.046176000,0.000000000,0.000000000,0.235584000,0.000000000,0.000000000,-0.046592000,0.000000000,0.009134350,1720619312.370388269,,,,,,,,,,,
1720619312.389527,0.025454000,0.000000000,0.000000000,-1.204665000,0.000000000,0.000000000,1.012726000,0.000000000,0.000000000,0.046112000,0.000000000,0.000000000,0.235392000,0.000000000,0.000000000,-0.046656000,0.000000000,0.000000000,1720619312.380388260,,,,,,,,,,,
1720619312.390508,0.025454000,0.000000000,0.000000000,-1.204665000,0.000000000,0.000000000,1.012726000,0.000000000,0.000000000,0.046112000,0.000000000,0.000000000,0.235392000,0.000000000,0.000000000,-0.046656000,0.000000000,0.000000000,1720619312.381388187,,,,,,,,,,,
1720619312.393250,0.025454000,0.000000000,0.000000000,-1.200892000,0.000000000,0.000000000,1.012726000,0.000000000,0.000000000,0.046112000,0.000000000,0.000000000,0.236128000,0.000000000,0.000000000,-0.047232000,0.000000000,0.000000000,1720619312.384388208,,,,,,,,,,,
1720619312.397035,0.025454000,0.000000000,0.000000000,-1.200892000,0.000000000,0.000000000,1.012726000,0.000000000,0.000000000,0.046112000,0.000000000,0.000000000,0.236320000,0.000000000,0.000000000,-0.047104000,0.000000000,0.000000000,1720619312.388388157,,,,,,,,,,,
1720619312.405346,0.025454000,0.000000000,0.000000000,-1.200892000,0.000000000,0.000000000,1.012726000,0.000000000,0.000000000,0.046112000,0.000000000,0.000000000,0.235744000,0.000000000,0.000000000,-0.047232000,0.000038380,0.009134350,1720619312.396388292,,,,,,,,,,,
1720619312.408911,0.025454000,0.000000000,0.000000000,-1.200892000,0.000000000,0.000000000,1.012726000,0.000000000,0.000000000,0.046112000,0.000000000,0.000000000,0.235808000,0.000000000,0.000000000,-0.046656000,0.000000000,0.009134350,1720619312.400388241,,,,,,,,,,,
1720619312.417554,0.025454000,0.000000000,0.000000000,-1.200892000,0.000000000,0.000000000,1.012726000,0.000000000,0.000000000,0.046112000,0.000000000,0.000000000,0.235328000,0.000000000,0.000000000,-0.046368000,0.000000000,0.009134350,1720619312.408388138,,,,,,,,,,,
1720619312.421241,0.025454000,0.000000000,0.000000000,-1.200892000,0.000000000,0.000000000,1.012726000,0.000000000,0.000000000,0.046176000,0.000000000,0.000000000,0.235744000,0.000000000,0.000000000,-0.047648000,0.000038380,0.009134350,1720619312.412388325,,,,,,,,,,,
1720619312.424833,,,,,,,,,,,,,,,,,,,,1720619312.408388138,-1.186824000,3.141592654,0.000000015,0.829037542,-0.000000022,-0.000000054,0.559192949,1.395152983,0.001110973,1.481517837
1720619312.429440,0.025454000,0.000000000,0.000000000,-1.200892000,0.000000000,0.000000000,1.012726000,0.000000000,0.000000000,0.046112000,0.000000000,0.000000000,0.235264000,0.000000000,0.000000000,-0.047520000,0.000038380,0.009134350,1720619312.420388222,,,,,,,,,,,
1720619312.432456,0.025454000,0.000000000,0.000000000,-1.200892000,0.000000000,0.000000000,1.012726000,0.000000000,0.000000000,0.046112000,0.000000000,0.000000000,0.235744000,0.000000000,0.000000000,-0.047040000,0.000000000,0.009134350,1720619312.423388243,,,,,,,,,,,
1720619312.440170,0.025454000,0.000000000,0.000000000,-1.201970000,0.000000000,0.000000000,1.012726000,0.000000000,0.000000000,0.046112000,0.000000000,0.000000000,0.235520000,0.000000000,0.000000000,-0.047296000,0.000000000,0.000000000,1720619312.431388140,,,,,,,,,,,
1720619312.444105,0.025454000,0.000000000,0.000000000,-1.201970000,0.000000000,0.000000000,1.012726000,0.000000000,0.000000000,0.046112000,0.000000000,0.000000000,0.235680000,0.000000000,0.000000000,-0.046912000,0.000000000,0.000000000,1720619312.435388327,,,,,,,,,,,
1720619312.452801,0.025454000,0.000000000,0.000000000,-1.200892000,0.000000000,0.000000000,1.012726000,0.000000000,0.000000000,0.046112000,0.000000000,0.000000000,0.236320000,0.000000000,0.000000000,-0.047040000,0.000000000,0.000000000,1720619312.443388224,,,,,,,,,,,
1720619312.461769,0.025454000,0.000000000,0.000000000,-1.177715000,0.000000000,0.000000000,1.012726000,0.000000000,0.000000000,0.046112000,0.000000000,0.000000000,0.235456000,0.000000000,0.000000000,-0.046496000,0.000000000,0.000000000,1720619312.452388287,,,,,,,,,,,
1720619312.462497,0.025454000,0.000000000,0.000000000,-1.177715000,0.000000000,0.000000000,1.012726000,0.000000000,0.000000000,0.046112000,0.000000000,0.000000000,0.235456000,0.000000000,0.000000000,-0.046496000,0.000000000,0.000000000,1720619312.453388214,,,,,,,,,,,
1720619312.464221,0.025454000,0.000000000,0.000000000,-1.205204000,0.000000000,0.000000000,1.012726000,0.000000000,0.000000000,0.046112000,0.000000000,0.000000000,0.235744000,0.000000000,0.000000000,-0.047776000,0.000038380,0.009134350,1720619312.455388308,,,,,,,,,,,
1720619312.473713,0.025454000,0.000000000,0.000000000,-1.204665000,0.000000000,0.000000000,1.012726000,0.000000000,0.000000000,0.046112000,0.000000000,0.000000000,0.236448000,0.000000000,0.000000000,-0.047840000,0.000038380,0.009134350,1720619312.464388132,,,,,,,,,,,
1720619312.474065,0.025454000,0.000000000,0.000000000,-1.204665000,0.000000000,0.000000000,1.012726000,0.000000000,0.000000000,0.046112000,0.000000000,0.000000000,0.236448000,0.000000000,0.000000000,-0.047840000,0.000038380,0.009134350,1720619312.465388298,,,,,,,,,,,
1720619312.474796,,,,,,,,,,,,,,,,,,,,1720619312.464388132,-1.186823998,3.141490200,0.000015924,0.829037542,0.000010709,0.000094939,0.559192948,1.395152983,0.001108959,1.481517794
1720619312.475893,0.025454000,0.000000000,0.000000000,-1.204665000,0.000000000,0.000000000,1.012726000,0.000000000,0.000000000,0.046112000,0.000000000,0.000000000,0.235072000,0.000000000,0.000000000,-0.046176000,0.000000000,0.009134350,1720619312.466388226,,,,,,,,,,,
1720619312.485807,0.025454000,0.000000000,0.000000000,-1.175559000,0.000000000,0.000000000,1.012726000,0.000000000,0.000000000,0.046112000,0.000000000,0.000000000,0.235744000,0.000000000,0.000000000,-0.046432000,0.000000000,0.009134350,1720619312.476388216,,,,,,,,,,,
1720619312.486542,0.025454000,0.000000000,0.000000000,-1.175559000,0.000000000,0.000000000,1.012726000,0.000000000,0.000000000,0.046112000,0.000000000,0.000000000,0.235744000,0.000000000,0.000000000,-0.046432000,0.000000000,0.009134350,1720619312.477388144,,,,,,,,,,,
1720619312.489525,0.025454000,0.000000000,0.000000000,-1.203587000,0.000000000,0.000000000,1.012726000,0.000000000,0.000000000,0.046112000,0.000000000,0.000000000,0.235264000,0.000000000,0.000000000,-0.047104000,0.000000000,0.000000000,1720619312.480388165,,,,,,,,,,,
1720619312.497772,0.025454000,0.000000000,0.000000000,-1.202509000,0.000000000,0.000000000,1.012726000,0.000000000,0.000000000,0.046112000,0.000000000,0.000000000,0.235936000,0.000000000,0.000000000,-0.045984000,0.000000000,0.009134350,1720619312.488388300,,,,,,,,,,,
1720619312.498735,0.025454000,0.000000000,0.000000000,-1.202509000,0.000000000,0.000000000,1.012726000,0.000000000,0.000000000,0.046112000,0.000000000,0.000000000,0.235936000,0.000000000,0.000000000,-0.045984000,0.000000000,0.009134350,1720619312.489388227,,,,,,,,,,,
1720619312.501613,0.025454000,0.000000000,0.000000000,-1.202509000,0.000000000,0.000000000,1.012726000,0.000000000,0.000000000,0.046112000,0.000000000,0.000000000,0.235680000,0.000000000,0.000000000,-0.047776000,0.000038380,0.009134350,1720619312.492388248,,,,,,,,,,,
1720619312.509858,0.025454000,0.000000000,0.000000000,-1.205204000,0.000000000,0.000000000,1.012726000,0.000000000,0.000000000,0.046176000,0.000000000,0.000000000,0.235680000,0.000000000,0.000000000,-0.047040000,0.000000000,0.000000000,1720619312.500388145,,,,,,,,,,,
1720619312.510194,0.025454000,0.000000000,0.000000000,-1.205204000,0.000000000,0.000000000,1.012726000,0.000000000,0.000000000,0.046176000,0.000000000,0.000000000,0.235680000,0.000000000,0.000000000,-0.047040000,0.000000000,0.000000000,1720619312.501388311,,,,,,,,,,,
1720619312.512838,0.025454000,0.000000000,0.000000000,-1.197119000,0.000000000,0.000000000,1.012726000,0.000000000,0.000000000,0.046112000,0.000000000,0.000000000,0.236320000,0.000000000,0.000000000,-0.046368000,0.000000000,0.000000000,1720619312.503388166,,,,,,,,,,,
1720619312.522045,0.025454000,0.000000000,0.000000000,-1.199275000,0.000000000,0.000000000,1.012726000,0.000000000,0.000000000,0.046112000,0.000000000,0.000000000,0.235008000,0.000000000,0.000000000,-0.045984000,0.000000000,0.000000000,1720619312.512388229,,,,,,,,,,,
1720619312.523134,0.025454000,0.000000000,0.000000000,-1.199275000,0.000000000,0.000000000,1.012726000,0.000000000,0.000000000,0.046112000,0.000000000,0.000000000,0.235008000,0.000000000,0.000000000,-0.045984000,0.000000000,0.000000000,1720619312.513388157,,,,,,,,,,,
1720619312.524340,0.025454000,0.000000000,0.000000000,-1.199275000,0.000000000,0.000000000,1.012726000,0.000000000,0.000000000,0.046112000,0.000000000,0.000000000,0.236384000,0.000000000,0.000000000,-0.048224000,0.000038380,0.009134350,1720619312.515388250,,,,,,,,,,,
1720619312.534724,,,,,,,,,,,,,,,,,,,,1720619312.515388250,-1.186823998,3.141490200,0.000015924,0.829037542,0.000010709,0.000094939,0.559192948,1.395152983,0.001108959,1.481517794
1720619312.536402,0.025454000,0.000000000,0.000000000,-1.195502000,0.000000000,0.000000000,1.012726000,0.000000000,0.000000000,0.046176000,0.000000000,0.000000000,0.235328000,0.000000000,0.000000000,-0.046176000,0.000000000,0.009134350,1720619312.527388096,,,,,,,,,,,
1720619312.544216,0.025454000,0.000000000,0.000000000,-1.207899000,0.000000000,0.000000000,1.012726000,0.000000000,0.000000000,0.046176000,0.000000000,0.000000000,0.235872000,0.000000000,0.000000000,-0.046784000,0.000000000,0.009134350,1720619312.535388231,,,,,,,,,,,
1720619312.556154,0.025454000,0.000000000,0.000000000,-1.195502000,0.000000000,0.000000000,1.012726000,0.000000000,0.000000000,0.046176000,0.000000000,0.000000000,0.235936000,0.000000000,0.000000000,-0.046976000,0.000000000,0.000000000,1720619312.546388149,,,,,,,,,,,
1720619312.567916,0.025454000,0.000000000,0.000000000,-1.200892000,0.000000000,0.000000000,1.012726000,0.000000000,0.000000000,0.046176000,0.000000000,0.000000000,0.235680000,0.000000000,0.000000000,-0.046592000,0.000000000,0.000000000,1720619312.556388140,,,,,,,,,,,
1720619312.573729,0.025454000,0.000000000,0.000000000,-1.201970000,0.000000000,0.000000000,1.012726000,0.000000000,0.000000000,0.046176000,0.000000000,0.000000000,0.236320000,0.000000000,0.000000000,-0.045440000,0.000000000,0.009134350,1720619312.564388275,,,,,,,,,,,
1720619312.574506,0.025454000,0.000000000,0.000000000,-1.201970000,0.000000000,0.000000000,1.012726000,0.000000000,0.000000000,0.046176000,0.000000000,0.000000000,0.236320000,0.000000000,0.000000000,-0.045440000,0.000000000,0.009134350,1720619312.565388203,,,,,,,,,,,
1720619312.576005,0.025454000,0.000000000,0.000000000,-1.200892000,0.000000000,0.000000000,1.012726000,0.000000000,0.000000000,0.046176000,0.000000000,0.000000000,0.234816000,0.000000000,0.000000000,-0.048512000,0.000038380,0.009134350,1720619312.566388130,,,,,,,,,,,
1720619312.584894,,,,,,,,,,,,,,,,,,,,1720619312.565388203,-1.186824000,3.141592654,0.000000015,0.829037542,-0.000000022,-0.000000054,0.559192949,1.395152983,0.001110973,1.481517837
1720619312.585815,0.024882000,0.000000000,0.000000000,-1.202509000,0.000000000,0.000000000,1.012726000,0.000000000,0.000000000,0.046112000,0.000000000,0.000000000,0.235936000,0.000000000,0.000000000,-0.048448000,0.000038380,0.009134350,1720619312.576388121,,,,,,,,,,,
1720619312.586725,0.024882000,0.000000000,0.000000000,-1.202509000,0.000000000,0.000000000,1.012726000,0.000000000,0.000000000,0.046112000,0.000000000,0.000000000,0.235936000,0.000000000,0.000000000,-0.048448000,0.000038380,0.009134350,1720619312.577388287,,,,,,,,,,,
1720619312.588769,0.024882000,0.000000000,0.000000000,-1.202509000,0.000000000,0.000000000,1.012726000,0.000000000,0.000000000,0.046176000,0.000000000,0.000000000,0.235264000,0.000000000,0.000000000,-0.045920000,0.000000000,0.009134350,1720619312.579388142,,,,,,,,,,,
1720619312.589676,0.024882000,0.000000000,0.000000000,-1.202509000,0.000000000,0.000000000,1.012726000,0.000000000,0.000000000,0.046176000,0.000000000,0.000000000,0.235264000,0.000000000,0.000000000,-0.045920000,0.000000000,0.009134350,1720619312.580388308,,,,,,,,,,,
1720619312.590489,0.024882000,0.000000000,0.000000000,-1.202509000,0.000000000,0.000000000,1.012726000,0.000000000,0.000000000,0.046176000,0.000000000,0.000000000,0.235264000,0.000000000,0.000000000,-0.045920000,0.000000000,0.009134350,1720619312.581388235,,,,,,,,,,,
1720619312.593256,0.025454000,0.000000000,0.000000000,-1.202509000,0.000000000,0.000000000,1.012726000,0.000000000,0.000000000,0.046176000,0.000000000,0.000000000,0.235744000,0.000000000,0.000000000,-0.048224000,0.000038380,0.009134350,1720619312.584388256,,,,,,,,,,,
1720619312.604087,0.025454000,0.000000000,0.000000000,-1.205204000,0.000000000,0.000000000,1.012726000,0.000000000,0.000000000,0.046176000,0.000000000,0.000000000,0.236000000,0.000000000,0.000000000,-0.046304000,0.000000000,0.009134350,1720619312.594388247,,,,,,,,,,,
1720619312.613384,0.025454000,0.000000000,0.000000000,-1.203587000,0.000000000,0.000000000,1.012726000,0.000000000,0.000000000,0.046176000,0.000000000,0.000000000,0.235392000,0.000000000,0.000000000,-0.046656000,0.000000000,0.009134350,1720619312.604388237,,,,,,,,,,,
1720619312.623036,0.025454000,0.000000000,0.000000000,-1.203587000,0.000000000,0.000000000,1.012726000,0.000000000,0.000000000,0.045856000,0.000000000,0.000000000,0.236000000,0.000000000,0.000000000,-0.046432000,0.000000000,0.009134350,1720619312.613388300,,,,,,,,,,,
1720619312.624559,0.025454000,0.000000000,0.000000000,-1.203587000,0.000000000,0.000000000,1.012726000,0.000000000,0.000000000,0.046240000,0.000000000,0.000000000,0.235392000,0.000000000,0.000000000,-0.047840000,0.000038380,0.009134350,1720619312.615388155,,,,,,,,,,,
1720619312.625589,0.025454000,0.000000000,0.000000000,-1.203587000,0.000000000,0.000000000,1.012726000,0.000000000,0.000000000,0.046240000,0.000000000,0.000000000,0.235392000,0.000000000,0.000000000,-0.047840000,0.000038380,0.009134350,1720619312.616388321,,,,,,,,,,,
1720619312.626684,0.025454000,0.000000000,0.000000000,-1.203587000,0.000000000,0.000000000,1.012726000,0.000000000,0.000000000,0.046240000,0.000000000,0.000000000,0.235392000,0.000000000,0.000000000,-0.047840000,0.000038380,0.009134350,1720619312.617388248,,,,,,,,,,,
1720619312.628649,0.025454000,0.000000000,0.000000000,-1.205204000,0.000000000,0.000000000,1.012726000,0.000000000,0.000000000,0.046240000,0.000000000,0.000000000,0.236384000,0.000000000,0.000000000,-0.046784000,0.000000000,0.009134350,1720619312.619388103,,,,,,,,,,,
1720619312.629577,0.025454000,0.000000000,0.000000000,-1.205204000,0.000000000,0.000000000,1.012726000,0.000000000,0.000000000,0.046240000,0.000000000,0.000000000,0.236384000,0.000000000,0.000000000,-0.046784000,0.000000000,0.009134350,1720619312.620388269,,,,,,,,,,,
1720619312.634820,,,,,,,,,,,,,,,,,,,,1720619312.615388155,-1.186823998,3.141490200,0.000015924,0.829037542,0.000010709,0.000094939,0.559192948,1.395152983,0.001108959,1.481517794
1720619312.637500,0.025454000,0.000000000,0.000000000,-1.169091000,0.000000000,0.000000000,1.012726000,0.000000000,0.000000000,0.046240000,0.000000000,0.000000000,0.234880000,0.000000000,0.000000000,-0.046720000,0.000000000,0.000000000,1720619312.624388218,,,,,,,,,,,
1720619312.640512,0.025454000,0.000000000,0.000000000,-1.203587000,0.000000000,0.000000000,1.012726000,0.000000000,0.000000000,0.046176000,0.000000000,0.000000000,0.235744000,0.000000000,0.000000000,-0.047232000,0.000000000,0.000000000,1720619312.631388187,,,,,,,,,,,
1720619312.641865,0.025454000,0.000000000,0.000000000,-1.203587000,0.000000000,0.000000000,1.012726000,0.000000000,0.000000000,0.046176000,0.000000000,0.000000000,0.235744000,0.000000000,0.000000000,-0.047232000,0.000000000,0.000000000,1720619312.632388115,,,,,,,,,,,
1720619312.646553,0.025454000,0.000000000,0.000000000,-1.203587000,0.000000000,0.000000000,1.012726000,0.000000000,0.000000000,0.046176000,0.000000000,0.000000000,0.236544000,0.000000000,0.000000000,-0.046656000,0.000000000,0.000000000,1720619312.637388229,,,,,,,,,,,
1720619312.652634,0.025454000,0.000000000,0.000000000,-1.204665000,0.000000000,0.000000000,1.012726000,0.000000000,0.000000000,0.046176000,0.000000000,0.000000000,0.235936000,0.000000000,0.000000000,-0.046720000,0.000000000,0.009134350,1720619312.643388271,,,,,,,,,,,
1720619312.653799,0.025454000,0.000000000,0.000000000,-1.204665000,0.000000000,0.000000000,1.012726000,0.000000000,0.000000000,0.046176000,0.000000000,0.000000000,0.235936000,0.000000000,0.000000000,-0.046720000,0.000000000,0.009134350,1720619312.644388199,,,,,,,,,,,
1720619312.655036,0.025454000,0.000000000,0.000000000,-1.204665000,0.000000000,0.000000000,1.012726000,0.000000000,0.000000000,0.046176000,0.000000000,0.000000000,0.235936000,0.000000000,0.000000000,-0.046720000,0.000000000,0.009134350,1720619312.645388126,,,,,,,,,,,
1720619312.666095,0.025454000,0.000000000,0.000000000,-1.204665000,0.000000000,0.000000000,1.012726000,0.000000000,0.000000000,0.046176000,0.000000000,0.000000000,0.235872000,0.000000000,0.000000000,-0.047232000,0.000038380,0.009134350,1720619312.651388168,,,,,,,,,,,
1720619312.667040,0.025454000,0.000000000,0.000000000,-1.207899000,0.000000000,0.000000000,1.012726000,0.000000000,0.000000000,0.046176000,0.000000000,0.000000000,0.235456000,0.000000000,0.000000000,-0.046656000,0.000000000,0.009134350,1720619312.657388210,,,,,,,,,,,
1720619312.669088,0.025454000,0.000000000,0.000000000,-1.203587000,0.000000000,0.000000000,1.012726000,0.000000000,0.000000000,0.046176000,0.000000000,0.000000000,0.235936000,0.000000000,0.000000000,-0.046976000,0.000000000,0.000000000,1720619312.659388304,,,,,,,,,,,
1720619312.672691,0.025454000,0.000000000,0.000000000,-1.203587000,0.000000000,0.000000000,1.012726000,0.000000000,0.000000000,0.046176000,0.000000000,0.000000000,0.235200000,0.000000000,0.000000000,-0.047520000,0.000000000,0.000000000,1720619312.663388252,,,,,,,,,,,
1720619312.680967,0.025454000,0.000000000,0.000000000,-1.204665000,0.000000000,0.000000000,1.012726000,0.000000000,0.000000000,0.046112000,0.000000000,0.000000000,0.235936000,0.000000000,0.000000000,-0.047040000,0.000000000,0.000000000,1720619312.671388149,,,,,,,,,,,
1720619312.684725,,,,,,,,,,,,,,,,,,,,1720619312.671388149,-1.186824000,3.141592654,0.000000015,0.829037542,-0.000000022,-0.000000054,0.559192949,1.395152983,0.001110973,1.481517837
1720619312.684746,0.025454000,0.000000000,0.000000000,-1.202509000,0.000000000,0.000000000,1.012726000,0.000000000,0.000000000,0.046112000,0.000000000,0.000000000,0.235936000,0.000000000,0.000000000,-0.046592000,0.000000000,0.000000000,1720619312.675388098,,,,,,,,,,,
1720619312.692669,0.025454000,0.000000000,0.000000000,-1.199814000,0.000000000,0.000000000,1.012726000,0.000000000,0.000000000,0.046176000,0.000000000,0.000000000,0.236000000,0.000000000,0.000000000,-0.046592000,0.000000000,0.000000000,1720619312.683388233,,,,,,,,,,,
1720619312.696600,0.025454000,0.000000000,0.000000000,-1.199814000,0.000000000,0.000000000,1.012726000,0.000000000,0.000000000,0.046112000,0.000000000,0.000000000,0.235264000,0.000000000,0.000000000,-0.047648000,0.000038380,0.009134350,1720619312.687388182,,,,,,,,,,,
1720619312.704971,0.025454000,0.000000000,0.000000000,-1.199814000,0.000000000,0.000000000,1.012726000,0.000000000,0.000000000,0.046176000,0.000000000,0.000000000,0.235008000,0.000000000,0.000000000,-0.047296000,0.000000000,0.000000000,1720619312.695388317,,,,,,,,,,,
1720619312.709157,0.025454000,0.000000000,0.000000000,-1.199814000,0.000000000,0.000000000,1.012726000,0.000000000,0.000000000,0.046112000,0.000000000,0.000000000,0.236064000,0.000000000,0.000000000,-0.046784000,0.000000000,0.000000000,1720619312.699388266,,,,,,,,,,,
1720619312.717193,0.025454000,0.000000000,0.000000000,-1.211672000,0.000000000,0.000000000,1.012726000,0.000000000,0.000000000,0.046176000,0.000000000,0.000000000,0.235264000,0.000000000,0.000000000,-0.046912000,0.000000000,0.009134350,1720619312.707388163,,,,,,,,,,,
1720619312.720750,0.025454000,0.000000000,0.000000000,-1.203587000,0.000000000,0.000000000,1.012726000,0.000000000,0.000000000,0.046176000,0.000000000,0.000000000,0.236128000,0.000000000,0.000000000,-0.047296000,0.000038380,0.009134350,1720619312.711388111,,,,,,,,,,,
1720619312.729465,0.025454000,0.000000000,0.000000000,-1.200892000,0.000000000,0.000000000,1.012726000,0.000000000,0.000000000,0.046176000,0.000000000,0.000000000,0.236384000,0.000000000,0.000000000,-0.047520000,0.000038380,0.009134350,1720619312.719388247,,,,,,,,,,,
1720619312.734008,0.025454000,0.000000000,0.000000000,-1.210594000,0.000000000,0.000000000,1.012726000,0.000000000,0.000000000,0.046176000,0.000000000,0.000000000,0.235680000,0.000000000,0.000000000,-0.046176000,0.000000000,0.009134350,1720619312.724388123,,,,,,,,,,,
1720619312.734726,,,,,,,,,,,,,,,,,,,,1720619312.724388123,-1.186824000,3.141592654,0.000000015,0.829037542,-0.000000022,-0.000000054,0.559192949,1.395152983,0.001110973,1.481517837
1720619312.740901,0.025454000,0.000000000,0.000000000,-1.204665000,0.000000000,0.000000000,1.012726000,0.000000000,0.000000000,0.046176000,0.000000000,0.000000000,0.235936000,0.000000000,0.000000000,-0.046720000,0.000000000,0.009134350,1720619312.731388092,,,,,,,,,,,
1720619312.742024,0.025454000,0.000000000,0.000000000,-1.204665000,0.000000000,0.000000000,1.012726000,0.000000000,0.000000000,0.046176000,0.000000000,0.000000000,0.235936000,0.000000000,0.000000000,-0.046720000,0.000000000,0.009134350,1720619312.732388258,,,,,,,,,,,
1720619312.749041,0.025454000,0.000000000,0.000000000,-1.202509000,0.000000000,0.000000000,1.012726000,0.000000000,0.000000000,0.046176000,0.000000000,0.000000000,0.236800000,0.000000000,0.000000000,-0.046848000,0.000000000,0.000000000,1720619312.739388227,,,,,,,,,,,
1720619312.754948,0.025454000,0.000000000,0.000000000,-1.202509000,0.000000000,0.000000000,1.012726000,0.000000000,0.000000000,0.046176000,0.000000000,0.000000000,0.235872000,0.000000000,0.000000000,-0.046656000,0.000000000,0.000000000,1720619312.745388269,,,,,,,,,,,
1720619312.756983,0.025454000,0.000000000,0.000000000,-1.201970000,0.000000000,0.000000000,1.012726000,0.000000000,0.000000000,0.046176000,0.000000000,0.000000000,0.235456000,0.000000000,0.000000000,-0.047520000,0.000000000,0.000000000,1720619312.747388124,,,,,,,,,,,
1720619312.760732,0.025454000,0.000000000,0.000000000,-1.198197000,0.000000000,0.000000000,1.012726000,0.000000000,0.000000000,0.046176000,0.000000000,0.000000000,0.235744000,0.000000000,0.000000000,-0.046720000,0.000000000,0.000000000,1720619312.751388311,,,,,,,,,,,
1720619312.769618,0.025454000,0.000000000,0.000000000,-1.197119000,0.000000000,0.000000000,1.012726000,0.000000000,0.000000000,0.046176000,0.000000000,0.000000000,0.236128000,0.000000000,0.000000000,-0.047104000,0.000000000,0.000000000,1720619312.759388208,,,,,,,,,,,
1720619312.772910,0.025454000,0.000000000,0.000000000,-1.199275000,0.000000000,0.000000000,1.012726000,0.000000000,0.000000000,0.046176000,0.000000000,0.000000000,0.235584000,0.000000000,0.000000000,-0.046784000,0.000000000,0.000000000,1720619312.763388157,,,,,,,,,,,
1720619312.785177,0.025454000,0.000000000,0.000000000,-1.199814000,0.000000000,0.000000000,1.012726000,0.000000000,0.000000000,0.046176000,0.000000000,0.000000000,0.235328000,0.000000000,0.000000000,-0.046592000,0.000000000,0.000000000,1720619312.775388241,,,,,,,,,,,
1720619312.791337,0.025454000,0.000000000,0.000000000,-1.199814000,0.000000000,0.000000000,1.012726000,0.000000000,0.000000000,0.046176000,0.000000000,0.000000000,0.235456000,0.000000000,0.000000000,-0.047360000,0.000000000,0.000000000,1720619312.781388283,,,,,,,,,,,
1720619312.793281,0.025454000,0.000000000,0.000000000,-1.199814000,0.000000000,0.000000000,1.012726000,0.000000000,0.000000000,0.046176000,0.000000000,0.000000000,0.235936000,0.000000000,0.000000000,-0.047584000,0.000000000,0.000000000,1720619312.783388138,,,,,,,,,,,
1720619312.794814,,,,,,,,,,,,,,,,,,,,1720619312.775388241,-1.186824000,3.141592654,0.000000015,0.829037542,-0.000000022,-0.000000054,0.559192949,1.395152983,0.001110973,1.481517837
1720619312.796940,0.025454000,0.000000000,0.000000000,-1.222991000,0.000000000,0.000000000,1.012726000,0.000000000,0.000000000,0.046176000,0.000000000,0.000000000,0.235264000,0.000000000,0.000000000,-0.045920000,0.000000000,0.000000000,1720619312.787388325,,,,,,,,,,,
1720619312.805250,0.025454000,0.000000000,0.000000000,-1.231615000,0.000000000,0.000000000,1.012726000,0.000000000,0.000000000,0.046176000,0.000000000,0.000000000,0.235264000,0.000000000,0.000000000,-0.045856000,0.000000000,0.009134350,1720619312.795388222,,,,,,,,,,,
1720619312.809739,0.025454000,0.000000000,0.000000000,-1.214906000,0.000000000,0.000000000,1.012726000,0.000000000,0.000000000,0.046176000,0.000000000,0.000000000,0.235872000,0.000000000,0.000000000,-0.048448000,0.000038380,0.009134350,1720619312.799388170,,,,,,,,,,,
1720619312.817547,0.025454000,0.000000000,0.000000000,-1.202509000,0.000000000,0.000000000,1.012726000,0.000000000,0.000000000,0.046176000,0.000000000,0.000000000,0.235936000,0.000000000,0.000000000,-0.048160000,0.000038380,0.009134350,1720619312.807388306,,,,,,,,,,,
1720619312.821118,0.025454000,0.000000000,0.000000000,-1.199814000,0.000000000,0.000000000,1.012726000,0.000000000,0.000000000,0.046176000,0.000000000,0.000000000,0.235456000,0.000000000,0.000000000,-0.046592000,0.000000000,0.009134350,1720619312.811388254,,,,,,,,,,,
1720619312.829619,0.025454000,0.000000000,0.000000000,-1.202509000,0.000000000,0.000000000,1.012726000,0.000000000,0.000000000,0.046176000,0.000000000,0.000000000,0.235872000,0.000000000,0.000000000,-0.046912000,0.000000000,0.009134350,1720619312.819388151,,,,,,,,,,,
1720619312.838304,0.025454000,0.000000000,0.000000000,-1.202509000,0.000000000,0.000000000,1.012726000,0.000000000,0.000000000,0.046176000,0.000000000,0.000000000,0.235328000,0.000000000,0.000000000,-0.047104000,0.000038380,0.009134350,1720619312.824388266,,,,,,,,,,,
1720619312.841213,0.025454000,0.000000000,0.000000000,-1.201970000,0.000000000,0.000000000,1.012726000,0.000000000,0.000000000,0.046176000,0.000000000,0.000000000,0.236064000,0.000000000,0.000000000,-0.046656000,0.000000000,0.000000000,1720619312.831388235,,,,,,,,,,,
1720619312.842211,0.025454000,0.000000000,0.000000000,-1.201970000,0.000000000,0.000000000,1.012726000,0.000000000,0.000000000,0.046176000,0.000000000,0.000000000,0.236064000,0.000000000,0.000000000,-0.046656000,0.000000000,0.000000000,1720619312.832388163,,,,,,,,,,,
1720619312.844834,,,,,,,,,,,,,,,,,,,,1720619312.831388235,-1.186824000,3.141592654,0.000000015,0.829037542,-0.000000022,-0.000000054,0.559192949,1.395152983,0.001110973,1.481517837
1720619312.846089,0.025454000,0.000000000,0.000000000,-1.201970000,0.000000000,0.000000000,1.012726000,0.000000000,0.000000000,0.046112000,0.000000000,0.000000000,0.235744000,0.000000000,0.000000000,-0.047168000,0.000000000,0.000000000,1720619312.836388111,,,,,,,,,,,
1720619312.853206,0.025454000,0.000000000,0.000000000,-1.201970000,0.000000000,0.000000000,1.012726000,0.000000000,0.000000000,0.046112000,0.000000000,0.000000000,0.236864000,0.000000000,0.000000000,-0.047584000,0.000000000,0.000000000,1720619312.843388319,,,,,,,,,,,
1720619312.856133,0.025454000,0.000000000,0.000000000,-1.201970000,0.000000000,0.000000000,1.012726000,0.000000000,0.000000000,0.046112000,0.000000000,0.000000000,0.236192000,0.000000000,0.000000000,-0.046784000,0.000000000,0.000000000,1720619312.846388102,,,,,,,,,,,
1720619312.865273,0.025454000,0.000000000,0.000000000,-1.202509000,0.000000000,0.000000000,1.012726000,0.000000000,0.000000000,0.046112000,0.000000000,0.000000000,0.235392000,0.000000000,0.000000000,-0.046784000,0.000000000,0.000000000,1720619312.855388165,,,,,,,,,,,
1720619312.866257,0.025454000,0.000000000,0.000000000,-1.202509000,0.000000000,0.000000000,1.012726000,0.000000000,0.000000000,0.046112000,0.000000000,0.000000000,0.235392000,0.000000000,0.000000000,-0.046784000,0.000000000,0.000000000,1720619312.856388092,,,,,,,,,,,
1720619312.868822,0.025454000,0.000000000,0.000000000,-1.202509000,0.000000000,0.000000000,1.012726000,0.000000000,0.000000000,0.046112000,0.000000000,0.000000000,0.235936000,0.000000000,0.000000000,-0.047040000,0.000000000,0.000000000,1720619312.858388186,,,,,,,,,,,
1720619312.877876,0.024596000,0.000000000,0.000000000,-1.202509000,0.000000000,0.000000000,1.012726000,0.000000000,0.000000000,0.046112000,0.000000000,0.000000000,0.235264000,0.000000000,0.000000000,-0.047776000,0.000000000,0.000000000,1720619312.867388248,,,,,,,,,,,
1720619312.879259,0.024596000,0.000000000,0.000000000,-1.202509000,0.000000000,0.000000000,1.012726000,0.000000000,0.000000000,0.046112000,0.000000000,0.000000000,0.235264000,0.000000000,0.000000000,-0.047776000,0.000000000,0.000000000,1720619312.868388176,,,,,,,,,,,
1720619312.880637,0.024596000,0.000000000,0.000000000,-1.202509000,0.000000000,0.000000000,1.012726000,0.000000000,0.000000000,0.046112000,0.000000000,0.000000000,0.235264000,0.000000000,0.000000000,-0.047776000,0.000000000,0.000000000,1720619312.869388103,,,,,,,,,,,
1720619312.889547,0.025454000,0.000000000,0.000000000,-1.202509000,0.000000000,0.000000000,1.012726000,0.000000000,0.000000000,0.046112000,0.000000000,0.000000000,0.235808000,0.000000000,0.000000000,-0.045920000,0.000000000,0.009134350,1720619312.879388094,,,,,,,,,,,
1720619312.890462,0.025454000,0.000000000,0.000000000,-1.202509000,0.000000000,0.000000000,1.012726000,0.000000000,0.000000000,0.046112000,0.000000000,0.000000000,0.235808000,0.000000000,0.000000000,-0.045920000,0.000000000,0.009134350,1720619312.880388260,,,,,,,,,,,
1720619312.892216,0.026026000,0.000000000,0.000000000,-1.202509000,0.000000000,0.000000000,1.012726000,0.000000000,0.000000000,0.046112000,0.000000000,0.000000000,0.235744000,0.000000000,0.000000000,-0.047968000,0.000038380,0.009134350,1720619312.882388115,,,,,,,,,,,
1720619312.895035,,,,,,,,,,,,,,,,,,,,1720619312.882388115,-1.186823998,3.141490200,0.000015924,0.829037542,0.000010709,0.000094939,0.559192948,1.395152983,0.001108959,1.481517794
1720619312.901565,0.026026000,0.000000000,0.000000000,-1.202509000,0.000000000,0.000000000,1.012726000,0.000000000,0.000000000,0.046112000,0.000000000,0.000000000,0.236256000,0.000000000,0.000000000,-0.048384000,0.000038380,0.009134350,1720619312.891388178,,,,,,,,,,,
1720619312.902218,0.026026000,0.000000000,0.000000000,-1.202509000,0.000000000,0.000000000,1.012726000,0.000000000,0.000000000,0.046112000,0.000000000,0.000000000,0.236256000,0.000000000,0.000000000,-0.048384000,0.000038380,0.009134350,1720619312.892388105,,,,,,,,,,,
1720619312.905603,0.026026000,0.000000000,0.000000000,-1.204665000,0.000000000,0.000000000,1.012726000,0.000000000,0.000000000,0.046112000,0.000000000,0.000000000,0.235808000,0.000000000,0.000000000,-0.045728000,0.000000000,0.009134350,1720619312.895388126,,,,,,,,,,,
1720619312.914435,0.026026000,0.000000000,0.000000000,-1.203587000,0.000000000,0.000000000,1.012726000,0.000000000,0.000000000,0.046112000,0.000000000,0.000000000,0.235744000,0.000000000,0.000000000,-0.048704000,0.000038380,0.009134350,1720619312.899388313,,,,,,,,,,,
1720619312.917641,0.026026000,0.000000000,0.000000000,-1.203587000,0.000000000,0.000000000,1.012726000,0.000000000,0.000000000,0.046112000,0.000000000,0.000000000,0.236320000,0.000000000,0.000000000,-0.048768000,0.000038380,0.009134350,1720619312.907388210,,,,,,,,,,,
1720619312.920949,0.026026000,0.000000000,0.000000000,-1.202509000,0.000000000,0.000000000,1.012726000,0.000000000,0.000000000,0.046112000,0.000000000,0.000000000,0.235744000,0.000000000,0.000000000,-0.045792000,0.000000000,0.009134350,1720619312.911388159,,,,,,,,,,,
1720619312.929347,0.026026000,0.000000000,0.000000000,-1.202509000,0.000000000,0.000000000,1.012726000,0.000000000,0.000000000,0.046112000,0.000000000,0.000000000,0.235808000,0.000000000,0.000000000,-0.046976000,0.000000000,0.000000000,1720619312.919388294,,,,,,,,,,,
1720619312.933049,0.026026000,0.000000000,0.000000000,-1.202509000,0.000000000,0.000000000,1.012726000,0.000000000,0.000000000,0.046112000,0.000000000,0.000000000,0.235744000,0.000000000,0.000000000,-0.046176000,0.000000000,0.000000000,1720619312.923388243,,,,,,,,,,,
1720619312.940471,0.026026000,0.000000000,0.000000000,-1.202509000,0.000000000,0.000000000,1.012726000,0.000000000,0.000000000,0.046112000,0.000000000,0.000000000,0.236448000,0.000000000,0.000000000,-0.046240000,0.000000000,0.009134350,1720619312.930388212,,,,,,,,,,,
1720619312.944072,0.026026000,0.000000000,0.000000000,-1.202509000,0.000000000,0.000000000,1.012726000,0.000000000,0.000000000,0.046112000,0.000000000,0.000000000,0.235680000,0.000000000,0.000000000,-0.047968000,0.000038380,0.009134350,1720619312.934388161,,,,,,,,,,,
1720619312.944884,,,,,,,,,,,,,,,,,,,,1720619312.934388161,-1.186823998,3.141490200,0.000015924,0.829037542,0.000010709,0.000094939,0.559192948,1.395152983,0.001108959,1.481517794
1720619312.952353,0.026026000,0.000000000,0.000000000,-1.198197000,0.000000000,0.000000000,1.012726000,0.000000000,0.000000000,0.046112000,0.000000000,0.000000000,0.236192000,0.000000000,0.000000000,-0.048224000,0.000038380,0.009134350,1720619312.942388296,,,,,,,,,,,
1720619312.957361,0.026026000,0.000000000,0.000000000,-1.205204000,0.000000000,0.000000000,1.012726000,0.000000000,0.000000000,0.046112000,0.000000000,0.000000000,0.235744000,0.000000000,0.000000000,-0.046112000,0.000000000,0.009134350,1720619312.947388172,,,,,,,,,,,
1720619312.965698,0.026026000,0.000000000,0.000000000,-1.207360000,0.000000000,0.000000000,1.012726000,0.000000000,0.000000000,0.046112000,0.000000000,0.000000000,0.235392000,0.000000000,0.000000000,-0.046112000,0.000000000,0.009134350,1720619312.955388308,,,,,,,,,,,
1720619312.969478,0.026026000,0.000000000,0.000000000,-1.174481000,0.000000000,0.000000000,1.012726000,0.000000000,0.000000000,0.046112000,0.000000000,0.000000000,0.235264000,0.000000000,0.000000000,-0.047968000,0.000038380,0.009134350,1720619312.959388256,,,,,,,,,,,
1720619312.976523,0.026026000,0.000000000,0.000000000,-1.203587000,0.000000000,0.000000000,1.012726000,0.000000000,0.000000000,0.046112000,0.000000000,0.000000000,0.236128000,0.000000000,0.000000000,-0.047776000,0.000038380,0.009134350,1720619312.966388226,,,,,,,,,,,
1720619312.978052,0.026026000,0.000000000,0.000000000,-1.203587000,0.000000000,0.000000000,1.012726000,0.000000000,0.000000000,0.046112000,0.000000000,0.000000000,0.236128000,0.000000000,0.000000000,-0.047776000,0.000038380,0.009134350,1720619312.967388153,,,,,,,,,,,
1720619312.981676,0.026026000,0.000000000,0.000000000,-1.202509000,0.000000000,0.000000000,1.012726000,0.000000000,0.000000000,0.046112000,0.000000000,0.000000000,0.236128000,0.000000000,0.000000000,-0.046656000,0.000000000,0.009134350,1720619312.971388102,,,,,,,,,,,
1720619312.989702,0.026026000,0.000000000,0.000000000,-1.202509000,0.000000000,0.000000000,1.012726000,0.000000000,0.000000000,0.046176000,0.000000000,0.000000000,0.235072000,0.000000000,0.000000000,-0.046976000,0.000000000,0.000000000,1720619312.979388237,,,,,,,,,,,
1720619312.992387,0.026026000,0.000000000,0.000000000,-1.202509000,0.000000000,0.000000000,1.012726000,0.000000000,0.000000000,0.046176000,0.000000000,0.000000000,0.236128000,0.000000000,0.000000000,-0.047424000,0.000000000,0.000000000,1720619312.982388258,,,,,,,,,,,
1720619313.006589,0.026026000,0.000000000,0.000000000,-1.202509000,0.000000000,0.000000000,1.012726000,0.000000000,0.000000000,0.046176000,0.000000000,0.000000000,0.236000000,0.000000000,0.000000000,-0.047584000,0.000038380,0.009134350,1720619312.992388248,,,,,,,,,,,
1720619313.011310,0.026026000,0.000000000,0.000000000,-1.202509000,0.000000000,0.000000000,1.012726000,0.000000000,0.000000000,0.046176000,0.000000000,0.000000000,0.234880000,0.000000000,0.000000000,-0.047424000,0.000000000,0.000000000,1720619313.000388145,,,,,,,,,,,
1720619313.012878,0.026026000,0.000000000,0.000000000,-1.174481000,0.000000000,0.000000000,1.012726000,0.000000000,0.000000000,0.046496000,0.000000000,0.000000000,0.236000000,0.000000000,0.000000000,-0.047104000,0.000000000,0.000000000,1720619313.002388239,,,,,,,,,,,
1720619313.014712,0.026026000,0.000000000,0.000000000,-1.174481000,0.000000000,0.000000000,1.012726000,0.000000000,0.000000000,0.046496000,0.000000000,0.000000000,0.236000000,0.000000000,0.000000000,-0.047104000,0.000000000,0.000000000,1720619313.004388094,,,,,,,,,,,
1720619313.014869,,,,,,,,,,,,,,,,,,,,1720619312.992388248,-1.186823998,3.141490200,0.000015924,0.829037542,0.000010709,0.000094939,0.559192948,1.395152983,0.001108959,1.481517794
1720619313.018890,0.026026000,0.000000000,0.000000000,-1.205204000,0.000000000,0.000000000,1.012726000,0.000000000,0.000000000,0.046176000,0.000000000,0.000000000,0.235744000,0.000000000,0.000000000,-0.047424000,0.000000000,0.000000000,1720619313.008388281,,,,,,,,,,,
1720619313.025883,0.026026000,0.000000000,0.000000000,-1.204665000,0.000000000,0.000000000,1.012726000,0.000000000,0.000000000,0.046112000,0.000000000,0.000000000,0.236000000,0.000000000,0.000000000,-0.047232000,0.000000000,0.000000000,1720619313.015388250,,,,,,,,,,,
1720619313.026494,0.026026000,0.000000000,0.000000000,-1.204665000,0.000000000,0.000000000,1.012726000,0.000000000,0.000000000,0.046112000,0.000000000,0.000000000,0.236000000,0.000000000,0.000000000,-0.047232000,0.000000000,0.000000000,1720619313.016388178,,,,,,,,,,,
1720619313.030770,0.026026000,0.000000000,0.000000000,-1.203587000,0.000000000,0.000000000,1.012726000,0.000000000,0.000000000,0.046112000,0.000000000,0.000000000,0.236064000,0.000000000,0.000000000,-0.047712000,0.000000000,0.000000000,1720619313.020388126,,,,,,,,,,,
