zakjeens/yaskawa_debug_materials/t8/joints.csv
__time,/joint_states/group_1/joint_1/effort,/joint_states/group_1/joint_1/position,/joint_states/group_1/joint_1/velocity,/joint_states/group_1/joint_2/effort,/joint_states/group_1/joint_2/position,/joint_states/group_1/joint_2/velocity,/joint_states/group_1/joint_3/effort,/joint_states/group_1/joint_3/position,/joint_states/group_1/joint_3/velocity,/joint_states/group_1/joint_4/effort,/joint_states/group_1/joint_4/position,/joint_states/group_1/joint_4/velocity,/joint_states/group_1/joint_5/effort,/joint_states/group_1/joint_5/position,/joint_states/group_1/joint_5/velocity,/joint_states/group_1/joint_6/effort,/joint_states/group_1/joint_6/position,/joint_states/group_1/joint_6/velocity,/joint_states/header/stamp,/world_to_torch/header/header/stamp,/world_to_torch/transform/rotation/pitch,/world_to_torch/transform/rotation/roll,/world_to_torch/transform/rotation/w,/world_to_torch/transform/rotation/x,/world_to_torch/transform/rotation/y,/world_to_torch/transform/rotation/yaw,/world_to_torch/transform/rotation/z,/world_to_torch/transform/translation/x,/world_to_torch/transform/translation/y,/world_to_torch/transform/translation/z
1720619901.599524,-0.054912000,0.000000000,0.000000000,-1.187417000,0.000000000,0.000000000,1.010724000,0.000000000,0.000000000,-0.024736000,0.000000000,0.000000000,0.232000000,0.000000000,0.000000000,0.022816000,0.000038380,0.009134350,1720619901.590603590,,,,,,,,,,,
1720619901.599535,-0.054912000,0.000000000,0.000000000,-1.187417000,0.000000000,0.000000000,1.010724000,0.000000000,0.000000000,-0.024736000,0.000000000,0.000000000,0.232000000,0.000000000,0.000000000,0.022816000,0.000038380,0.009134350,1720619901.591603756,,,,,,,,,,,
1720619901.600531,-0.054912000,0.000000000,0.000000000,-1.186878000,0.000000000,0.000000000,1.010724000,0.000000000,0.000000000,-0.024736000,0.000000000,0.000000000,0.232000000,0.000000000,0.000000000,0.023680000,0.000000000,0.009134350,1720619901.595603704,,,,,,,,,,,
1720619901.607446,-0.054912000,0.000000000,0.000000000,-1.176098000,0.000000000,0.000000000,1.010724000,0.000000000,0.000000000,-0.024736000,0.000000000,0.000000000,0.232864000,0.000000000,0.000000000,0.024288000,0.000000000,0.009134350,1720619901.602603674,,,,,,,,,,,
1720619901.608448,-0.054912000,0.000000000,0.000000000,-1.176098000,0.000000000,0.000000000,1.010724000,0.000000000,0.000000000,-0.024736000,0.000000000,0.000000000,0.232864000,0.000000000,0.000000000,0.024288000,0.000000000,0.009134350,1720619901.603603601,,,,,,,,,,,
1720619901.612970,-0.054912000,0.000000000,0.000000000,-1.194963000,0.000000000,0.000000000,1.010724000,0.000000000,0.000000000,-0.024736000,0.000000000,0.000000000,0.232160000,0.000000000,0.000000000,0.021696000,0.000038380,0.009134350,1720619901.607603788,,,,,,,,,,,
1720619901.619810,-0.054912000,0.000000000,0.000000000,-1.188495000,0.000000000,0.000000000,1.010724000,0.000000000,0.000000000,-0.024736000,0.000000000,0.000000000,0.232288000,0.000000000,0.000000000,0.021824000,0.000038380,0.009134350,1720619901.614603758,,,,,,,,,,,
1720619901.621044,-0.054912000,0.000000000,0.000000000,-1.188495000,0.000000000,0.000000000,1.010724000,0.000000000,0.000000000,-0.024736000,0.000000000,0.000000000,0.232288000,0.000000000,0.000000000,0.021824000,0.000038380,0.009134350,1720619901.615603685,,,,,,,,,,,
1720619901.624334,-0.054912000,0.000000000,0.000000000,-1.219218000,0.000000000,0.000000000,1.010724000,0.000000000,0.000000000,-0.024736000,0.000000000,0.000000000,0.231680000,0.000000000,0.000000000,0.024128000,0.000000000,0.009134350,1720619901.619603634,,,,,,,,,,,
1720619901.632006,-0.054912000,0.000000000,0.000000000,-1.188495000,0.000000000,0.000000000,1.010724000,0.000000000,0.000000000,-0.024736000,0.000000000,0.000000000,0.232224000,0.000000000,0.000000000,0.024224000,0.000000000,0.009134350,1720619901.626603603,,,,,,,,,,,
1720619901.633384,-0.054912000,0.000000000,0.000000000,-1.188495000,0.000000000,0.000000000,1.010724000,0.000000000,0.000000000,-0.024736000,0.000000000,0.000000000,0.232224000,0.000000000,0.000000000,0.024224000,0.000000000,0.009134350,1720619901.627603769,,,,,,,,,,,
1720619901.636408,-0.054912000,0.000000000,0.000000000,-1.188495000,0.000000000,0.000000000,1.010724000,0.000000000,0.000000000,-0.024736000,0.000000000,0.000000000,0.231936000,0.000000000,0.000000000,0.022016000,0.000038380,0.009134350,1720619901.631603718,,,,,,,,,,,
1720619901.643919,-0.054912000,0.000000000,0.000000000,-1.188495000,0.000000000,0.000000000,1.010724000,0.000000000,0.000000000,-0.024736000,0.000000000,0.000000000,0.232224000,0.000000000,0.000000000,0.021504000,0.000038380,0.009134350,1720619901.638603687,,,,,,,,,,,
1720619901.644751,-0.054912000,0.000000000,0.000000000,-1.188495000,0.000000000,0.000000000,1.010724000,0.000000000,0.000000000,-0.024736000,0.000000000,0.000000000,0.232224000,0.000000000,0.000000000,0.021504000,0.000038380,0.009134350,1720619901.639603615,,,,,,,,,,,
1720619901.648536,-0.054912000,0.000000000,0.000000000,-1.188495000,0.000000000,0.000000000,1.010724000,0.000000000,0.000000000,-0.024736000,0.000000000,0.000000000,0.232416000,0.000000000,0.000000000,0.024864000,0.000000000,0.009134350,1720619901.643603563,,,,,,,,,,,
1720619901.656771,-0.054912000,0.000000000,0.000000000,-1.188495000,0.000000000,0.000000000,1.010724000,0.000000000,0.000000000,-0.024736000,0.000000000,0.000000000,0.231744000,0.000000000,0.000000000,0.023552000,0.000000000,0.000000000,1720619901.651603699,,,,,,,,,,,
1720619901.660905,-0.054912000,0.000000000,0.000000000,-1.188495000,0.000000000,0.000000000,1.010724000,0.000000000,0.000000000,-0.024736000,0.000000000,0.000000000,0.232000000,0.000000000,0.000000000,0.023136000,0.000000000,0.000000000,1720619901.655603647,,,,,,,,,,,
1720619901.668008,-0.054912000,0.000000000,0.000000000,-1.188495000,0.000000000,0.000000000,1.010724000,0.000000000,0.000000000,-0.024736000,0.000000000,0.000000000,0.232000000,0.000000000,0.000000000,0.023296000,0.000000000,0.000000000,1720619901.662603617,,,,,,,,,,,
1720619901.668833,-0.054912000,0.000000000,0.000000000,-1.188495000,0.000000000,0.000000000,1.010724000,0.000000000,0.000000000,-0.024736000,0.000000000,0.000000000,0.232000000,0.000000000,0.000000000,0.023296000,0.000000000,0.000000000,1720619901.663603783,,,,,,,,,,,
1720619901.673318,-0.054912000,0.000000000,0.000000000,-1.188495000,0.000000000,0.000000000,1.010724000,0.000000000,0.000000000,-0.024736000,0.000000000,0.000000000,0.232000000,0.000000000,0.000000000,0.023136000,0.000000000,0.000000000,1720619901.667603731,,,,,,,,,,,
1720619901.679817,-0.054912000,0.000000000,0.000000000,-1.188495000,0.000000000,0.000000000,1.010724000,0.000000000,0.000000000,-0.024736000,0.000000000,0.000000000,0.231872000,0.000000000,0.000000000,0.023360000,0.000000000,0.000000000,1720619901.674603701,,,,,,,,,,,
1720619901.680975,-0.054912000,0.000000000,0.000000000,-1.188495000,0.000000000,0.000000000,1.010724000,0.000000000,0.000000000,-0.024736000,0.000000000,0.000000000,0.231872000,0.000000000,0.000000000,0.023360000,0.000000000,0.000000000,1720619901.675603628,,,,,,,,,,,
1720619901.686512,-0.054912000,0.000000000,0.000000000,-1.188495000,0.000000000,0.000000000,1.010724000,0.000000000,0.000000000,-0.024736000,0.000000000,0.000000000,0.231424000,0.000000000,0.000000000,0.023008000,0.000000000,0.000000000,1720619901.680603743,,,,,,,,,,,
1720619901.693659,-0.054340000,0.000000000,0.000000000,-1.188495000,0.000000000,0.000000000,1.010724000,0.000000000,0.000000000,-0.024736000,0.000000000,0.000000000,0.232480000,0.000000000,0.000000000,0.023936000,0.000000000,0.000000000,1720619901.687603712,,,,,,,,,,,
1720619901.694763,-0.054340000,0.000000000,0.000000000,-1.188495000,0.000000000,0.000000000,1.010724000,0.000000000,0.000000000,-0.024736000,0.000000000,0.000000000,0.232544000,0.000000000,0.000000000,0.022080000,0.000038380,0.009134350,1720619901.689603567,,,,,,,,,,,
1720619901.704505,-0.054340000,0.000000000,0.000000000,-1.188495000,0.000000000,0.000000000,1.010724000,0.000000000,0.000000000,-0.024736000,0.000000000,0.000000000,0.232096000,0.000000000,0.000000000,0.022208000,0.000000000,0.000000000,1720619901.698603630,,,,,,,,,,,
1720619901.704908,-0.054340000,0.000000000,0.000000000,-1.188495000,0.000000000,0.000000000,1.010724000,0.000000000,0.000000000,-0.024736000,0.000000000,0.000000000,0.232096000,0.000000000,0.000000000,0.022208000,0.000000000,0.000000000,1720619901.699603558,,,,,,,,,,,
1720619901.706569,-0.055770000,0.000000000,0.000000000,-1.188495000,0.000000000,0.000000000,1.010724000,0.000000000,0.000000000,-0.024736000,0.000000000,0.000000000,0.232352000,0.000000000,0.000000000,0.023936000,0.000000000,0.000000000,1720619901.701603651,,,,,,,,,,,
1720619901.716057,-0.054340000,0.000000000,0.000000000,-1.188495000,0.000000000,0.000000000,1.010724000,0.000000000,0.000000000,-0.024736000,0.000000000,0.000000000,0.232096000,0.000000000,0.000000000,0.023744000,0.000000000,0.000000000,1720619901.710603714,,,,,,,,,,,
1720619901.716819,-0.054340000,0.000000000,0.000000000,-1.188495000,0.000000000,0.000000000,1.010724000,0.000000000,0.000000000,-0.024736000,0.000000000,0.000000000,0.232096000,0.000000000,0.000000000,0.023744000,0.000000000,0.000000000,1720619901.711603642,,,,,,,,,,,
1720619901.718835,-0.054340000,0.000000000,0.000000000,-1.191190000,0.000000000,0.000000000,1.010724000,0.000000000,0.000000000,-0.024736000,0.000000000,0.000000000,0.231808000,0.000000000,0.000000000,0.022432000,0.000000000,0.000000000,1720619901.713603735,,,,,,,,,,,
1720619901.728241,-0.054340000,0.000000000,0.000000000,-1.188495000,0.000000000,0.000000000,1.010724000,0.000000000,0.000000000,-0.024736000,0.000000000,0.000000000,0.231680000,0.000000000,0.000000000,0.022880000,0.000000000,0.000000000,1720619901.722603559,,,,,,,,,,,
1720619901.729010,-0.054340000,0.000000000,0.000000000,-1.188495000,0.000000000,0.000000000,1.010724000,0.000000000,0.000000000,-0.024736000,0.000000000,0.000000000,0.231680000,0.000000000,0.000000000,0.022880000,0.000000000,0.000000000,1720619901.723603725,,,,,,,,,,,
1720619901.731302,-0.054340000,0.000000000,0.000000000,-1.188495000,0.000000000,0.000000000,1.010724000,0.000000000,0.000000000,-0.024736000,0.000000000,0.000000000,0.232096000,0.000000000,0.000000000,0.023136000,0.000000000,0.000000000,1720619901.725603580,,,,,,,,,,,
1720619901.734838,-0.054340000,0.000000000,0.000000000,-1.188495000,0.000000000,0.000000000,1.010724000,0.000000000,0.000000000,-0.024736000,0.000000000,0.000000000,0.231936000,0.000000000,0.000000000,0.023296000,0.000000000,0.000000000,1720619901.729603767,,,,,,,,,,,
1720619901.743491,-0.054340000,0.000000000,0.000000000,-1.188495000,0.000000000,0.000000000,1.010724000,0.000000000,0.000000000,-0.024736000,0.000000000,0.000000000,0.231872000,0.000000000,0.000000000,0.023360000,0.000000000,0.000000000,1720619901.737603664,,,,,,,,,,,
1720619901.752282,-0.054912000,0.000000000,0.000000000,-1.189573000,0.000000000,0.000000000,1.010724000,0.000000000,0.000000000,-0.024736000,0.000000000,0.000000000,0.232416000,0.000000000,0.000000000,0.024224000,0.000000000,0.000000000,1720619901.746603727,,,,,,,,,,,
1720619901.754472,-0.054912000,0.000000000,0.000000000,-1.189573000,0.000000000,0.000000000,1.010724000,0.000000000,0.000000000,-0.024736000,0.000000000,0.000000000,0.232416000,0.000000000,0.000000000,0.024224000,0.000000000,0.000000000,1720619901.747603655,,,,,,,,,,,
1720619901.763564,-0.054340000,0.000000000,0.000000000,-1.188495000,0.000000000,0.000000000,1.010724000,0.000000000,0.000000000,-0.024736000,0.000000000,0.000000000,0.231552000,0.000000000,0.000000000,0.020896000,0.000038380,0.009134350,1720619901.757603645,,,,,,,,,,,
1720619901.765168,-0.054340000,0.000000000,0.000000000,-1.188495000,0.000000000,0.000000000,1.010724000,0.000000000,0.000000000,-0.024736000,0.000000000,0.000000000,0.231552000,0.000000000,0.000000000,0.020896000,0.000038380,0.009134350,1720619901.759603739,,,,,,,,,,,
1720619901.767943,-0.054340000,0.000000000,0.000000000,-1.185800000,0.000000000,0.000000000,1.010724000,0.000000000,0.000000000,-0.024736000,0.000000000,0.000000000,0.231680000,0.000000000,0.000000000,0.025152000,0.000000000,0.009134350,1720619901.760603666,,,,,,,,,,,
1720619901.776354,-0.054340000,0.000000000,0.000000000,-1.189573000,0.000000000,0.000000000,1.010724000,0.000000000,0.000000000,-0.024736000,0.000000000,0.000000000,0.232288000,0.000000000,0.000000000,0.024672000,0.000000000,0.009134350,1720619901.770603657,,,,,,,,,,,
1720619901.777263,-0.054340000,0.000000000,0.000000000,-1.189573000,0.000000000,0.000000000,1.010724000,0.000000000,0.000000000,-0.024736000,0.000000000,0.000000000,0.232288000,0.000000000,0.000000000,0.024672000,0.000000000,0.009134350,1720619901.771603584,,,,,,,,,,,
1720619901.779999,-0.054340000,0.000000000,0.000000000,-1.189573000,0.000000000,0.000000000,1.010724000,0.000000000,0.000000000,-0.024736000,0.000000000,0.000000000,0.231936000,0.000000000,0.000000000,0.022208000,0.000000000,0.000000000,1720619901.772603750,,,,,,,,,,,
1720619901.788272,-0.054340000,0.000000000,0.000000000,-1.189573000,0.000000000,0.000000000,1.010724000,0.000000000,0.000000000,-0.024736000,0.000000000,0.000000000,0.232224000,0.000000000,0.000000000,0.023296000,0.000000000,0.000000000,1720619901.782603741,,,,,,,,,,,
1720619901.789008,-0.054340000,0.000000000,0.000000000,-1.189573000,0.000000000,0.000000000,1.010724000,0.000000000,0.000000000,-0.024736000,0.000000000,0.000000000,0.232224000,0.000000000,0.000000000,0.023296000,0.000000000,0.000000000,1720619901.783603668,,,,,,,,,,,
1720619901.790735,-0.054340000,0.000000000,0.000000000,-1.189573000,0.000000000,0.000000000,1.010724000,0.000000000,0.000000000,-0.024736000,0.000000000,0.000000000,0.231808000,0.000000000,0.000000000,0.022560000,0.000000000,0.000000000,1720619901.784603596,,,,,,,,,,,
1720619901.791368,-0.054340000,0.000000000,0.000000000,-1.189573000,0.000000000,0.000000000,1.010724000,0.000000000,0.000000000,-0.024736000,0.000000000,0.000000000,0.231808000,0.000000000,0.000000000,0.022560000,0.000000000,0.000000000,1720619901.785603762,,,,,,,,,,,
1720619901.795487,-0.054340000,0.000000000,0.000000000,-1.189573000,0.000000000,0.000000000,1.010724000,0.000000000,0.000000000,-0.024736000,0.000000000,0.000000000,0.232000000,0.000000000,0.000000000,0.023552000,0.000000000,0.000000000,1720619901.789603710,,,,,,,,,,,
1720619901.802878,-0.054340000,0.000000000,0.000000000,-1.189573000,0.000000000,0.000000000,1.010724000,0.000000000,0.000000000,-0.024736000,0.000000000,0.000000000,0.231936000,0.000000000,0.000000000,0.022816000,0.000000000,0.000000000,1720619901.796603680,,,,,,,,,,,
1720619901.812308,-0.054340000,0.000000000,0.000000000,-1.185800000,0.000000000,0.000000000,1.010724000,0.000000000,0.000000000,-0.024736000,0.000000000,0.000000000,0.232000000,0.000000000,0.000000000,0.023136000,0.000000000,0.000000000,1720619901.806603670,,,,,,,,,,,
1720619901.813122,-0.054340000,0.000000000,0.000000000,-1.185800000,0.000000000,0.000000000,1.010724000,0.000000000,0.000000000,-0.024736000,0.000000000,0.000000000,0.232000000,0.000000000,0.000000000,0.023136000,0.000000000,0.000000000,1720619901.807603598,,,,,,,,,,,
1720619901.815819,-0.054340000,0.000000000,0.000000000,-1.185800000,0.000000000,0.000000000,1.010724000,0.000000000,0.000000000,-0.024736000,0.000000000,0.000000000,0.232000000,0.000000000,0.000000000,0.022944000,0.000000000,0.000000000,1720619901.808603764,,,,,,,,,,,
1720619901.824621,-0.054340000,0.000000000,0.000000000,-1.185800000,0.000000000,0.000000000,1.010724000,0.000000000,0.000000000,-0.024736000,0.000000000,0.000000000,0.232096000,0.000000000,0.000000000,0.023488000,0.000000000,0.000000000,1720619901.818603754,,,,,,,,,,,
1720619901.826674,-0.054340000,0.000000000,0.000000000,-1.181488000,0.000000000,0.000000000,1.010724000,0.000000000,0.000000000,-0.024736000,0.000000000,0.000000000,0.231936000,0.000000000,0.000000000,0.023072000,0.000000000,0.000000000,1720619901.820603609,,,,,,,,,,,
1720619901.835948,-0.056914000,0.000000000,0.000000000,-1.160467000,0.000000000,0.000000000,1.010724000,0.000000000,0.000000000,-0.024736000,0.000000000,0.000000000,0.231552000,0.000000000,0.000000000,0.022560000,0.000000000,0.000000000,1720619901.830603600,,,,,,,,,,,
1720619901.847974,-0.054912000,0.000000000,0.000000000,-1.188495000,0.000000000,0.000000000,1.010724000,0.000000000,0.000000000,-0.024736000,0.000000000,0.000000000,0.232352000,0.000000000,0.000000000,0.023424000,0.000000000,0.000000000,1720619901.842603683,,,,,,,,,,,
1720619901.857254,-0.054912000,0.000000000,0.000000000,-1.157772000,0.000000000,0.000000000,1.010724000,0.000000000,0.000000000,-0.024736000,0.000000000,0.000000000,0.231616000,0.000000000,0.000000000,0.022560000,0.000038380,0.009134350,1720619901.851603746,,,,,,,,,,,
1720619901.868177,-0.054912000,0.000000000,0.000000000,-1.188495000,0.000000000,0.000000000,1.010152000,0.000000000,0.000000000,-0.024736000,0.000000000,0.000000000,0.232000000,0.000000000,0.000000000,0.023424000,0.000000000,0.009134350,1720619901.862603664,,,,,,,,,,,
1720619901.876340,-0.054912000,0.000000000,0.000000000,-1.188495000,0.000000000,0.000000000,1.010152000,0.000000000,0.000000000,-0.024736000,0.000000000,0.000000000,0.231424000,0.000000000,0.000000000,0.023008000,0.000000000,0.000000000,1720619901.870603561,,,,,,,,,,,
1720619901.880033,-0.054912000,0.000000000,0.000000000,-1.188495000,0.000000000,0.000000000,1.010152000,0.000000000,0.000000000,-0.024736000,0.000000000,0.000000000,0.232000000,0.000000000,0.000000000,0.023008000,0.000000000,0.000000000,1720619901.874603748,,,,,,,,,,,
1720619901.887327,-0.054912000,0.000000000,0.000000000,-1.185800000,0.000000000,0.000000000,1.010152000,0.000000000,0.000000000,-0.024736000,0.000000000,0.000000000,0.231680000,0.000000000,0.000000000,0.023008000,0.000000000,0.000000000,1720619901.881603718,,,,,,,,,,,
1720619901.888024,-0.054912000,0.000000000,0.000000000,-1.185800000,0.000000000,0.000000000,1.010152000,0.000000000,0.000000000,-0.024736000,0.000000000,0.000000000,0.231680000,0.000000000,0.000000000,0.023008000,0.000000000,0.000000000,1720619901.882603645,,,,,,,,,,,
1720619901.892109,-0.054912000,0.000000000,0.000000000,-1.207360000,0.000000000,0.000000000,1.010152000,0.000000000,0.000000000,-0.024736000,0.000000000,0.000000000,0.232160000,0.000000000,0.000000000,0.022944000,0.000000000,0.000000000,1720619901.886603594,,,,,,,,,,,
1720619901.899425,-0.054912000,0.000000000,0.000000000,-1.189573000,0.000000000,0.000000000,1.010152000,0.000000000,0.000000000,-0.024736000,0.000000000,0.000000000,0.232544000,0.000000000,0.000000000,0.024064000,0.000000000,0.000000000,1720619901.893603563,,,,,,,,,,,
1720619901.902498,-0.054912000,0.000000000,0.000000000,-1.189573000,0.000000000,0.000000000,1.010152000,0.000000000,0.000000000,-0.024736000,0.000000000,0.000000000,0.232544000,0.000000000,0.000000000,0.024064000,0.000000000,0.000000000,1720619901.895603657,,,,,,,,,,,
1720619901.911711,-0.054912000,0.000000000,0.000000000,-1.189573000,0.000000000,0.000000000,1.010152000,0.000000000,0.000000000,-0.024736000,0.000000000,0.000000000,0.232000000,0.000000000,0.000000000,0.021696000,0.000038380,0.009134350,1720619901.905603647,,,,,,,,,,,
1720619901.912141,-0.054912000,0.000000000,0.000000000,-1.189573000,0.000000000,0.000000000,1.010152000,0.000000000,0.000000000,-0.024736000,0.000000000,0.000000000,0.232000000,0.000000000,0.000000000,0.021696000,0.000038380,0.009134350,1720619901.906603575,,,,,,,,,,,
1720619901.913284,-0.054912000,0.000000000,0.000000000,-1.189573000,0.000000000,0.000000000,1.010152000,0.000000000,0.000000000,-0.024736000,0.000000000,0.000000000,0.232000000,0.000000000,0.000000000,0.021696000,0.000038380,0.009134350,1720619901.907603741,,,,,,,,,,,
1720619901.919201,-0.054912000,0.000000000,0.000000000,-1.189573000,0.000000000,0.000000000,1.010152000,0.000000000,0.000000000,-0.024736000,0.000000000,0.000000000,0.231552000,0.000000000,0.000000000,0.021344000,0.000038380,0.009134350,1720619901.913603783,,,,,,,,,,,
1720619901.926898,-0.054912000,0.000000000,0.000000000,-1.189573000,0.000000000,0.000000000,1.010152000,0.000000000,0.000000000,-0.024736000,0.000000000,0.000000000,0.231424000,0.000000000,0.000000000,0.021824000,0.000000000,0.000000000,1720619901.920603752,,,,,,,,,,,
1720619901.937371,-0.054912000,0.000000000,0.000000000,-1.192268000,0.000000000,0.000000000,1.010152000,0.000000000,0.000000000,-0.024736000,0.000000000,0.000000000,0.231616000,0.000000000,0.000000000,0.021760000,0.000000000,0.000000000,1720619901.931603670,,,,,,,,,,,
1720619901.946904,-0.054912000,0.000000000,0.000000000,-1.183105000,0.000000000,0.000000000,1.010152000,0.000000000,0.000000000,-0.024736000,0.000000000,0.000000000,0.231808000,0.000000000,0.000000000,0.022016000,0.000038380,0.009134350,1720619901.940603733,,,,,,,,,,,
1720619901.946960,-0.054912000,0.000000000,0.000000000,-1.183105000,0.000000000,0.000000000,1.010152000,0.000000000,0.000000000,-0.024736000,0.000000000,0.000000000,0.231808000,0.000000000,0.000000000,0.022016000,0.000038380,0.009134350,1720619901.941603661,,,,,,,,,,,
1720619901.948137,-0.054912000,0.000000000,0.000000000,-1.183105000,0.000000000,0.000000000,1.010152000,0.000000000,0.000000000,-0.024736000,0.000000000,0.000000000,0.231808000,0.000000000,0.000000000,0.022016000,0.000038380,0.009134350,1720619901.942603588,,,,,,,,,,,
1720619901.949327,-0.054912000,0.000000000,0.000000000,-1.183105000,0.000000000,0.000000000,1.010152000,0.000000000,0.000000000,-0.024736000,0.000000000,0.000000000,0.231808000,0.000000000,0.000000000,0.022016000,0.000038380,0.009134350,1720619901.943603754,,,,,,,,,,,
1720619901.951834,-0.054912000,0.000000000,0.000000000,-1.185800000,0.000000000,0.000000000,1.010152000,0.000000000,0.000000000,-0.024736000,0.000000000,0.000000000,0.231808000,0.000000000,0.000000000,0.024224000,0.000000000,0.009134350,1720619901.945603609,,,,,,,,,,,
1720619901.956659,-0.054912000,0.000000000,0.000000000,-1.185800000,0.000000000,0.000000000,1.010152000,0.000000000,0.000000000,-0.024736000,0.000000000,0.000000000,0.231936000,0.000000000,0.000000000,0.022144000,0.000000000,0.000000000,1720619901.950603724,,,,,,,,,,,
1720619901.963558,-0.054912000,0.000000000,0.000000000,-1.186878000,0.000000000,0.000000000,1.009580000,0.000000000,0.000000000,-0.024736000,0.000000000,0.000000000,0.231424000,0.000000000,0.000000000,0.022752000,0.000000000,0.000000000,1720619901.957603693,,,,,,,,,,,
1720619901.964450,-0.054912000,0.000000000,0.000000000,-1.186878000,0.000000000,0.000000000,1.009580000,0.000000000,0.000000000,-0.024736000,0.000000000,0.000000000,0.231424000,0.000000000,0.000000000,0.022752000,0.000000000,0.000000000,1720619901.958603621,,,,,,,,,,,
1720619901.968355,-0.054912000,0.000000000,0.000000000,-1.186878000,0.000000000,0.000000000,1.010152000,0.000000000,0.000000000,-0.024736000,0.000000000,0.000000000,0.231360000,0.000000000,0.000000000,0.023200000,0.000000000,0.000000000,1720619901.962603569,,,,,,,,,,,
1720619901.975393,-0.054912000,0.000000000,0.000000000,-1.187417000,0.000000000,0.000000000,1.010152000,0.000000000,0.000000000,-0.024736000,0.000000000,0.000000000,0.231296000,0.000000000,0.000000000,0.023296000,0.000000000,0.000000000,1720619901.969603777,,,,,,,,,,,
1720619901.977020,-0.054912000,0.000000000,0.000000000,-1.187417000,0.000000000,0.000000000,1.010152000,0.000000000,0.000000000,-0.024736000,0.000000000,0.000000000,0.231296000,0.000000000,0.000000000,0.023296000,0.000000000,0.000000000,1720619901.970603704,,,,,,,,,,,
1720619901.980133,-0.054912000,0.000000000,0.000000000,-1.187417000,0.000000000,0.000000000,1.010152000,0.000000000,0.000000000,-0.024736000,0.000000000,0.000000000,0.232288000,0.000000000,0.000000000,0.023136000,0.000000000,0.000000000,1720619901.974603653,,,,,,,,,,,
1720619901.987687,-0.054912000,0.000000000,0.000000000,-1.188495000,0.000000000,0.000000000,1.010152000,0.000000000,0.000000000,-0.024736000,0.000000000,0.000000000,0.232480000,0.000000000,0.000000000,0.023296000,0.000000000,0.000000000,1720619901.981603622,,,,,,,,,,,
1720619901.988258,-0.054912000,0.000000000,0.000000000,-1.188495000,0.000000000,0.000000000,1.010152000,0.000000000,0.000000000,-0.024736000,0.000000000,0.000000000,0.232480000,0.000000000,0.000000000,0.023296000,0.000000000,0.000000000,1720619901.982603788,,,,,,,,,,,
1720619901.992387,-0.054912000,0.000000000,0.000000000,-1.195502000,0.000000000,0.000000000,1.010152000,0.000000000,0.000000000,-0.024736000,0.000000000,0.000000000,0.232000000,0.000000000,0.000000000,0.023008000,0.000000000,0.000000000,1720619901.986603737,,,,,,,,,,,
1720619901.999755,-0.054912000,0.000000000,0.000000000,-1.193885000,0.000000000,0.000000000,1.010152000,0.000000000,0.000000000,-0.024736000,0.000000000,0.000000000,0.231808000,0.000000000,0.000000000,0.022944000,0.000000000,0.000000000,1720619901.993603706,,,,,,,,,,,
1720619902.000221,-0.054912000,0.000000000,0.000000000,-1.193885000,0.000000000,0.000000000,1.010152000,0.000000000,0.000000000,-0.024736000,0.000000000,0.000000000,0.231808000,0.000000000,0.000000000,0.022944000,0.000000000,0.000000000,1720619901.994603634,,,,,,,,,,,
1720619902.004463,-0.054912000,0.000000000,0.000000000,-1.185800000,0.000000000,0.000000000,1.010152000,0.000000000,0.000000000,-0.024736000,0.000000000,0.000000000,0.231424000,0.000000000,0.000000000,0.023616000,0.000000000,0.000000000,1720619901.998603582,,,,,,,,,,,
1720619902.013587,-0.054912000,0.000000000,0.000000000,-1.185261000,0.000000000,0.000000000,1.010152000,0.000000000,0.000000000,-0.024736000,0.000000000,0.000000000,0.231488000,0.000000000,0.000000000,0.023744000,0.000000000,0.009134350,1720619902.005603790,,,,,,,,,,,
1720619902.022944,-0.054912000,0.000000000,0.000000000,-1.186878000,0.000000000,0.000000000,1.010152000,0.000000000,0.000000000,-0.024736000,0.000000000,0.000000000,0.232416000,0.000000000,0.000000000,0.022208000,0.000038380,0.009134350,1720619902.016603708,,,,,,,,,,,
1720619902.033762,-0.054912000,0.000000000,0.000000000,-1.186878000,0.000000000,0.000000000,1.010152000,0.000000000,0.000000000,-0.024736000,0.000000000,0.000000000,0.232288000,0.000000000,0.000000000,0.022080000,0.000038380,0.009134350,1720619902.025603771,,,,,,,,,,,
1720619902.045609,-0.054912000,0.000000000,0.000000000,-1.187417000,0.000000000,0.000000000,1.010152000,0.000000000,0.000000000,-0.024736000,0.000000000,0.000000000,0.231616000,0.000000000,0.000000000,0.023072000,0.000000000,0.000000000,1720619902.039603710,,,,,,,,,,,
1720619902.052739,-0.054912000,0.000000000,0.000000000,-1.188495000,0.000000000,0.000000000,1.010152000,0.000000000,0.000000000,-0.024736000,0.000000000,0.000000000,0.231936000,0.000000000,0.000000000,0.023200000,0.000000000,0.000000000,1720619902.046603680,,,,,,,,,,,
1720619902.053408,-0.054912000,0.000000000,0.000000000,-1.188495000,0.000000000,0.000000000,1.010152000,0.000000000,0.000000000,-0.024736000,0.000000000,0.000000000,0.231936000,0.000000000,0.000000000,0.023200000,0.000000000,0.000000000,1720619902.047603607,,,,,,,,,,,
1720619902.059567,-0.054912000,0.000000000,0.000000000,-1.188495000,0.000000000,0.000000000,1.010152000,0.000000000,0.000000000,-0.024736000,0.000000000,0.000000000,0.232288000,0.000000000,0.000000000,0.023072000,0.000000000,0.000000000,1720619902.053603649,,,,,,,,,,,
1720619902.065913,-0.054340000,0.000000000,0.000000000,-1.188495000,0.000000000,0.000000000,1.010152000,0.000000000,0.000000000,-0.024736000,0.000000000,0.000000000,0.231936000,0.000000000,0.000000000,0.023360000,0.000000000,0.000000000,1720619902.059603691,,,,,,,,,,,
1720619902.079769,-0.054340000,0.000000000,0.000000000,-1.180410000,0.000000000,0.000000000,1.010152000,0.000000000,0.000000000,-0.024736000,0.000000000,0.000000000,0.231808000,0.000000000,0.000000000,0.022624000,0.000000000,0.000000000,1720619902.073603630,,,,,,,,,,,
1720619902.087452,-0.054340000,0.000000000,0.000000000,-1.185800000,0.000000000,0.000000000,1.010152000,0.000000000,0.000000000,-0.024736000,0.000000000,0.000000000,0.232000000,0.000000000,0.000000000,0.023008000,0.000000000,0.000000000,1720619902.080603600,,,,,,,,,,,
1720619902.096093,-0.054340000,0.000000000,0.000000000,-1.185800000,0.000000000,0.000000000,1.010152000,0.000000000,0.000000000,-0.024736000,0.000000000,0.000000000,0.231872000,0.000000000,0.000000000,0.022752000,0.000000000,0.000000000,1720619902.089603662,,,,,,,,,,,
1720619902.097038,-0.054340000,0.000000000,0.000000000,-1.185800000,0.000000000,0.000000000,1.010152000,0.000000000,0.000000000,-0.024736000,0.000000000,0.000000000,0.231872000,0.000000000,0.000000000,0.022752000,0.000000000,0.000000000,1720619902.090603590,,,,,,,,,,,
1720619902.098522,-0.054340000,0.000000000,0.000000000,-1.185800000,0.000000000,0.000000000,1.010152000,0.000000000,0.000000000,-0.024736000,0.000000000,0.000000000,0.231872000,0.000000000,0.000000000,0.022752000,0.000000000,0.000000000,1720619902.091603756,,,,,,,,,,,
1720619902.108154,-0.054340000,0.000000000,0.000000000,-1.185261000,0.000000000,0.000000000,1.010152000,0.000000000,0.000000000,-0.024736000,0.000000000,0.000000000,0.232224000,0.000000000,0.000000000,0.024736000,0.000000000,0.009134350,1720619902.101603746,,,,,,,,,,,
1720619902.108646,-0.054340000,0.000000000,0.000000000,-1.185261000,0.000000000,0.000000000,1.010152000,0.000000000,0.000000000,-0.024736000,0.000000000,0.000000000,0.232224000,0.000000000,0.000000000,0.024736000,0.000000000,0.009134350,1720619902.102603674,,,,,,,,,,,
1720619902.110686,-0.054340000,0.000000000,0.000000000,-1.186878000,0.000000000,0.000000000,1.010152000,0.000000000,0.000000000,-0.024736000,0.000000000,0.000000000,0.232352000,0.000000000,0.000000000,0.021888000,0.000000000,0.000000000,1720619902.104603767,,,,,,,,,,,
1720619902.120318,-0.054340000,0.000000000,0.000000000,-1.189573000,0.000000000,0.000000000,1.010152000,0.000000000,0.000000000,-0.024736000,0.000000000,0.000000000,0.232096000,0.000000000,0.000000000,0.022432000,0.000000000,0.000000000,1720619902.113603592,,,,,,,,,,,
1720619902.120671,-0.054340000,0.000000000,0.000000000,-1.189573000,0.000000000,0.000000000,1.010152000,0.000000000,0.000000000,-0.024736000,0.000000000,0.000000000,0.232096000,0.000000000,0.000000000,0.022432000,0.000000000,0.000000000,1720619902.114603758,,,,,,,,,,,
1720619902.123149,-0.054340000,0.000000000,0.000000000,-1.189573000,0.000000000,0.000000000,1.010152000,0.000000000,0.000000000,-0.024736000,0.000000000,0.000000000,0.232096000,0.000000000,0.000000000,0.022432000,0.000000000,0.000000000,1720619902.115603685,,,,,,,,,,,
1720619902.132118,-0.054340000,0.000000000,0.000000000,-1.192268000,0.000000000,0.000000000,1.010152000,0.000000000,0.000000000,-0.024736000,0.000000000,0.000000000,0.231488000,0.000000000,0.000000000,0.022272000,0.000038380,0.009134350,1720619902.125603676,,,,,,,,,,,
1720619902.133209,-0.054340000,0.000000000,0.000000000,-1.192268000,0.000000000,0.000000000,1.010152000,0.000000000,0.000000000,-0.024736000,0.000000000,0.000000000,0.231488000,0.000000000,0.000000000,0.022272000,0.000038380,0.009134350,1720619902.126603603,,,,,,,,,,,
1720619902.134733,-0.054340000,0.000000000,0.000000000,-1.192268000,0.000000000,0.000000000,1.010152000,0.000000000,0.000000000,-0.024736000,0.000000000,0.000000000,0.231552000,0.000000000,0.000000000,0.023936000,0.000000000,0.009134350,1720619902.128603697,,,,,,,,,,,
1720619902.144081,-0.054340000,0.000000000,0.000000000,-1.190112000,0.000000000,0.000000000,1.010152000,0.000000000,0.000000000,-0.024736000,0.000000000,0.000000000,0.231616000,0.000000000,0.000000000,0.023008000,0.000000000,0.000000000,1720619902.137603760,,,,,,,,,,,
1720619902.144945,-0.054340000,0.000000000,0.000000000,-1.190112000,0.000000000,0.000000000,1.010152000,0.000000000,0.000000000,-0.024736000,0.000000000,0.000000000,0.231616000,0.000000000,0.000000000,0.023008000,0.000000000,0.000000000,1720619902.138603687,,,,,,,,,,,
1720619902.147145,-0.054340000,0.000000000,0.000000000,-1.189573000,0.000000000,0.000000000,1.010152000,0.000000000,0.000000000,-0.024736000,0.000000000,0.000000000,0.232000000,0.000000000,0.000000000,0.023008000,0.000000000,0.000000000,1720619902.139603615,,,,,,,,,,,
1720619902.155864,-0.054340000,0.000000000,0.000000000,-1.185261000,0.000000000,0.000000000,1.010152000,0.000000000,0.000000000,-0.024736000,0.000000000,0.000000000,0.231936000,0.000000000,0.000000000,0.022432000,0.000038380,0.009134350,1720619902.149603605,,,,,,,,,,,
1720619902.157352,-0.054340000,0.000000000,0.000000000,-1.185261000,0.000000000,0.000000000,1.010152000,0.000000000,0.000000000,-0.024736000,0.000000000,0.000000000,0.231936000,0.000000000,0.000000000,0.022432000,0.000038380,0.009134350,1720619902.150603771,,,,,,,,,,,
1720619902.158311,-0.055198000,0.000000000,0.000000000,-1.183105000,0.000000000,0.000000000,1.010152000,0.000000000,0.000000000,-0.024736000,0.000000000,0.000000000,0.232352000,0.000000000,0.000000000,0.023680000,0.000000000,0.009134350,1720619902.152603626,,,,,,,,,,,
1720619902.168081,-0.054912000,0.000000000,0.000000000,-1.186878000,0.000000000,0.000000000,1.010152000,0.000000000,0.000000000,-0.024736000,0.000000000,0.000000000,0.232416000,0.000000000,0.000000000,0.023616000,0.000000000,0.000000000,1720619902.161603689,,,,,,,,,,,
1720619902.168857,-0.054912000,0.000000000,0.000000000,-1.186878000,0.000000000,0.000000000,1.010152000,0.000000000,0.000000000,-0.024736000,0.000000000,0.000000000,0.232416000,0.000000000,0.000000000,0.023616000,0.000000000,0.000000000,1720619902.162603617,,,,,,,,,,,
1720619902.170715,-0.054912000,0.000000000,0.000000000,-1.187417000,0.000000000,0.000000000,1.010152000,0.000000000,0.000000000,-0.024736000,0.000000000,0.000000000,0.232352000,0.000000000,0.000000000,0.023360000,0.000000000,0.000000000,1720619902.164603710,,,,,,,,,,,
1720619902.180357,-0.054340000,0.000000000,0.000000000,-1.189573000,0.000000000,0.000000000,1.010152000,0.000000000,0.000000000,-0.024736000,0.000000000,0.000000000,0.231488000,0.000000000,0.000000000,0.023872000,0.000000000,0.000000000,1720619902.173603773,,,,,,,,,,,
1720619902.181059,-0.054340000,0.000000000,0.000000000,-1.189573000,0.000000000,0.000000000,1.010152000,0.000000000,0.000000000,-0.024736000,0.000000000,0.000000000,0.231488000,0.000000000,0.000000000,0.023872000,0.000000000,0.000000000,1720619902.174603701,,,,,,,,,,,
1720619902.182797,-0.054340000,0.000000000,0.000000000,-1.192807000,0.000000000,0.000000000,1.010152000,0.000000000,0.000000000,-0.024736000,0.000000000,0.000000000,0.231488000,0.000000000,0.000000000,0.022432000,0.000000000,0.000000000,1720619902.176603556,,,,,,,,,,,
1720619902.192459,-0.054340000,0.000000000,0.000000000,-1.165857000,0.000000000,0.000000000,1.010152000,0.000000000,0.000000000,-0.024736000,0.000000000,0.000000000,0.232160000,0.000000000,0.000000000,0.022336000,0.000000000,0.000000000,1720619902.185603619,,,,,,,,,,,
1720619902.193191,-0.054340000,0.000000000,0.000000000,-1.165857000,0.000000000,0.000000000,1.010152000,0.000000000,0.000000000,-0.024736000,0.000000000,0.000000000,0.232160000,0.000000000,0.000000000,0.022336000,0.000000000,0.000000000,1720619902.186603785,,,,,,,,,,,
1720619902.194834,-0.054340000,0.000000000,0.000000000,-1.210594000,0.000000000,0.000000000,1.010152000,0.000000000,0.000000000,-0.024736000,0.000000000,0.000000000,0.231552000,0.000000000,0.000000000,0.023680000,0.000000000,0.000000000,1720619902.188603640,,,,,,,,,,,
1720619902.204362,-0.054340000,0.000000000,0.000000000,-1.190112000,0.000000000,0.000000000,1.010152000,0.000000000,0.000000000,-0.024736000,0.000000000,0.000000000,0.231008000,0.000000000,0.000000000,0.023616000,0.000000000,0.000000000,1720619902.197603703,,,,,,,,,,,
1720619902.204890,-0.054340000,0.000000000,0.000000000,-1.190112000,0.000000000,0.000000000,1.010152000,0.000000000,0.000000000,-0.024736000,0.000000000,0.000000000,0.231008000,0.000000000,0.000000000,0.023616000,0.000000000,0.000000000,1720619902.198603630,,,,,,,,,,,
1720619902.207687,-0.054340000,0.000000000,0.000000000,-1.189573000,0.000000000,0.000000000,1.010152000,0.000000000,0.000000000,-0.024736000,0.000000000,0.000000000,0.231360000,0.000000000,0.000000000,0.022496000,0.000000000,0.000000000,1720619902.201603651,,,,,,,,,,,
1720619902.216292,-0.054340000,0.000000000,0.000000000,-1.158311000,0.000000000,0.000000000,1.010152000,0.000000000,0.000000000,-0.024736000,0.000000000,0.000000000,0.231808000,0.000000000,0.000000000,0.022016000,0.000000000,0.000000000,1720619902.209603786,,,,,,,,,,,
1720619902.217494,-0.054340000,0.000000000,0.000000000,-1.158311000,0.000000000,0.000000000,1.010152000,0.000000000,0.000000000,-0.024736000,0.000000000,0.000000000,0.231808000,0.000000000,0.000000000,0.022016000,0.000000000,0.000000000,1720619902.210603714,,,,,,,,,,,
1720619902.218770,-0.054340000,0.000000000,0.000000000,-1.211672000,0.000000000,0.000000000,1.010152000,0.000000000,0.000000000,-0.024736000,0.000000000,0.000000000,0.232480000,0.000000000,0.000000000,0.023936000,0.000000000,0.000000000,1720619902.212603569,,,,,,,,,,,
1720619902.228498,-0.054340000,0.000000000,0.000000000,-1.183105000,0.000000000,0.000000000,1.010152000,0.000000000,0.000000000,-0.024736000,0.000000000,0.000000000,0.231872000,0.000000000,0.000000000,0.023808000,0.000000000,0.000000000,1720619902.221603632,,,,,,,,,,,
1720619902.228862,-0.054340000,0.000000000,0.000000000,-1.183105000,0.000000000,0.000000000,1.010152000,0.000000000,0.000000000,-0.024736000,0.000000000,0.000000000,0.231872000,0.000000000,0.000000000,0.023808000,0.000000000,0.000000000,1720619902.222603559,,,,,,,,,,,
1720619902.231987,-0.054340000,0.000000000,0.000000000,-1.192268000,0.000000000,0.000000000,1.010152000,0.000000000,0.000000000,-0.024736000,0.000000000,0.000000000,0.232224000,0.000000000,0.000000000,0.022560000,0.000000000,0.000000000,1720619902.225603580,,,,,,,,,,,
1720619902.240403,-0.054340000,0.000000000,0.000000000,-1.163701000,0.000000000,0.000000000,1.010152000,0.000000000,0.000000000,-0.024736000,0.000000000,0.000000000,0.232224000,0.000000000,0.000000000,0.022816000,0.000000000,0.000000000,1720619902.233603716,,,,,,,,,,,
1720619902.240937,-0.054340000,0.000000000,0.000000000,-1.163701000,0.000000000,0.000000000,1.010152000,0.000000000,0.000000000,-0.024736000,0.000000000,0.000000000,0.232224000,0.000000000,0.000000000,0.022816000,0.000000000,0.000000000,1720619902.234603643,,,,,,,,,,,
1720619902.244125,-0.054340000,0.000000000,0.000000000,-1.192268000,0.000000000,0.000000000,1.010152000,0.000000000,0.000000000,-0.024736000,0.000000000,0.000000000,0.231808000,0.000000000,0.000000000,0.023008000,0.000000000,0.000000000,1720619902.237603664,,,,,,,,,,,
1720619902.252378,-0.054340000,0.000000000,0.000000000,-1.191190000,0.000000000,0.000000000,1.010152000,0.000000000,0.000000000,-0.024736000,0.000000000,0.000000000,0.231424000,0.000000000,0.000000000,0.023136000,0.000000000,0.000000000,1720619902.245603561,,,,,,,,,,,
1720619902.253169,-0.054340000,0.000000000,0.000000000,-1.191190000,0.000000000,0.000000000,1.010152000,0.000000000,0.000000000,-0.024736000,0.000000000,0.000000000,0.231424000,0.000000000,0.000000000,0.023136000,0.000000000,0.000000000,1720619902.246603727,,,,,,,,,,,
1720619902.254834,-0.054340000,0.000000000,0.000000000,-1.194963000,0.000000000,0.000000000,1.010152000,0.000000000,0.000000000,-0.024736000,0.000000000,0.000000000,0.231808000,0.000000000,0.000000000,0.023008000,0.000000000,0.000000000,1720619902.248603582,,,,,,,,,,,
1720619902.264268,-0.054340000,0.000000000,0.000000000,-1.189573000,0.000000000,0.000000000,1.010152000,0.000000000,0.000000000,-0.024736000,0.000000000,0.000000000,0.231680000,0.000000000,0.000000000,0.022880000,0.000000000,0.000000000,1720619902.257603645,,,,,,,,,,,
1720619902.265118,-0.054340000,0.000000000,0.000000000,-1.189573000,0.000000000,0.000000000,1.010152000,0.000000000,0.000000000,-0.024736000,0.000000000,0.000000000,0.231680000,0.000000000,0.000000000,0.022880000,0.000000000,0.000000000,1720619902.258603573,,,,,,,,,,,
1720619902.267664,-0.054912000,0.000000000,0.000000000,-1.188495000,0.000000000,0.000000000,1.010152000,0.000000000,0.000000000,-0.024736000,0.000000000,0.000000000,0.232352000,0.000000000,0.000000000,0.023424000,0.000000000,0.000000000,1720619902.260603666,,,,,,,,,,,
1720619902.270835,-0.054912000,0.000000000,0.000000000,-1.188495000,0.000000000,0.000000000,1.010152000,0.000000000,0.000000000,-0.024736000,0.000000000,0.000000000,0.232000000,0.000000000,0.000000000,0.022560000,0.000000000,0.000000000,1720619902.264603615,,,,,,,,,,,
1720619902.278936,-0.054912000,0.000000000,0.000000000,-1.213289000,0.000000000,0.000000000,1.010152000,0.000000000,0.000000000,-0.024736000,0.000000000,0.000000000,0.232608000,0.000000000,0.000000000,0.023072000,0.000000000,0.000000000,1720619902.271603584,,,,,,,,,,,
1720619902.288254,-0.054912000,0.000000000,0.000000000,-1.188495000,0.000000000,0.000000000,1.010152000,0.000000000,0.000000000,-0.024736000,0.000000000,0.000000000,0.231680000,0.000000000,0.000000000,0.022624000,0.000000000,0.000000000,1720619902.281603575,,,,,,,,,,,
1720619902.288953,-0.054912000,0.000000000,0.000000000,-1.188495000,0.000000000,0.000000000,1.010152000,0.000000000,0.000000000,-0.024736000,0.000000000,0.000000000,0.231680000,0.000000000,0.000000000,0.022624000,0.000000000,0.000000000,1720619902.282603741,,,,,,,,,,,
1720619902.291891,-0.054912000,0.000000000,0.000000000,-1.188495000,0.000000000,0.000000000,1.010152000,0.000000000,0.000000000,-0.024736000,0.000000000,0.000000000,0.231936000,0.000000000,0.000000000,0.023744000,0.000000000,0.000000000,1720619902.283603668,,,,,,,,,,,
1720619902.300246,-0.055198000,0.000000000,0.000000000,-1.188495000,0.000000000,0.000000000,1.010152000,0.000000000,0.000000000,-0.024736000,0.000000000,0.000000000,0.232096000,0.000000000,0.000000000,0.023136000,0.000000000,0.000000000,1720619902.293603659,,,,,,,,,,,
1720619902.300996,-0.055198000,0.000000000,0.000000000,-1.188495000,0.000000000,0.000000000,1.010152000,0.000000000,0.000000000,-0.024736000,0.000000000,0.000000000,0.232096000,0.000000000,0.000000000,0.023136000,0.000000000,0.000000000,1720619902.294603586,,,,,,,,,,,
1720619902.302629,-0.055198000,0.000000000,0.000000000,-1.189573000,0.000000000,0.000000000,1.010152000,0.000000000,0.000000000,-0.024736000,0.000000000,0.000000000,0.231808000,0.000000000,0.000000000,0.023008000,0.000000000,0.000000000,1720619902.295603752,,,,,,,,,,,
1720619902.303414,-0.055198000,0.000000000,0.000000000,-1.189573000,0.000000000,0.000000000,1.010152000,0.000000000,0.000000000,-0.024736000,0.000000000,0.000000000,0.231808000,0.000000000,0.000000000,0.023008000,0.000000000,0.000000000,1720619902.296603680,,,,,,,,,,,
1720619902.307503,-0.055198000,0.000000000,0.000000000,-1.189573000,0.000000000,0.000000000,1.010152000,0.000000000,0.000000000,-0.024736000,0.000000000,0.000000000,0.231744000,0.000000000,0.000000000,0.023296000,0.000000000,0.000000000,1720619902.300603628,,,,,,,,,,,
1720619902.315875,-0.054340000,0.000000000,0.000000000,-1.188495000,0.000000000,0.000000000,1.010152000,0.000000000,0.000000000,-0.024736000,0.000000000,0.000000000,0.232000000,0.000000000,0.000000000,0.024288000,0.000000000,0.000000000,1720619902.307603598,,,,,,,,,,,
1720619902.324371,-0.053768000,0.000000000,0.000000000,-1.188495000,0.000000000,0.000000000,1.010152000,0.000000000,0.000000000,-0.024736000,0.000000000,0.000000000,0.231744000,0.000000000,0.000000000,0.023008000,0.000000000,0.000000000,1720619902.317603588,,,,,,,,,,,
1720619902.325242,-0.053768000,0.000000000,0.000000000,-1.188495000,0.000000000,0.000000000,1.010152000,0.000000000,0.000000000,-0.024736000,0.000000000,0.000000000,0.231744000,0.000000000,0.000000000,0.023008000,0.000000000,0.000000000,1720619902.318603754,,,,,,,,,,,
1720619902.328013,-0.053768000,0.000000000,0.000000000,-1.188495000,0.000000000,0.000000000,1.010152000,0.000000000,0.000000000,-0.024736000,0.000000000,0.000000000,0.231360000,0.000000000,0.000000000,0.022624000,0.000000000,0.000000000,1720619902.321603775,,,,,,,,,,,
1720619902.338734,-0.034320000,0.000000000,0.000000000,-1.189573000,0.000000000,0.000000000,1.010152000,0.000000000,0.000000000,-0.024736000,0.000000000,0.000000000,0.231680000,0.000000000,0.000000000,0.024064000,0.000000000,0.000000000,1720619902.331603765,,,,,,,,,,,
1720619902.349316,-0.054912000,0.000000000,0.000000000,-1.186878000,0.000000000,0.000000000,1.009008000,0.000000000,0.000000000,-0.024736000,0.000000000,0.000000000,0.231936000,0.000000000,0.000000000,0.024000000,0.000000000,0.000000000,1720619902.342603683,,,,,,,,,,,
1720619902.358793,-0.056342000,0.000000000,0.000000000,-1.215984000,0.000000000,0.000000000,1.011582000,0.000000000,0.000000000,-0.024736000,0.000000000,0.000000000,0.231808000,0.000000000,0.000000000,0.023072000,0.000000000,0.000000000,1720619902.351603746,,,,,,,,,,,
1720619902.358845,-0.056342000,0.000000000,0.000000000,-1.215984000,0.000000000,0.000000000,1.011582000,0.000000000,0.000000000,-0.024736000,0.000000000,0.000000000,0.231808000,0.000000000,0.000000000,0.023072000,0.000000000,0.000000000,1720619902.352603674,,,,,,,,,,,
1720619902.360256,-0.056342000,0.000000000,0.000000000,-1.215984000,0.000000000,0.000000000,1.011582000,0.000000000,0.000000000,-0.024736000,0.000000000,0.000000000,0.231808000,0.000000000,0.000000000,0.023072000,0.000000000,0.000000000,1720619902.353603601,,,,,,,,,,,
1720619902.361041,-0.056342000,0.000000000,0.000000000,-1.215984000,0.000000000,0.000000000,1.011582000,0.000000000,0.000000000,-0.024736000,0.000000000,0.000000000,0.231808000,0.000000000,0.000000000,0.023072000,0.000000000,0.000000000,1720619902.354603767,,,,,,,,,,,
1720619902.363376,-0.055198000,0.000000000,0.000000000,-1.192268000,0.000000000,0.000000000,1.006434000,0.000000000,0.000000000,-0.024736000,0.000000000,0.000000000,0.231808000,0.000000000,0.000000000,0.023136000,0.000000000,0.000000000,1720619902.356603622,,,,,,,,,,,
1720619902.364130,-0.055198000,0.000000000,0.000000000,-1.192268000,0.000000000,0.000000000,1.006434000,0.000000000,0.000000000,-0.024736000,0.000000000,0.000000000,0.231808000,0.000000000,0.000000000,0.023136000,0.000000000,0.000000000,1720619902.357603788,,,,,,,,,,,
1720619902.368080,-0.055198000,0.000000000,0.000000000,-1.177715000,0.000000000,0.000000000,1.010724000,0.000000000,0.000000000,-0.024736000,0.000000000,0.000000000,0.232000000,0.000000000,0.000000000,0.023008000,0.000000000,0.000000000,1720619902.361603737,,,,,,,,,,,
1720619902.375625,-0.054340000,0.000000000,0.000000000,-1.186878000,0.000000000,0.000000000,1.010724000,0.000000000,0.000000000,-0.024736000,0.000000000,0.000000000,0.231872000,0.000000000,0.000000000,0.022944000,0.000000000,0.000000000,1720619902.368603706,,,,,,,,,,,
1720619902.376051,-0.054340000,0.000000000,0.000000000,-1.186878000,0.000000000,0.000000000,1.010724000,0.000000000,0.000000000,-0.024736000,0.000000000,0.000000000,0.231872000,0.000000000,0.000000000,0.022944000,0.000000000,0.000000000,1720619902.369603634,,,,,,,,,,,
1720619902.381196,-0.053768000,0.000000000,0.000000000,-1.185261000,0.000000000,0.000000000,1.010724000,0.000000000,0.000000000,-0.024736000,0.000000000,0.000000000,0.232224000,0.000000000,0.000000000,0.023872000,0.000000000,0.000000000,1720619902.374603748,,,,,,,,,,,
1720619902.388451,-0.053768000,0.000000000,0.000000000,-1.185261000,0.000000000,0.000000000,1.011010000,0.000000000,0.000000000,-0.024736000,0.000000000,0.000000000,0.232000000,0.000000000,0.000000000,0.023808000,0.000000000,0.000000000,1720619902.381603718,,,,,,,,,,,
1720619902.391179,-0.054340000,0.000000000,0.000000000,-1.187417000,0.000000000,0.000000000,1.011010000,0.000000000,0.000000000,-0.024736000,0.000000000,0.000000000,0.232096000,0.000000000,0.000000000,0.022560000,0.000000000,0.000000000,1720619902.384603739,,,,,,,,,,,
1720619902.400641,-0.054340000,0.000000000,0.000000000,-1.187417000,0.000000000,0.000000000,1.011582000,0.000000000,0.000000000,-0.024736000,0.000000000,0.000000000,0.231936000,0.000000000,0.000000000,0.023360000,0.000000000,0.000000000,1720619902.388603687,,,,,,,,,,,
1720619902.403787,-0.054340000,0.000000000,0.000000000,-1.187417000,0.000000000,0.000000000,1.011582000,0.000000000,0.000000000,-0.024736000,0.000000000,0.000000000,0.231872000,0.000000000,0.000000000,0.023136000,0.000000000,0.000000000,1720619902.396603584,,,,,,,,,,,
1720619902.409279,-0.054340000,0.000000000,0.000000000,-1.187417000,0.000000000,0.000000000,1.011582000,0.000000000,0.000000000,-0.024736000,0.000000000,0.000000000,0.231744000,0.000000000,0.000000000,0.022560000,0.000038380,0.009134350,1720619902.402603626,,,,,,,,,,,
1720619902.415507,-0.054340000,0.000000000,0.000000000,-1.187417000,0.000000000,0.000000000,1.011582000,0.000000000,0.000000000,-0.024736000,0.000000000,0.000000000,0.232224000,0.000000000,0.000000000,0.022688000,0.000000000,0.000000000,1720619902.408603668,,,,,,,,,,,
1720619902.416585,-0.054340000,0.000000000,0.000000000,-1.187417000,0.000000000,0.000000000,1.011582000,0.000000000,0.000000000,-0.024736000,0.000000000,0.000000000,0.232224000,0.000000000,0.000000000,0.022688000,0.000000000,0.000000000,1720619902.409603596,,,,,,,,,,,
1720619902.417285,-0.054340000,0.000000000,0.000000000,-1.187417000,0.000000000,0.000000000,1.011582000,0.000000000,0.000000000,-0.024736000,0.000000000,0.000000000,0.232224000,0.000000000,0.000000000,0.022688000,0.000000000,0.000000000,1720619902.410603762,,,,,,,,,,,
1720619902.424549,-0.054340000,0.000000000,0.000000000,-1.188495000,0.000000000,0.000000000,1.011010000,0.000000000,0.000000000,-0.024736000,0.000000000,0.000000000,0.232416000,0.000000000,0.000000000,0.023488000,0.000000000,0.000000000,1720619902.417603731,,,,,,,,,,,
1720619902.430855,-0.054340000,0.000000000,0.000000000,-1.188495000,0.000000000,0.000000000,1.011010000,0.000000000,0.000000000,-0.024736000,0.000000000,0.000000000,0.232000000,0.000000000,0.000000000,0.024000000,0.000000000,0.000000000,1720619902.423603773,,,,,,,,,,,
1720619902.430905,-0.054340000,0.000000000,0.000000000,-1.188495000,0.000000000,0.000000000,1.011010000,0.000000000,0.000000000,-0.024736000,0.000000000,0.000000000,0.232000000,0.000000000,0.000000000,0.024000000,0.000000000,0.000000000,1720619902.424603701,,,,,,,,,,,
1720619902.432474,-0.054340000,0.000000000,0.000000000,-1.188495000,0.000000000,0.000000000,1.011010000,0.000000000,0.000000000,-0.024736000,0.000000000,0.000000000,0.232000000,0.000000000,0.000000000,0.024000000,0.000000000,0.000000000,1720619902.425603628,,,,,,,,,,,
1720619902.436376,-0.054340000,0.000000000,0.000000000,-1.188495000,0.000000000,0.000000000,1.011010000,0.000000000,0.000000000,-0.024736000,0.000000000,0.000000000,0.232000000,0.000000000,0.000000000,0.022496000,0.000000000,0.000000000,1720619902.429603577,,,,,,,,,,,
1720619902.443987,-0.054912000,0.000000000,0.000000000,-1.191190000,0.000000000,0.000000000,1.011010000,0.000000000,0.000000000,-0.024736000,0.000000000,0.000000000,0.231936000,0.000000000,0.000000000,0.022560000,0.000000000,0.000000000,1720619902.436603785,,,,,,,,,,,
1720619902.444028,-0.054912000,0.000000000,0.000000000,-1.191190000,0.000000000,0.000000000,1.011010000,0.000000000,0.000000000,-0.024736000,0.000000000,0.000000000,0.231936000,0.000000000,0.000000000,0.022560000,0.000000000,0.000000000,1720619902.437603712,,,,,,,,,,,
1720619902.448393,-0.054912000,0.000000000,0.000000000,-1.190112000,0.000000000,0.000000000,1.011010000,0.000000000,0.000000000,-0.024736000,0.000000000,0.000000000,0.232000000,0.000000000,0.000000000,0.023616000,0.000000000,0.000000000,1720619902.441603661,,,,,,,,,,,
1720619902.455618,-0.054912000,0.000000000,0.000000000,-1.199275000,0.000000000,0.000000000,1.011582000,0.000000000,0.000000000,-0.024736000,0.000000000,0.000000000,0.232672000,0.000000000,0.000000000,0.024000000,0.000000000,0.000000000,1720619902.448603630,,,,,,,,,,,
1720619902.456307,-0.054912000,0.000000000,0.000000000,-1.199275000,0.000000000,0.000000000,1.011582000,0.000000000,0.000000000,-0.024736000,0.000000000,0.000000000,0.232672000,0.000000000,0.000000000,0.024000000,0.000000000,0.000000000,1720619902.449603558,,,,,,,,,,,
1720619902.460296,-0.054912000,0.000000000,0.000000000,-1.155077000,0.000000000,0.000000000,1.011582000,0.000000000,0.000000000,-0.024736000,0.000000000,0.000000000,0.231936000,0.000000000,0.000000000,0.022688000,0.000000000,0.000000000,1720619902.453603745,,,,,,,,,,,
1720619902.467705,-0.054912000,0.000000000,0.000000000,-1.189573000,0.000000000,0.000000000,1.011582000,0.000000000,0.000000000,-0.024736000,0.000000000,0.000000000,0.232000000,0.000000000,0.000000000,0.021888000,0.000000000,0.000000000,1720619902.460603714,,,,,,,,,,,
1720619902.468574,-0.054912000,0.000000000,0.000000000,-1.189573000,0.000000000,0.000000000,1.011582000,0.000000000,0.000000000,-0.024736000,0.000000000,0.000000000,0.232000000,0.000000000,0.000000000,0.021888000,0.000000000,0.000000000,1720619902.461603642,,,,,,,,,,,
1720619902.472835,-0.054912000,0.000000000,0.000000000,-1.189573000,0.000000000,0.000000000,1.011582000,0.000000000,0.000000000,-0.024736000,0.000000000,0.000000000,0.232480000,0.000000000,0.000000000,0.024672000,0.000000000,0.000000000,1720619902.465603590,,,,,,,,,,,
1720619902.479455,-0.054912000,0.000000000,0.000000000,-1.188495000,0.000000000,0.000000000,1.011582000,0.000000000,0.000000000,-0.024736000,0.000000000,0.000000000,0.232416000,0.000000000,0.000000000,0.024224000,0.000000000,0.000000000,1720619902.472603559,,,,,,,,,,,
1720619902.480527,-0.054912000,0.000000000,0.000000000,-1.188495000,0.000000000,0.000000000,1.011582000,0.000000000,0.000000000,-0.024736000,0.000000000,0.000000000,0.232416000,0.000000000,0.000000000,0.024224000,0.000000000,0.000000000,1720619902.473603725,,,,,,,,,,,
1720619902.484224,-0.054912000,0.000000000,0.000000000,-1.188495000,0.000000000,0.000000000,1.011582000,0.000000000,0.000000000,-0.024736000,0.000000000,0.000000000,0.231680000,0.000000000,0.000000000,0.022016000,0.000000000,0.000000000,1720619902.477603674,,,,,,,,,,,
1720619902.491469,-0.054912000,0.000000000,0.000000000,-1.188495000,0.000000000,0.000000000,1.011582000,0.000000000,0.000000000,-0.024736000,0.000000000,0.000000000,0.231552000,0.000000000,0.000000000,0.022080000,0.000000000,0.000000000,1720619902.484603643,,,,,,,,,,,
1720619902.492684,-0.054912000,0.000000000,0.000000000,-1.188495000,0.000000000,0.000000000,1.011582000,0.000000000,0.000000000,-0.024736000,0.000000000,0.000000000,0.231552000,0.000000000,0.000000000,0.022080000,0.000000000,0.000000000,1720619902.485603571,,,,,,,,,,,
1720619902.497226,-0.054912000,0.000000000,0.000000000,-1.186878000,0.000000000,0.000000000,1.011582000,0.000000000,0.000000000,-0.024736000,0.000000000,0.000000000,0.232000000,0.000000000,0.000000000,0.024128000,0.000000000,0.000000000,1720619902.490603685,,,,,,,,,,,
1720619902.504391,-0.054912000,0.000000000,0.000000000,-1.186878000,0.000000000,0.000000000,1.011582000,0.000000000,0.000000000,-0.024736000,0.000000000,0.000000000,0.231872000,0.000000000,0.000000000,0.024224000,0.000000000,0.000000000,1720619902.497603655,,,,,,,,,,,
1720619902.506549,-0.054912000,0.000000000,0.000000000,-1.186878000,0.000000000,0.000000000,1.011582000,0.000000000,0.000000000,-0.024736000,0.000000000,0.000000000,0.231872000,0.000000000,0.000000000,0.024224000,0.000000000,0.000000000,1720619902.498603582,,,,,,,,,,,
1720619902.515568,-0.054912000,0.000000000,0.000000000,-1.180410000,0.000000000,0.000000000,1.011582000,0.000000000,0.000000000,-0.024736000,0.000000000,0.000000000,0.231360000,0.000000000,0.000000000,0.021568000,0.000000000,0.000000000,1720619902.508603573,,,,,,,,,,,
1720619902.516356,-0.054912000,0.000000000,0.000000000,-1.180410000,0.000000000,0.000000000,1.011582000,0.000000000,0.000000000,-0.024736000,0.000000000,0.000000000,0.231360000,0.000000000,0.000000000,0.021568000,0.000000000,0.000000000,1720619902.509603739,,,,,,,,,,,
1720619902.517554,-0.054912000,0.000000000,0.000000000,-1.180410000,0.000000000,0.000000000,1.011582000,0.000000000,0.000000000,-0.024736000,0.000000000,0.000000000,0.231360000,0.000000000,0.000000000,0.021568000,0.000000000,0.000000000,1720619902.510603666,,,,,,,,,,,
1720619902.519374,-0.054912000,0.000000000,0.000000000,-1.193885000,0.000000000,0.000000000,1.011582000,0.000000000,0.000000000,-0.024736000,0.000000000,0.000000000,0.231872000,0.000000000,0.000000000,0.024352000,0.000000000,0.000000000,1720619902.512603760,,,,,,,,,,,
1720619902.523876,-0.054912000,0.000000000,0.000000000,-1.187417000,0.000000000,0.000000000,1.011582000,0.000000000,0.000000000,-0.024736000,0.000000000,0.000000000,0.231488000,0.000000000,0.000000000,0.021408000,0.000038380,0.009134350,1720619902.516603708,,,,,,,,,,,
1720619902.533164,-0.054912000,0.000000000,0.000000000,-1.187417000,0.000000000,0.000000000,1.011582000,0.000000000,0.000000000,-0.024736000,0.000000000,0.000000000,0.232000000,0.000000000,0.000000000,0.021568000,0.000038380,0.009134350,1720619902.525603771,,,,,,,,,,,
1720619902.534904,-0.054912000,0.000000000,0.000000000,-1.187417000,0.000000000,0.000000000,1.011582000,0.000000000,0.000000000,-0.024736000,0.000000000,0.000000000,0.232224000,0.000000000,0.000000000,0.024352000,0.000000000,0.009134350,1720619902.527603626,,,,,,,,,,,
1720619902.539391,-0.054912000,0.000000000,0.000000000,-1.187417000,0.000000000,0.000000000,1.011582000,0.000000000,0.000000000,-0.024736000,0.000000000,0.000000000,0.231808000,0.000000000,0.000000000,0.022080000,0.000038380,0.009134350,1720619902.532603741,,,,,,,,,,,
1720619902.553078,-0.054912000,0.000000000,0.000000000,-1.187417000,0.000000000,0.000000000,1.011582000,0.000000000,0.000000000,-0.024736000,0.000000000,0.000000000,0.231808000,0.000000000,0.000000000,0.022272000,0.000000000,0.000000000,1720619902.541603565,,,,,,,,,,,
1720619902.555819,-0.054912000,0.000000000,0.000000000,-1.195502000,0.000000000,0.000000000,1.011582000,0.000000000,0.000000000,-0.024736000,0.000000000,0.000000000,0.231616000,0.000000000,0.000000000,0.022624000,0.000000000,0.000000000,1720619902.548603773,,,,,,,,,,,
1720619902.556470,-0.054912000,0.000000000,0.000000000,-1.195502000,0.000000000,0.000000000,1.011582000,0.000000000,0.000000000,-0.024736000,0.000000000,0.000000000,0.231616000,0.000000000,0.000000000,0.022624000,0.000000000,0.000000000,1720619902.549603701,,,,,,,,,,,
1720619902.560575,-0.054912000,0.000000000,0.000000000,-1.188495000,0.000000000,0.000000000,1.011582000,0.000000000,0.000000000,-0.024736000,0.000000000,0.000000000,0.230816000,0.000000000,0.000000000,0.023488000,0.000000000,0.000000000,1720619902.553603649,,,,,,,,,,,
1720619902.567373,-0.054912000,0.000000000,0.000000000,-1.191190000,0.000000000,0.000000000,1.011582000,0.000000000,0.000000000,-0.024736000,0.000000000,0.000000000,0.231680000,0.000000000,0.000000000,0.023744000,0.000000000,0.000000000,1720619902.560603619,,,,,,,,,,,
1720619902.568367,-0.054912000,0.000000000,0.000000000,-1.191190000,0.000000000,0.000000000,1.011582000,0.000000000,0.000000000,-0.024736000,0.000000000,0.000000000,0.231680000,0.000000000,0.000000000,0.023744000,0.000000000,0.000000000,1720619902.561603785,,,,,,,,,,,
1720619902.572768,-0.054912000,0.000000000,0.000000000,-1.191190000,0.000000000,0.000000000,1.011582000,0.000000000,0.000000000,-0.024736000,0.000000000,0.000000000,0.232224000,0.000000000,0.000000000,0.021952000,0.000038380,0.009134350,1720619902.565603733,,,,,,,,,,,
1720619902.579343,-0.054340000,0.000000000,0.000000000,-1.191190000,0.000000000,0.000000000,1.011582000,0.000000000,0.000000000,-0.024736000,0.000000000,0.000000000,0.231936000,0.000000000,0.000000000,0.021568000,0.000038380,0.009134350,1720619902.572603703,,,,,,,,,,,
1720619902.580457,-0.054340000,0.000000000,0.000000000,-1.191190000,0.000000000,0.000000000,1.011582000,0.000000000,0.000000000,-0.024736000,0.000000000,0.000000000,0.231936000,0.000000000,0.000000000,0.021568000,0.000038380,0.009134350,1720619902.573603630,,,,,,,,,,,
1720619902.593153,-0.054340000,0.000000000,0.000000000,-1.190112000,0.000000000,0.000000000,1.011582000,0.000000000,0.000000000,-0.024736000,0.000000000,0.000000000,0.231552000,0.000000000,0.000000000,0.021568000,0.000038380,0.009134350,1720619902.580603600,,,,,,,,,,,
1720619902.594507,-0.055770000,0.000000000,0.000000000,-1.190112000,0.000000000,0.000000000,1.011582000,0.000000000,0.000000000,-0.024736000,0.000000000,0.000000000,0.231936000,0.000000000,0.000000000,0.024064000,0.000000000,0.009134350,1720619902.586603642,,,,,,,,,,,
1720619902.604003,-0.054912000,0.000000000,0.000000000,-1.189573000,0.000000000,0.000000000,1.011582000,0.000000000,0.000000000,-0.024736000,0.000000000,0.000000000,0.231744000,0.000000000,0.000000000,0.022688000,0.000000000,0.000000000,1720619902.596603632,,,,,,,,,,,
1720619902.604991,-0.054912000,0.000000000,0.000000000,-1.189573000,0.000000000,0.000000000,1.011582000,0.000000000,0.000000000,-0.024736000,0.000000000,0.000000000,0.231744000,0.000000000,0.000000000,0.022688000,0.000000000,0.000000000,1720619902.597603559,,,,,,,,,,,
1720619902.606701,-0.054912000,0.000000000,0.000000000,-1.189573000,0.000000000,0.000000000,1.011582000,0.000000000,0.000000000,-0.024736000,0.000000000,0.000000000,0.231616000,0.000000000,0.000000000,0.023488000,0.000000000,0.000000000,1720619902.599603653,,,,,,,,,,,
1720619902.616096,-0.055198000,0.000000000,0.000000000,-1.189573000,0.000000000,0.000000000,1.011582000,0.000000000,0.000000000,-0.024736000,0.000000000,0.000000000,0.231616000,0.000000000,0.000000000,0.023936000,0.000000000,0.000000000,1720619902.608603716,,,,,,,,,,,
1720619902.616622,-0.055198000,0.000000000,0.000000000,-1.189573000,0.000000000,0.000000000,1.011582000,0.000000000,0.000000000,-0.024736000,0.000000000,0.000000000,0.231616000,0.000000000,0.000000000,0.023936000,0.000000000,0.000000000,1720619902.609603643,,,,,,,,,,,
1720619902.617557,-0.055198000,0.000000000,0.000000000,-1.189573000,0.000000000,0.000000000,1.011582000,0.000000000,0.000000000,-0.024736000,0.000000000,0.000000000,0.231616000,0.000000000,0.000000000,0.023936000,0.000000000,0.000000000,1720619902.610603571,,,,,,,,,,,
1720619902.619835,-0.055198000,0.000000000,0.000000000,-1.189573000,0.000000000,0.000000000,1.011582000,0.000000000,0.000000000,-0.024736000,0.000000000,0.000000000,0.231872000,0.000000000,0.000000000,0.022080000,0.000038380,0.009134350,1720619902.612603664,,,,,,,,,,,
1720619902.623671,-0.054912000,0.000000000,0.000000000,-1.189573000,0.000000000,0.000000000,1.011582000,0.000000000,0.000000000,-0.024736000,0.000000000,0.000000000,0.231808000,0.000000000,0.000000000,0.024128000,0.000000000,0.009134350,1720619902.616603613,,,,,,,,,,,
1720619902.632002,-0.053768000,0.000000000,0.000000000,-1.189573000,0.000000000,0.000000000,1.011582000,0.000000000,0.000000000,-0.024736000,0.000000000,0.000000000,0.231808000,0.000000000,0.000000000,0.023872000,0.000000000,0.000000000,1720619902.624603748,,,,,,,,,,,
1720619902.635707,-0.053768000,0.000000000,0.000000000,-1.189573000,0.000000000,0.000000000,1.011582000,0.000000000,0.000000000,-0.024736000,0.000000000,0.000000000,0.232288000,0.000000000,0.000000000,0.022272000,0.000000000,0.000000000,1720619902.628603697,,,,,,,,,,,
1720619902.644070,-0.054340000,0.000000000,0.000000000,-1.189573000,0.000000000,0.000000000,1.011582000,0.000000000,0.000000000,-0.024736000,0.000000000,0.000000000,0.231808000,0.000000000,0.000000000,0.022816000,0.000000000,0.000000000,1720619902.636603594,,,,,,,,,,,
1720619902.647388,-0.054340000,0.000000000,0.000000000,-1.189573000,0.000000000,0.000000000,1.011582000,0.000000000,0.000000000,-0.024736000,0.000000000,0.000000000,0.232000000,0.000000000,0.000000000,0.023136000,0.000000000,0.000000000,1720619902.640603781,,,,,,,,,,,
1720619902.655010,-0.054340000,0.000000000,0.000000000,-1.189573000,0.000000000,0.000000000,1.011582000,0.000000000,0.000000000,-0.024736000,0.000000000,0.000000000,0.232096000,0.000000000,0.000000000,0.023872000,0.000000000,0.000000000,1720619902.647603750,,,,,,,,,,,
1720619902.659667,-0.054340000,0.000000000,0.000000000,-1.158311000,0.000000000,0.000000000,1.011582000,0.000000000,0.000000000,-0.024736000,0.000000000,0.000000000,0.231936000,0.000000000,0.000000000,0.022144000,0.000000000,0.000000000,1720619902.652603626,,,,,,,,,,,
1720619902.666884,-0.054340000,0.000000000,0.000000000,-1.190112000,0.000000000,0.000000000,1.011582000,0.000000000,0.000000000,-0.024736000,0.000000000,0.000000000,0.232000000,0.000000000,0.000000000,0.022560000,0.000000000,0.000000000,1720619902.659603596,,,,,,,,,,,
1720619902.679616,-0.054912000,0.000000000,0.000000000,-1.190112000,0.000000000,0.000000000,1.011582000,0.000000000,0.000000000,-0.024736000,0.000000000,0.000000000,0.231360000,0.000000000,0.000000000,0.023424000,0.000000000,0.000000000,1720619902.670603752,,,,,,,,,,,
1720619902.686877,-0.055198000,0.000000000,0.000000000,-1.190112000,0.000000000,0.000000000,1.011582000,0.000000000,0.000000000,-0.024736000,0.000000000,0.000000000,0.231872000,0.000000000,0.000000000,0.022272000,0.000000000,0.000000000,1720619902.679603577,,,,,,,,,,,
1720619902.696180,-0.054340000,0.000000000,0.000000000,-1.186878000,0.000000000,0.000000000,1.011582000,0.000000000,0.000000000,-0.024736000,0.000000000,0.000000000,0.232224000,0.000000000,0.000000000,0.022272000,0.000000000,0.000000000,1720619902.688603640,,,,,,,,,,,
1720619902.696712,-0.054340000,0.000000000,0.000000000,-1.186878000,0.000000000,0.000000000,1.011582000,0.000000000,0.000000000,-0.024736000,0.000000000,0.000000000,0.232224000,0.000000000,0.000000000,0.022272000,0.000000000,0.000000000,1720619902.689603567,,,,,,,,,,,
1720619902.700186,,,,,,,,,,,,,,,,,,,,1720619902.688603640,-1.186824000,3.141592654,0.000000015,0.829037542,-0.000000022,-0.000000054,0.559192949,1.395152983,0.001110973,1.481517837
1720619902.703262,-0.054340000,0.000000000,0.000000000,-1.192268000,0.000000000,0.000000000,1.011582000,0.000000000,0.000000000,-0.024736000,0.000000000,0.000000000,0.231360000,0.000000000,0.000000000,0.023680000,0.000000000,0.000000000,1720619902.692603588,,,,,,,,,,,
1720619902.708038,-0.054340000,0.000000000,0.000000000,-1.208977000,0.000000000,0.000000000,1.011582000,0.000000000,0.000000000,-0.024736000,0.000000000,0.000000000,0.232000000,0.000000000,0.000000000,0.023136000,0.000000000,0.000000000,1720619902.700603724,,,,,,,,,,,
1720619902.708975,-0.054340000,0.000000000,0.000000000,-1.208977000,0.000000000,0.000000000,1.011582000,0.000000000,0.000000000,-0.024736000,0.000000000,0.000000000,0.232000000,0.000000000,0.000000000,0.023136000,0.000000000,0.000000000,1720619902.701603651,,,,,,,,,,,
1720619902.711840,-0.054340000,0.000000000,0.000000000,-1.198197000,0.000000000,0.000000000,1.011582000,0.000000000,0.000000000,-0.024736000,0.000000000,0.000000000,0.232224000,0.000000000,0.000000000,0.022944000,0.000000000,0.000000000,1720619902.704603672,,,,,,,,,,,
1720619902.720398,-0.054340000,0.000000000,0.000000000,-1.193885000,0.000000000,0.000000000,1.011582000,0.000000000,0.000000000,-0.024736000,0.000000000,0.000000000,0.231744000,0.000000000,0.000000000,0.022080000,0.000000000,0.000000000,1720619902.712603569,,,,,,,,,,,
1720619902.721112,-0.054340000,0.000000000,0.000000000,-1.193885000,0.000000000,0.000000000,1.011582000,0.000000000,0.000000000,-0.024736000,0.000000000,0.000000000,0.231744000,0.000000000,0.000000000,0.022080000,0.000000000,0.000000000,1720619902.713603735,,,,,,,,,,,
1720619902.723409,-0.054340000,0.000000000,0.000000000,-1.188495000,0.000000000,0.000000000,1.011582000,0.000000000,0.000000000,-0.024736000,0.000000000,0.000000000,0.231808000,0.000000000,0.000000000,0.024000000,0.000000000,0.000000000,1720619902.715603590,,,,,,,,,,,
1720619902.732362,-0.054340000,0.000000000,0.000000000,-1.188495000,0.000000000,0.000000000,1.011582000,0.000000000,0.000000000,-0.024736000,0.000000000,0.000000000,0.231744000,0.000000000,0.000000000,0.023808000,0.000000000,0.000000000,1720619902.724603653,,,,,,,,,,,
1720619902.733552,-0.054340000,0.000000000,0.000000000,-1.188495000,0.000000000,0.000000000,1.011582000,0.000000000,0.000000000,-0.024736000,0.000000000,0.000000000,0.231744000,0.000000000,0.000000000,0.023808000,0.000000000,0.000000000,1720619902.725603580,,,,,,,,,,,
1720619902.735183,-0.054340000,0.000000000,0.000000000,-1.177715000,0.000000000,0.000000000,1.011582000,0.000000000,0.000000000,-0.024736000,0.000000000,0.000000000,0.231808000,0.000000000,0.000000000,0.022496000,0.000000000,0.000000000,1720619902.727603674,,,,,,,,,,,
1720619902.744185,-0.054340000,0.000000000,0.000000000,-1.188495000,0.000000000,0.000000000,1.011582000,0.000000000,0.000000000,-0.024736000,0.000000000,0.000000000,0.232000000,0.000000000,0.000000000,0.022816000,0.000000000,0.000000000,1720619902.736603737,,,,,,,,,,,
1720619902.745178,-0.054340000,0.000000000,0.000000000,-1.188495000,0.000000000,0.000000000,1.011582000,0.000000000,0.000000000,-0.024736000,0.000000000,0.000000000,0.232000000,0.000000000,0.000000000,0.022816000,0.000000000,0.000000000,1720619902.737603664,,,,,,,,,,,
1720619902.747934,-0.054340000,0.000000000,0.000000000,-1.188495000,0.000000000,0.000000000,1.011582000,0.000000000,0.000000000,-0.024736000,0.000000000,0.000000000,0.231616000,0.000000000,0.000000000,0.023072000,0.000000000,0.000000000,1720619902.740603685,,,,,,,,,,,
1720619902.750056,,,,,,,,,,,,,,,,,,,,1720619902.740603685,-1.186824000,3.141592654,0.000000015,0.829037542,-0.000000022,-0.000000054,0.559192949,1.395152983,0.001110973,1.481517837
1720619902.756416,-0.054340000,0.000000000,0.000000000,-1.188495000,0.000000000,0.000000000,1.011582000,0.000000000,0.000000000,-0.024736000,0.000000000,0.000000000,0.231616000,0.000000000,0.000000000,0.023360000,0.000000000,0.000000000,1720619902.748603582,,,,,,,,,,,
1720619902.757061,-0.054340000,0.000000000,0.000000000,-1.188495000,0.000000000,0.000000000,1.011582000,0.000000000,0.000000000,-0.024736000,0.000000000,0.000000000,0.231616000,0.000000000,0.000000000,0.023360000,0.000000000,0.000000000,1720619902.749603748,,,,,,,,,,,
1720619902.758703,-0.054340000,0.000000000,0.000000000,-1.188495000,0.000000000,0.000000000,1.011582000,0.000000000,0.000000000,-0.024736000,0.000000000,0.000000000,0.232160000,0.000000000,0.000000000,0.023008000,0.000000000,0.000000000,1720619902.751603603,,,,,,,,,,,
1720619902.768489,-0.054340000,0.000000000,0.000000000,-1.190112000,0.000000000,0.000000000,1.011582000,0.000000000,0.000000000,-0.024736000,0.000000000,0.000000000,0.232000000,0.000000000,0.000000000,0.023008000,0.000000000,0.000000000,1720619902.760603666,,,,,,,,,,,
1720619902.769025,-0.054340000,0.000000000,0.000000000,-1.190112000,0.000000000,0.000000000,1.011582000,0.000000000,0.000000000,-0.024736000,0.000000000,0.000000000,0.232000000,0.000000000,0.000000000,0.023008000,0.000000000,0.000000000,1720619902.761603594,,,,,,,,,,,
1720619902.772208,-0.054340000,0.000000000,0.000000000,-1.190112000,0.000000000,0.000000000,1.011582000,0.000000000,0.000000000,-0.024736000,0.000000000,0.000000000,0.232096000,0.000000000,0.000000000,0.022944000,0.000000000,0.000000000,1720619902.762603760,,,,,,,,,,,
1720619902.780154,-0.054340000,0.000000000,0.000000000,-1.217062000,0.000000000,0.000000000,1.011582000,0.000000000,0.000000000,-0.024736000,0.000000000,0.000000000,0.231936000,0.000000000,0.000000000,0.022944000,0.000000000,0.000000000,1720619902.772603750,,,,,,,,,,,
1720619902.781003,-0.054340000,0.000000000,0.000000000,-1.217062000,0.000000000,0.000000000,1.011582000,0.000000000,0.000000000,-0.024736000,0.000000000,0.000000000,0.231936000,0.000000000,0.000000000,0.022944000,0.000000000,0.000000000,1720619902.773603678,,,,,,,,,,,
1720619902.783691,-0.054340000,0.000000000,0.000000000,-1.166396000,0.000000000,0.000000000,1.011582000,0.000000000,0.000000000,-0.024736000,0.000000000,0.000000000,0.232352000,0.000000000,0.000000000,0.022496000,0.000000000,0.000000000,1720619902.775603771,,,,,,,,,,,
1720619902.787045,-0.054340000,0.000000000,0.000000000,-1.192268000,0.000000000,0.000000000,1.011582000,0.000000000,0.000000000,-0.024736000,0.000000000,0.000000000,0.231936000,0.000000000,0.000000000,0.024064000,0.000000000,0.000000000,1720619902.779603720,,,,,,,,,,,
1720619902.794885,-0.054340000,0.000000000,0.000000000,-1.188495000,0.000000000,0.000000000,1.011582000,0.000000000,0.000000000,-0.024736000,0.000000000,0.000000000,0.231808000,0.000000000,0.000000000,0.024352000,0.000000000,0.009134350,1720619902.786603689,,,,,,,,,,,
1720619902.804420,-0.054340000,0.000000000,0.000000000,-1.160467000,0.000000000,0.000000000,1.011582000,0.000000000,0.000000000,-0.024736000,0.000000000,0.000000000,0.231488000,0.000000000,0.000000000,0.024128000,0.000000000,0.000000000,1720619902.796603680,,,,,,,,,,,
1720619902.805574,-0.054340000,0.000000000,0.000000000,-1.160467000,0.000000000,0.000000000,1.011582000,0.000000000,0.000000000,-0.024736000,0.000000000,0.000000000,0.231488000,0.000000000,0.000000000,0.024128000,0.000000000,0.000000000,1720619902.797603607,,,,,,,,,,,
1720619902.807903,-0.054340000,0.000000000,0.000000000,-1.207360000,0.000000000,0.000000000,1.011582000,0.000000000,0.000000000,-0.024736000,0.000000000,0.000000000,0.231872000,0.000000000,0.000000000,0.021888000,0.000000000,0.000000000,1720619902.798603773,,,,,,,,,,,
1720619902.810253,,,,,,,,,,,,,,,,,,,,1720619902.796603680,-1.186824000,3.141592654,0.000000015,0.829037542,-0.000000022,-0.000000054,0.559192949,1.395152983,0.001110973,1.481517837
1720619902.816585,-0.054340000,0.000000000,0.000000000,-1.151304000,0.000000000,0.000000000,1.011582000,0.000000000,0.000000000,-0.024736000,0.000000000,0.000000000,0.231872000,0.000000000,0.000000000,0.022432000,0.000000000,0.000000000,1720619902.808603764,,,,,,,,,,,
1720619902.816999,-0.054340000,0.000000000,0.000000000,-1.151304000,0.000000000,0.000000000,1.011582000,0.000000000,0.000000000,-0.024736000,0.000000000,0.000000000,0.231872000,0.000000000,0.000000000,0.022432000,0.000000000,0.000000000,1720619902.809603691,,,,,,,,,,,
1720619902.819266,-0.054340000,0.000000000,0.000000000,-1.190112000,0.000000000,0.000000000,1.011582000,0.000000000,0.000000000,-0.024736000,0.000000000,0.000000000,0.231680000,0.000000000,0.000000000,0.023296000,0.000000000,0.000000000,1720619902.811603785,,,,,,,,,,,
1720619902.824079,-0.054340000,0.000000000,0.000000000,-1.190112000,0.000000000,0.000000000,1.011582000,0.000000000,0.000000000,-0.024736000,0.000000000,0.000000000,0.232352000,0.000000000,0.000000000,0.022432000,0.000000000,0.000000000,1720619902.816603661,,,,,,,,,,,
1720619902.831437,-0.054340000,0.000000000,0.000000000,-1.190112000,0.000000000,0.000000000,1.011582000,0.000000000,0.000000000,-0.024736000,0.000000000,0.000000000,0.232416000,0.000000000,0.000000000,0.022816000,0.000000000,0.000000000,1720619902.823603630,,,,,,,,,,,
1720619902.832208,-0.054340000,0.000000000,0.000000000,-1.190112000,0.000000000,0.000000000,1.011582000,0.000000000,0.000000000,-0.024736000,0.000000000,0.000000000,0.232416000,0.000000000,0.000000000,0.022816000,0.000000000,0.000000000,1720619902.824603558,,,,,,,,,,,
1720619902.836165,-0.054340000,0.000000000,0.000000000,-1.190112000,0.000000000,0.000000000,1.011582000,0.000000000,0.000000000,-0.024736000,0.000000000,0.000000000,0.231424000,0.000000000,0.000000000,0.023136000,0.000000000,0.000000000,1720619902.828603745,,,,,,,,,,,
1720619902.844094,-0.054912000,0.000000000,0.000000000,-1.191190000,0.000000000,0.000000000,1.011582000,0.000000000,0.000000000,-0.024736000,0.000000000,0.000000000,0.232096000,0.000000000,0.000000000,0.023360000,0.000000000,0.000000000,1720619902.836603642,,,,,,,,,,,
1720619902.853767,-0.054912000,0.000000000,0.000000000,-1.188495000,0.000000000,0.000000000,1.011582000,0.000000000,0.000000000,-0.024736000,0.000000000,0.000000000,0.231680000,0.000000000,0.000000000,0.023680000,0.000000000,0.000000000,1720619902.845603704,,,,,,,,,,,
1720619902.855621,-0.054912000,0.000000000,0.000000000,-1.188495000,0.000000000,0.000000000,1.011582000,0.000000000,0.000000000,-0.024736000,0.000000000,0.000000000,0.231936000,0.000000000,0.000000000,0.022816000,0.000000000,0.000000000,1720619902.847603559,,,,,,,,,,,
1720619902.856036,-0.054912000,0.000000000,0.000000000,-1.188495000,0.000000000,0.000000000,1.011582000,0.000000000,0.000000000,-0.024736000,0.000000000,0.000000000,0.231936000,0.000000000,0.000000000,0.022816000,0.000000000,0.000000000,1720619902.848603725,,,,,,,,,,,
1720619902.860195,-0.054912000,0.000000000,0.000000000,-1.188495000,0.000000000,0.000000000,1.011582000,0.000000000,0.000000000,-0.024736000,0.000000000,0.000000000,0.232288000,0.000000000,0.000000000,0.023200000,0.000000000,0.000000000,1720619902.852603674,,,,,,,,,,,
1720619902.860206,,,,,,,,,,,,,,,,,,,,1720619902.847603559,-1.186824000,3.141592654,0.000000015,0.829037542,-0.000000022,-0.000000054,0.559192949,1.395152983,0.001110973,1.481517837
1720619902.867327,-0.054912000,0.000000000,0.000000000,-1.188495000,0.000000000,0.000000000,1.011582000,0.000000000,0.000000000,-0.024736000,0.000000000,0.000000000,0.231296000,0.000000000,0.000000000,0.022432000,0.000000000,0.000000000,1720619902.859603643,,,,,,,,,,,
1720619902.868280,-0.054912000,0.000000000,0.000000000,-1.188495000,0.000000000,0.000000000,1.011582000,0.000000000,0.000000000,-0.024736000,0.000000000,0.000000000,0.231296000,0.000000000,0.000000000,0.022432000,0.000000000,0.000000000,1720619902.860603571,,,,,,,,,,,
1720619902.872114,-0.054912000,0.000000000,0.000000000,-1.188495000,0.000000000,0.000000000,1.011582000,0.000000000,0.000000000,-0.024736000,0.000000000,0.000000000,0.231552000,0.000000000,0.000000000,0.024000000,0.000000000,0.000000000,1720619902.864603758,,,,,,,,,,,
1720619902.879493,-0.054912000,0.000000000,0.000000000,-1.188495000,0.000000000,0.000000000,1.011582000,0.000000000,0.000000000,-0.024736000,0.000000000,0.000000000,0.231808000,0.000000000,0.000000000,0.024608000,0.000000000,0.009134350,1720619902.871603727,,,,,,,,,,,
1720619902.880180,-0.054912000,0.000000000,0.000000000,-1.188495000,0.000000000,0.000000000,1.011582000,0.000000000,0.000000000,-0.024736000,0.000000000,0.000000000,0.231808000,0.000000000,0.000000000,0.024608000,0.000000000,0.009134350,1720619902.872603655,,,,,,,,,,,
1720619902.884297,-0.054912000,0.000000000,0.000000000,-1.188495000,0.000000000,0.000000000,1.011582000,0.000000000,0.000000000,-0.024736000,0.000000000,0.000000000,0.232288000,0.000000000,0.000000000,0.021568000,0.000038380,0.009134350,1720619902.876603603,,,,,,,,,,,
1720619902.891636,-0.054912000,0.000000000,0.000000000,-1.188495000,0.000000000,0.000000000,1.011582000,0.000000000,0.000000000,-0.024736000,0.000000000,0.000000000,0.231808000,0.000000000,0.000000000,0.021408000,0.000038380,0.009134350,1720619902.883603573,,,,,,,,,,,
1720619902.892207,-0.054912000,0.000000000,0.000000000,-1.188495000,0.000000000,0.000000000,1.011582000,0.000000000,0.000000000,-0.024736000,0.000000000,0.000000000,0.231808000,0.000000000,0.000000000,0.021408000,0.000038380,0.009134350,1720619902.884603739,,,,,,,,,,,
1720619902.896888,-0.054912000,0.000000000,0.000000000,-1.188495000,0.000000000,0.000000000,1.011582000,0.000000000,0.000000000,-0.024736000,0.000000000,0.000000000,0.231360000,0.000000000,0.000000000,0.024480000,0.000000000,0.009134350,1720619902.888603687,,,,,,,,,,,
1720619902.903333,-0.054912000,0.000000000,0.000000000,-1.188495000,0.000000000,0.000000000,1.011582000,0.000000000,0.000000000,-0.024736000,0.000000000,0.000000000,0.231488000,0.000000000,0.000000000,0.024224000,0.000000000,0.009134350,1720619902.895603657,,,,,,,,,,,
1720619902.904273,-0.054912000,0.000000000,0.000000000,-1.188495000,0.000000000,0.000000000,1.011582000,0.000000000,0.000000000,-0.024736000,0.000000000,0.000000000,0.231488000,0.000000000,0.000000000,0.024224000,0.000000000,0.009134350,1720619902.896603584,,,,,,,,,,,
1720619902.909508,-0.054912000,0.000000000,0.000000000,-1.188495000,0.000000000,0.000000000,1.011582000,0.000000000,0.000000000,-0.024736000,0.000000000,0.000000000,0.231680000,0.000000000,0.000000000,0.022496000,0.000000000,0.000000000,1720619902.901603699,,,,,,,,,,,
1720619902.910004,,,,,,,,,,,,,,,,,,,,1720619902.901603699,-1.186824000,3.141592654,0.000000015,0.829037542,-0.000000022,-0.000000054,0.559192949,1.395152983,0.001110973,1.481517837
1720619902.915966,-0.054912000,0.000000000,0.000000000,-1.188495000,0.000000000,0.000000000,1.011582000,0.000000000,0.000000000,-0.024736000,0.000000000,0.000000000,0.231808000,0.000000000,0.000000000,0.022880000,0.000000000,0.000000000,1720619902.907603741,,,,,,,,,,,
1720619902.916134,-0.054912000,0.000000000,0.000000000,-1.188495000,0.000000000,0.000000000,1.011582000,0.000000000,0.000000000,-0.024736000,0.000000000,0.000000000,0.231808000,0.000000000,0.000000000,0.022880000,0.000000000,0.000000000,1720619902.908603668,,,,,,,,,,,
1720619902.918734,-0.054912000,0.000000000,0.000000000,-1.188495000,0.000000000,0.000000000,1.011582000,0.000000000,0.000000000,-0.024736000,0.000000000,0.000000000,0.231616000,0.000000000,0.000000000,0.023136000,0.000000000,0.000000000,1720619902.910603762,,,,,,,,,,,
1720619902.923274,-0.054912000,0.000000000,0.000000000,-1.191190000,0.000000000,0.000000000,1.011582000,0.000000000,0.000000000,-0.024736000,0.000000000,0.000000000,0.231808000,0.000000000,0.000000000,0.022816000,0.000000000,0.000000000,1720619902.915603638,,,,,,,,,,,
1720619902.929265,-0.054912000,0.000000000,0.000000000,-1.183105000,0.000000000,0.000000000,1.011582000,0.000000000,0.000000000,-0.024736000,0.000000000,0.000000000,0.231488000,0.000000000,0.000000000,0.023744000,0.000000000,0.000000000,1720619902.921603680,,,,,,,,,,,
1720619902.931165,-0.057772000,0.000000000,0.000000000,-1.189573000,0.000000000,0.000000000,1.011582000,0.000000000,0.000000000,-0.024736000,0.000000000,0.000000000,0.231680000,0.000000000,0.000000000,0.021888000,0.000038380,0.009134350,1720619902.923603773,,,,,,,,,,,
1720619902.935486,-0.054912000,0.000000000,0.000000000,-1.189573000,0.000000000,0.000000000,1.011582000,0.000000000,0.000000000,-0.024736000,0.000000000,0.000000000,0.231936000,0.000000000,0.000000000,0.024224000,0.000000000,0.009134350,1720619902.927603722,,,,,,,,,,,
1720619902.943638,-0.055770000,0.000000000,0.000000000,-1.189573000,0.000000000,0.000000000,1.011582000,0.000000000,0.000000000,-0.024736000,0.000000000,0.000000000,0.232480000,0.000000000,0.000000000,0.023808000,0.000000000,0.000000000,1720619902.935603619,,,,,,,,,,,
1720619902.947631,-0.057486000,0.000000000,0.000000000,-1.189573000,0.000000000,0.000000000,1.011582000,0.000000000,0.000000000,-0.024736000,0.000000000,0.000000000,0.231552000,0.000000000,0.000000000,0.022688000,0.000000000,0.000000000,1720619902.939603567,,,,,,,,,,,
1720619902.956045,-0.053768000,0.000000000,0.000000000,-1.189573000,0.000000000,0.000000000,1.011582000,0.000000000,0.000000000,-0.024736000,0.000000000,0.000000000,0.232000000,0.000000000,0.000000000,0.023136000,0.000000000,0.000000000,1720619902.947603703,,,,,,,,,,,
1720619902.960410,-0.053196000,0.000000000,0.000000000,-1.189573000,0.000000000,0.000000000,1.011582000,0.000000000,0.000000000,-0.024736000,0.000000000,0.000000000,0.232000000,0.000000000,0.000000000,0.022624000,0.000000000,0.000000000,1720619902.952603579,,,,,,,,,,,
1720619902.967642,-0.053196000,0.000000000,0.000000000,-1.190112000,0.000000000,0.000000000,1.011582000,0.000000000,0.000000000,-0.024736000,0.000000000,0.000000000,0.231680000,0.000000000,0.000000000,0.023008000,0.000000000,0.000000000,1720619902.959603786,,,,,,,,,,,
1720619902.969122,-0.053196000,0.000000000,0.000000000,-1.190112000,0.000000000,0.000000000,1.011582000,0.000000000,0.000000000,-0.024736000,0.000000000,0.000000000,0.231680000,0.000000000,0.000000000,0.023008000,0.000000000,0.000000000,1720619902.960603714,,,,,,,,,,,
1720619902.970148,,,,,,,,,,,,,,,,,,,,1720619902.952603579,-1.186824000,3.141592654,0.000000015,0.829037542,-0.000000022,-0.000000054,0.559192949,1.395152983,0.001110973,1.481517837
1720619902.972488,-0.053768000,0.000000000,0.000000000,-1.189573000,0.000000000,0.000000000,1.011582000,0.000000000,0.000000000,-0.024736000,0.000000000,0.000000000,0.232288000,0.000000000,0.000000000,0.022432000,0.000000000,0.000000000,1720619902.964603662,,,,,,,,,,,
1720619902.979635,-0.053768000,0.000000000,0.000000000,-1.189573000,0.000000000,0.000000000,1.011582000,0.000000000,0.000000000,-0.024736000,0.000000000,0.000000000,0.231680000,0.000000000,0.000000000,0.022336000,0.000000000,0.000000000,1720619902.971603632,,,,,,,,,,,
1720619902.980326,-0.053768000,0.000000000,0.000000000,-1.189573000,0.000000000,0.000000000,1.011582000,0.000000000,0.000000000,-0.024736000,0.000000000,0.000000000,0.231680000,0.000000000,0.000000000,0.022336000,0.000000000,0.000000000,1720619902.972603559,,,,,,,,,,,
1720619902.984383,-0.053768000,0.000000000,0.000000000,-1.189573000,0.000000000,0.000000000,1.011582000,0.000000000,0.000000000,-0.024736000,0.000000000,0.000000000,0.232160000,0.000000000,0.000000000,0.023488000,0.000000000,0.000000000,1720619902.976603746,,,,,,,,,,,
1720619902.991615,-0.053768000,0.000000000,0.000000000,-1.189573000,0.000000000,0.000000000,1.011582000,0.000000000,0.000000000,-0.024736000,0.000000000,0.000000000,0.232416000,0.000000000,0.000000000,0.023424000,0.000000000,0.000000000,1720619902.983603716,,,,,,,,,,,
1720619902.992574,-0.053768000,0.000000000,0.000000000,-1.189573000,0.000000000,0.000000000,1.011582000,0.000000000,0.000000000,-0.024736000,0.000000000,0.000000000,0.232416000,0.000000000,0.000000000,0.023424000,0.000000000,0.000000000,1720619902.984603643,,,,,,,,,,,
1720619902.996458,-0.053768000,0.000000000,0.000000000,-1.189573000,0.000000000,0.000000000,1.011582000,0.000000000,0.000000000,-0.024736000,0.000000000,0.000000000,0.231936000,0.000000000,0.000000000,0.023296000,0.000000000,0.000000000,1720619902.988603592,,,,,,,,,,,
1720619903.003783,-0.053768000,0.000000000,0.000000000,-1.214367000,0.000000000,0.000000000,1.011582000,0.000000000,0.000000000,-0.024736000,0.000000000,0.000000000,0.232416000,0.000000000,0.000000000,0.022816000,0.000000000,0.000000000,1720619902.995603561,,,,,,,,,,,
1720619903.004512,-0.053768000,0.000000000,0.000000000,-1.214367000,0.000000000,0.000000000,1.011582000,0.000000000,0.000000000,-0.024736000,0.000000000,0.000000000,0.232416000,0.000000000,0.000000000,0.022816000,0.000000000,0.000000000,1720619902.996603727,,,,,,,,,,,
1720619903.009118,-0.053768000,0.000000000,0.000000000,-1.199814000,0.000000000,0.000000000,1.011582000,0.000000000,0.000000000,-0.024736000,0.000000000,0.000000000,0.232096000,0.000000000,0.000000000,0.022688000,0.000000000,0.000000000,1720619903.000603676,,,,,,,,,,,
1720619903.016083,-0.053768000,0.000000000,0.000000000,-1.192807000,0.000000000,0.000000000,1.011582000,0.000000000,0.000000000,-0.024736000,0.000000000,0.000000000,0.231872000,0.000000000,0.000000000,0.023488000,0.000000000,0.000000000,1720619903.007603645,,,,,,,,,,,
1720619903.016527,-0.053768000,0.000000000,0.000000000,-1.192807000,0.000000000,0.000000000,1.011582000,0.000000000,0.000000000,-0.024736000,0.000000000,0.000000000,0.231872000,0.000000000,0.000000000,0.023488000,0.000000000,0.000000000,1720619903.008603573,,,,,,,,,,,
1720619903.020193,,,,,,,,,,,,,,,,,,,,1720619903.007603645,-1.186824000,3.141592654,0.000000015,0.829037542,-0.000000022,-0.000000054,0.559192949,1.395152983,0.001110973,1.481517837
1720619903.020339,-0.053768000,0.000000000,0.000000000,-1.200892000,0.000000000,0.000000000,1.011582000,0.000000000,0.000000000,-0.024736000,0.000000000,0.000000000,0.231808000,0.000000000,0.000000000,0.022752000,0.000000000,0.000000000,1720619903.012603760,,,,,,,,,,,
1720619903.027300,-0.053768000,0.000000000,0.000000000,-1.190112000,0.000000000,0.000000000,1.011582000,0.000000000,0.000000000,-0.024736000,0.000000000,0.000000000,0.231936000,0.000000000,0.000000000,0.022816000,0.000000000,0.000000000,1720619903.019603729,,,,,,,,,,,
1720619903.028462,-0.053768000,0.000000000,0.000000000,-1.190112000,0.000000000,0.000000000,1.011582000,0.000000000,0.000000000,-0.024736000,0.000000000,0.000000000,0.231936000,0.000000000,0.000000000,0.022816000,0.000000000,0.000000000,1720619903.020603657,,,,,,,,,,,
1720619903.035803,-0.053768000,0.000000000,0.000000000,-1.197119000,0.000000000,0.000000000,1.011582000,0.000000000,0.000000000,-0.024736000,0.000000000,0.000000000,0.232288000,0.000000000,0.000000000,0.023200000,0.000000000,0.000000000,1720619903.027603626,,,,,,,,,,,
1720619903.042746,-0.053768000,0.000000000,0.000000000,-1.189573000,0.000000000,0.000000000,1.011582000,0.000000000,0.000000000,-0.024736000,0.000000000,0.000000000,0.232000000,0.000000000,0.000000000,0.022944000,0.000000000,0.000000000,1720619903.034603596,,,,,,,,,,,
1720619903.052115,-0.053768000,0.000000000,0.000000000,-1.162084000,0.000000000,0.000000000,1.011582000,0.000000000,0.000000000,-0.024736000,0.000000000,0.000000000,0.231552000,0.000000000,0.000000000,0.022560000,0.000000000,0.000000000,1720619903.043603659,,,,,,,,,,,
1720619903.052671,-0.053768000,0.000000000,0.000000000,-1.162084000,0.000000000,0.000000000,1.011582000,0.000000000,0.000000000,-0.024736000,0.000000000,0.000000000,0.231552000,0.000000000,0.000000000,0.022560000,0.000000000,0.000000000,1720619903.044603586,,,,,,,,,,,
1720619903.053679,-0.053768000,0.000000000,0.000000000,-1.162084000,0.000000000,0.000000000,1.011582000,0.000000000,0.000000000,-0.024736000,0.000000000,0.000000000,0.231552000,0.000000000,0.000000000,0.022560000,0.000000000,0.000000000,1720619903.045603752,,,,,,,,,,,
1720619903.056128,-0.053768000,0.000000000,0.000000000,-1.180410000,0.000000000,0.000000000,1.011582000,0.000000000,0.000000000,-0.024736000,0.000000000,0.000000000,0.231808000,0.000000000,0.000000000,0.023488000,0.000000000,0.000000000,1720619903.047603607,,,,,,,,,,,
1720619903.057463,-0.053768000,0.000000000,0.000000000,-1.180410000,0.000000000,0.000000000,1.011582000,0.000000000,0.000000000,-0.024736000,0.000000000,0.000000000,0.231808000,0.000000000,0.000000000,0.023488000,0.000000000,0.000000000,1720619903.049603701,,,,,,,,,,,
1720619903.059594,-0.053768000,0.000000000,0.000000000,-1.185800000,0.000000000,0.000000000,1.011582000,0.000000000,0.000000000,-0.024736000,0.000000000,0.000000000,0.231808000,0.000000000,0.000000000,0.022624000,0.000000000,0.000000000,1720619903.051603556,,,,,,,,,,,
1720619903.064497,-0.053768000,0.000000000,0.000000000,-1.178793000,0.000000000,0.000000000,1.011582000,0.000000000,0.000000000,-0.024736000,0.000000000,0.000000000,0.231808000,0.000000000,0.000000000,0.023424000,0.000000000,0.000000000,1720619903.056603670,,,,,,,,,,,
1720619903.072210,-0.053768000,0.000000000,0.000000000,-1.185800000,0.000000000,0.000000000,1.011582000,0.000000000,0.000000000,-0.024736000,0.000000000,0.000000000,0.232000000,0.000000000,0.000000000,0.023680000,0.000000000,0.000000000,1720619903.063603640,,,,,,,,,,,
1720619903.072453,-0.053768000,0.000000000,0.000000000,-1.185800000,0.000000000,0.000000000,1.011582000,0.000000000,0.000000000,-0.024736000,0.000000000,0.000000000,0.232000000,0.000000000,0.000000000,0.023680000,0.000000000,0.000000000,1720619903.064603567,,,,,,,,,,,
1720619903.076623,-0.053768000,0.000000000,0.000000000,-1.185800000,0.000000000,0.000000000,1.011582000,0.000000000,0.000000000,-0.024736000,0.000000000,0.000000000,0.231488000,0.000000000,0.000000000,0.022080000,0.000000000,0.000000000,1720619903.068603754,,,,,,,,,,,
1720619903.080204,,,,,,,,,,,,,,,,,,,,1720619903.063603640,-1.186824000,3.141592654,0.000000015,0.829037542,-0.000000022,-0.000000054,0.559192949,1.395152983,0.001110973,1.481517837
1720619903.083472,-0.053768000,0.000000000,0.000000000,-1.185800000,0.000000000,0.000000000,1.011582000,0.000000000,0.000000000,-0.024736000,0.000000000,0.000000000,0.232160000,0.000000000,0.000000000,0.022336000,0.000000000,0.000000000,1720619903.075603724,,,,,,,,,,,
1720619903.084383,-0.053768000,0.000000000,0.000000000,-1.185800000,0.000000000,0.000000000,1.011582000,0.000000000,0.000000000,-0.024736000,0.000000000,0.000000000,0.232160000,0.000000000,0.000000000,0.022336000,0.000000000,0.000000000,1720619903.076603651,,,,,,,,,,,
1720619903.089492,-0.053768000,0.000000000,0.000000000,-1.186878000,0.000000000,0.000000000,1.011582000,0.000000000,0.000000000,-0.024736000,0.000000000,0.000000000,0.231744000,0.000000000,0.000000000,0.023936000,0.000000000,0.000000000,1720619903.081603765,,,,,,,,,,,
1720619903.096907,-0.053768000,0.000000000,0.000000000,-1.191190000,0.000000000,0.000000000,1.011582000,0.000000000,0.000000000,-0.024736000,0.000000000,0.000000000,0.232416000,0.000000000,0.000000000,0.022944000,0.000000000,0.000000000,1720619903.088603735,,,,,,,,,,,
1720619903.097501,-0.053768000,0.000000000,0.000000000,-1.191190000,0.000000000,0.000000000,1.011582000,0.000000000,0.000000000,-0.024736000,0.000000000,0.000000000,0.232416000,0.000000000,0.000000000,0.022944000,0.000000000,0.000000000,1720619903.089603662,,,,,,,,,,,
1720619903.103712,-0.053768000,0.000000000,0.000000000,-1.191190000,0.000000000,0.000000000,1.011582000,0.000000000,0.000000000,-0.024736000,0.000000000,0.000000000,0.231488000,0.000000000,0.000000000,0.023200000,0.000000000,0.000000000,1720619903.095603704,,,,,,,,,,,
1720619903.111302,-0.053768000,0.000000000,0.000000000,-1.189573000,0.000000000,0.000000000,1.011582000,0.000000000,0.000000000,-0.024736000,0.000000000,0.000000000,0.232416000,0.000000000,0.000000000,0.023200000,0.000000000,0.000000000,1720619903.102603674,,,,,,,,,,,
1720619903.120087,-0.053768000,0.000000000,0.000000000,-1.184183000,0.000000000,0.000000000,1.011582000,0.000000000,0.000000000,-0.024736000,0.000000000,0.000000000,0.231232000,0.000000000,0.000000000,0.023744000,0.000000000,0.009134350,1720619903.111603737,,,,,,,,,,,
1720619903.120727,-0.053768000,0.000000000,0.000000000,-1.184183000,0.000000000,0.000000000,1.011582000,0.000000000,0.000000000,-0.024736000,0.000000000,0.000000000,0.231232000,0.000000000,0.000000000,0.023744000,0.000000000,0.009134350,1720619903.112603664,,,,,,,,,,,
1720619903.122710,-0.053768000,0.000000000,0.000000000,-1.185800000,0.000000000,0.000000000,1.011582000,0.000000000,0.000000000,-0.024736000,0.000000000,0.000000000,0.231680000,0.000000000,0.000000000,0.022336000,0.000038380,0.009134350,1720619903.114603758,,,,,,,,,,,
1720619903.130128,,,,,,,,,,,,,,,,,,,,1720619903.114603758,-1.186823998,3.141490200,0.000015924,0.829037542,0.000010709,0.000094939,0.559192948,1.395152983,0.001108959,1.481517794
1720619903.132081,-0.053768000,0.000000000,0.000000000,-1.185800000,0.000000000,0.000000000,1.011582000,0.000000000,0.000000000,-0.024736000,0.000000000,0.000000000,0.231808000,0.000000000,0.000000000,0.022560000,0.000038380,0.009134350,1720619903.123603582,,,,,,,,,,,
1720619903.132113,-0.053768000,0.000000000,0.000000000,-1.185800000,0.000000000,0.000000000,1.011582000,0.000000000,0.000000000,-0.024736000,0.000000000,0.000000000,0.231808000,0.000000000,0.000000000,0.022560000,0.000038380,0.009134350,1720619903.124603748,,,,,,,,,,,
1720619903.134510,-0.053768000,0.000000000,0.000000000,-1.185800000,0.000000000,0.000000000,1.011582000,0.000000000,0.000000000,-0.024736000,0.000000000,0.000000000,0.231680000,0.000000000,0.000000000,0.023616000,0.000000000,0.009134350,1720619903.126603603,,,,,,,,,,,
1720619903.144095,-0.053768000,0.000000000,0.000000000,-1.186878000,0.000000000,0.000000000,1.011582000,0.000000000,0.000000000,-0.024736000,0.000000000,0.000000000,0.231360000,0.000000000,0.000000000,0.024288000,0.000000000,0.009134350,1720619903.135603666,,,,,,,,,,,
1720619903.144841,-0.053768000,0.000000000,0.000000000,-1.186878000,0.000000000,0.000000000,1.011582000,0.000000000,0.000000000,-0.024736000,0.000000000,0.000000000,0.231360000,0.000000000,0.000000000,0.024288000,0.000000000,0.009134350,1720619903.136603594,,,,,,,,,,,
1720619903.147108,-0.053768000,0.000000000,0.000000000,-1.161006000,0.000000000,0.000000000,1.011582000,0.000000000,0.000000000,-0.024736000,0.000000000,0.000000000,0.231808000,0.000000000,0.000000000,0.021824000,0.000038380,0.009134350,1720619903.138603687,,,,,,,,,,,
1720619903.156032,-0.053768000,0.000000000,0.000000000,-1.189573000,0.000000000,0.000000000,1.011582000,0.000000000,0.000000000,-0.024736000,0.000000000,0.000000000,0.232480000,0.000000000,0.000000000,0.022080000,0.000038380,0.009134350,1720619903.147603750,,,,,,,,,,,
1720619903.157229,-0.053768000,0.000000000,0.000000000,-1.189573000,0.000000000,0.000000000,1.011582000,0.000000000,0.000000000,-0.024736000,0.000000000,0.000000000,0.232480000,0.000000000,0.000000000,0.022080000,0.000038380,0.009134350,1720619903.148603678,,,,,,,,,,,
1720619903.158354,-0.053768000,0.000000000,0.000000000,-1.189573000,0.000000000,0.000000000,1.011582000,0.000000000,0.000000000,-0.024736000,0.000000000,0.000000000,0.231872000,0.000000000,0.000000000,0.024128000,0.000000000,0.009134350,1720619903.150603771,,,,,,,,,,,
1720619903.168327,-0.053768000,0.000000000,0.000000000,-1.189573000,0.000000000,0.000000000,1.011582000,0.000000000,0.000000000,-0.024736000,0.000000000,0.000000000,0.232480000,0.000000000,0.000000000,0.024224000,0.000000000,0.009134350,1720619903.159603596,,,,,,,,,,,
1720619903.168793,-0.053768000,0.000000000,0.000000000,-1.189573000,0.000000000,0.000000000,1.011582000,0.000000000,0.000000000,-0.024736000,0.000000000,0.000000000,0.232480000,0.000000000,0.000000000,0.024224000,0.000000000,0.009134350,1720619903.160603762,,,,,,,,,,,
1720619903.171398,-0.053768000,0.000000000,0.000000000,-1.189573000,0.000000000,0.000000000,1.011582000,0.000000000,0.000000000,-0.024736000,0.000000000,0.000000000,0.231680000,0.000000000,0.000000000,0.021760000,0.000038380,0.009134350,1720619903.162603617,,,,,,,,,,,
1720619903.180314,-0.053768000,0.000000000,0.000000000,-1.190112000,0.000000000,0.000000000,1.011582000,0.000000000,0.000000000,-0.024736000,0.000000000,0.000000000,0.232096000,0.000000000,0.000000000,0.022208000,0.000038380,0.009134350,1720619903.171603680,,,,,,,,,,,
1720619903.181439,-0.053768000,0.000000000,0.000000000,-1.190112000,0.000000000,0.000000000,1.011582000,0.000000000,0.000000000,-0.024736000,0.000000000,0.000000000,0.232096000,0.000000000,0.000000000,0.022208000,0.000038380,0.009134350,1720619903.172603607,,,,,,,,,,,
1720619903.182842,-0.053768000,0.000000000,0.000000000,-1.190112000,0.000000000,0.000000000,1.011582000,0.000000000,0.000000000,-0.024736000,0.000000000,0.000000000,0.231488000,0.000000000,0.000000000,0.023424000,0.000000000,0.009134350,1720619903.174603701,,,,,,,,,,,
1720619903.190216,,,,,,,,,,,,,,,,,,,,1720619903.171603680,-1.186823998,3.141490200,0.000015924,0.829037542,0.000010709,0.000094939,0.559192948,1.395152983,0.001108959,1.481517794
1720619903.192517,-0.053768000,0.000000000,0.000000000,-1.208977000,0.000000000,0.000000000,1.011582000,0.000000000,0.000000000,-0.024736000,0.000000000,0.000000000,0.231488000,0.000000000,0.000000000,0.022144000,0.000038380,0.009134350,1720619903.183603764,,,,,,,,,,,
1720619903.193099,-0.053768000,0.000000000,0.000000000,-1.208977000,0.000000000,0.000000000,1.011582000,0.000000000,0.000000000,-0.024736000,0.000000000,0.000000000,0.231488000,0.000000000,0.000000000,0.022144000,0.000038380,0.009134350,1720619903.184603691,,,,,,,,,,,
1720619903.194910,-0.053768000,0.000000000,0.000000000,-1.185261000,0.000000000,0.000000000,1.011582000,0.000000000,0.000000000,-0.024736000,0.000000000,0.000000000,0.232000000,0.000000000,0.000000000,0.024000000,0.000000000,0.009134350,1720619903.186603785,,,,,,,,,,,
1720619903.208077,-0.053768000,0.000000000,0.000000000,-1.179871000,0.000000000,0.000000000,1.011582000,0.000000000,0.000000000,-0.024736000,0.000000000,0.000000000,0.232416000,0.000000000,0.000000000,0.023008000,0.000000000,0.000000000,1720619903.197603703,,,,,,,,,,,
1720619903.215040,-0.053768000,0.000000000,0.000000000,-1.184183000,0.000000000,0.000000000,1.011582000,0.000000000,0.000000000,-0.024736000,0.000000000,0.000000000,0.231680000,0.000000000,0.000000000,0.024000000,0.000000000,0.000000000,1720619903.206603765,,,,,,,,,,,
