zakjeens/yaskawa_debug_materials/t16/joints.csv
__time,/joint_states/group_1/joint_1/effort,/joint_states/group_1/joint_1/position,/joint_states/group_1/joint_1/velocity,/joint_states/group_1/joint_2/effort,/joint_states/group_1/joint_2/position,/joint_states/group_1/joint_2/velocity,/joint_states/group_1/joint_3/effort,/joint_states/group_1/joint_3/position,/joint_states/group_1/joint_3/velocity,/joint_states/group_1/joint_4/effort,/joint_states/group_1/joint_4/position,/joint_states/group_1/joint_4/velocity,/joint_states/group_1/joint_5/effort,/joint_states/group_1/joint_5/position,/joint_states/group_1/joint_5/velocity,/joint_states/group_1/joint_6/effort,/joint_states/group_1/joint_6/position,/joint_states/group_1/joint_6/velocity,/joint_states/header/stamp,/world_to_torch/header/header/stamp,/world_to_torch/transform/rotation/pitch,/world_to_torch/transform/rotation/roll,/world_to_torch/transform/rotation/w,/world_to_torch/transform/rotation/x,/world_to_torch/transform/rotation/y,/world_to_torch/transform/rotation/yaw,/world_to_torch/transform/rotation/z,/world_to_torch/transform/translation/x,/world_to_torch/transform/translation/y,/world_to_torch/transform/translation/z
1720621485.450582,,,,,,,,,,,,,,,,,,,,1720621485.435183525,-1.186824000,3.141592654,0.000000015,0.829037542,-0.000000022,-0.000000054,0.559192949,1.395152983,0.001110973,1.481517837
1720621485.500634,,,,,,,,,,,,,,,,,,,,1720621485.487183332,-1.186824000,3.141592654,0.000000015,0.829037542,-0.000000022,-0.000000054,0.559192949,1.395152983,0.001110973,1.481517837
1720621485.560880,,,,,,,,,,,,,,,,,,,,1720621485.543183327,-1.186824000,3.141592654,0.000000015,0.829037542,-0.000000022,-0.000000054,0.559192949,1.395152983,0.001110973,1.481517837
1720621485.610719,,,,,,,,,,,,,,,,,,,,1720621485.599183321,-1.186824000,3.141592654,0.000000015,0.829037542,-0.000000022,-0.000000054,0.559192949,1.395152983,0.001110973,1.481517837
1720621485.670735,,,,,,,,,,,,,,,,,,,,1720621485.655183315,-1.186824000,3.141592654,0.000000015,0.829037542,-0.000000022,-0.000000054,0.559192949,1.395152983,0.001110973,1.481517837
1720621485.720607,,,,,,,,,,,,,,,,,,,,1720621485.711183310,-1.186824000,3.141592654,0.000000015,0.829037542,-0.000000022,-0.000000054,0.559192949,1.395152983,0.001110973,1.481517837
1720621485.770599,,,,,,,,,,,,,,,,,,,,1720621485.763183355,-1.186824000,3.141592654,0.000000015,0.829037542,-0.000000022,-0.000000054,0.559192949,1.395152983,0.001110973,1.481517837
1720621485.830844,,,,,,,,,,,,,,,,,,,,1720621485.816183329,-1.186824000,3.141592654,0.000000015,0.829037542,-0.000000022,-0.000000054,0.559192949,1.395152983,0.001110973,1.481517837
1720621485.890793,,,,,,,,,,,,,,,,,,,,1720621485.875183344,-1.186824000,3.141592654,0.000000015,0.829037542,-0.000000022,-0.000000054,0.559192949,1.395152983,0.001110973,1.481517837
1720621485.940808,,,,,,,,,,,,,,,,,,,,1720621485.926183462,-1.186824000,3.141592654,0.000000015,0.829037542,-0.000000022,-0.000000054,0.559192949,1.395152983,0.001110973,1.481517837
1720621485.990776,,,,,,,,,,,,,,,,,,,,1720621485.977183342,-1.186824000,3.141592654,0.000000015,0.829037542,-0.000000022,-0.000000054,0.559192949,1.395152983,0.001110973,1.481517837
1720621486.050689,,,,,,,,,,,,,,,,,,,,1720621486.031183481,-1.186824000,3.141592654,0.000000015,0.829037542,-0.000000022,-0.000000054,0.559192949,1.395152983,0.001110973,1.481517837
1720621486.100693,,,,,,,,,,,,,,,,,,,,1720621486.087183475,-1.186824000,3.141592654,0.000000015,0.829037542,-0.000000022,-0.000000054,0.559192949,1.395152983,0.001110973,1.481517837
1720621486.150818,,,,,,,,,,,,,,,,,,,,1720621486.138183355,-1.186824000,3.141592654,0.000000015,0.829037542,-0.000000022,-0.000000054,0.559192949,1.395152983,0.001110973,1.481517837
1720621486.210823,,,,,,,,,,,,,,,,,,,,1720621486.194183350,-1.186824000,3.141592654,0.000000015,0.829037542,-0.000000022,-0.000000054,0.559192949,1.395152983,0.001110973,1.481517837
1720621486.260489,,,,,,,,,,,,,,,,,,,,1720621486.245183468,-1.186824000,3.141592654,0.000000015,0.829037542,-0.000000022,-0.000000054,0.559192949,1.395152983,0.001110973,1.481517837
1720621486.320727,,,,,,,,,,,,,,,,,,,,1720621486.302183390,-1.186824000,3.141592654,0.000000015,0.829037542,-0.000000022,-0.000000054,0.559192949,1.395152983,0.001110973,1.481517837
1720621486.370599,,,,,,,,,,,,,,,,,,,,1720621486.358183384,-1.186824000,3.141592654,0.000000015,0.829037542,-0.000000022,-0.000000054,0.559192949,1.395152983,0.001110973,1.481517837
1720621486.394342,-0.058344000,0.000000000,0.000000000,-1.156155000,0.000000000,0.000000000,1.014728000,0.000000000,0.000000000,-0.025344000,0.000000000,0.000000000,0.236192000,0.000000000,0.000000000,0.027136000,0.000000000,0.000000000,1720621486.386183500,,,,,,,,,,,
1720621486.406342,-0.058916000,0.000000000,0.000000000,-1.156155000,0.000000000,0.000000000,1.015300000,0.000000000,0.000000000,-0.025344000,0.000000000,0.000000000,0.235744000,0.000000000,0.000000000,0.027392000,0.000000000,0.000000000,1720621486.398183346,,,,,,,,,,,
1720621486.413654,-0.058916000,0.000000000,0.000000000,-1.156694000,0.000000000,0.000000000,1.015872000,0.000000000,0.000000000,-0.025344000,0.000000000,0.000000000,0.236064000,0.000000000,0.000000000,0.026880000,0.000000000,0.000000000,1720621486.405183315,,,,,,,,,,,
1720621486.415093,-0.058916000,0.000000000,0.000000000,-1.156694000,0.000000000,0.000000000,1.015872000,0.000000000,0.000000000,-0.025344000,0.000000000,0.000000000,0.236064000,0.000000000,0.000000000,0.026880000,0.000000000,0.000000000,1720621486.406183481,,,,,,,,,,,
1720621486.418423,-0.059488000,0.000000000,0.000000000,-1.157772000,0.000000000,0.000000000,1.015872000,0.000000000,0.000000000,-0.025344000,0.000000000,0.000000000,0.235808000,0.000000000,0.000000000,0.029184000,0.000000000,0.000000000,1720621486.410183430,,,,,,,,,,,
1720621486.420677,,,,,,,,,,,,,,,,,,,,1720621486.410183430,-1.186824000,3.141592654,0.000000015,0.829037542,-0.000000022,-0.000000054,0.559192949,1.395152983,0.001110973,1.481517837
1720621486.426824,-0.058344000,0.000000000,0.000000000,-1.159389000,0.000000000,0.000000000,1.015300000,0.000000000,0.000000000,-0.025344000,0.000000000,0.000000000,0.235680000,0.000000000,0.000000000,0.028992000,0.000000000,0.000000000,1720621486.418183327,,,,,,,,,,,
1720621486.430286,-0.058344000,0.000000000,0.000000000,-1.159389000,0.000000000,0.000000000,1.015300000,0.000000000,0.000000000,-0.025344000,0.000000000,0.000000000,0.236384000,0.000000000,0.000000000,0.027008000,0.000000000,0.000000000,1720621486.422183514,,,,,,,,,,,
1720621486.447046,-0.058344000,0.000000000,0.000000000,-1.157772000,0.000000000,0.000000000,1.015300000,0.000000000,0.000000000,-0.025344000,0.000000000,0.000000000,0.235520000,0.000000000,0.000000000,0.028192000,0.000000000,0.000000000,1720621486.433183432,,,,,,,,,,,
1720621486.447059,-0.058344000,0.000000000,0.000000000,-1.156694000,0.000000000,0.000000000,1.015300000,0.000000000,0.000000000,-0.025344000,0.000000000,0.000000000,0.236320000,0.000000000,0.000000000,0.027648000,0.000000000,0.000000000,1720621486.439183474,,,,,,,,,,,
1720621486.449386,-0.058344000,0.000000000,0.000000000,-1.156694000,0.000000000,0.000000000,1.015300000,0.000000000,0.000000000,-0.025344000,0.000000000,0.000000000,0.236192000,0.000000000,0.000000000,0.028000000,0.000000000,0.000000000,1720621486.441183329,,,,,,,,,,,
1720621486.453326,-0.058344000,0.000000000,0.000000000,-1.156694000,0.000000000,0.000000000,1.015300000,0.000000000,0.000000000,-0.025344000,0.000000000,0.000000000,0.235456000,0.000000000,0.000000000,0.027872000,0.000000000,0.000000000,1720621486.445183516,,,,,,,,,,,
1720621486.461574,-0.058344000,0.000000000,0.000000000,-1.156694000,0.000000000,0.000000000,1.015300000,0.000000000,0.000000000,-0.025344000,0.000000000,0.000000000,0.235744000,0.000000000,0.000000000,0.027872000,0.000000000,0.000000000,1720621486.453183413,,,,,,,,,,,
1720621486.465542,-0.058344000,0.000000000,0.000000000,-1.156694000,0.000000000,0.000000000,1.015300000,0.000000000,0.000000000,-0.025344000,0.000000000,0.000000000,0.236000000,0.000000000,0.000000000,0.028384000,0.000000000,0.000000000,1720621486.457183361,,,,,,,,,,,
1720621486.477479,-0.058344000,0.000000000,0.000000000,-1.156694000,0.000000000,0.000000000,1.015300000,0.000000000,0.000000000,-0.025344000,0.000000000,0.000000000,0.236000000,0.000000000,0.000000000,0.027520000,0.000000000,0.000000000,1720621486.469183445,,,,,,,,,,,
1720621486.480568,,,,,,,,,,,,,,,,,,,,1720621486.469183445,-1.186824000,3.141592654,0.000000015,0.829037542,-0.000000022,-0.000000054,0.559192949,1.395152983,0.001110973,1.481517837
1720621486.483681,-0.058344000,0.000000000,0.000000000,-1.156694000,0.000000000,0.000000000,1.015300000,0.000000000,0.000000000,-0.025344000,0.000000000,0.000000000,0.235744000,0.000000000,0.000000000,0.028384000,0.000000000,0.000000000,1720621486.475183487,,,,,,,,,,,
1720621486.486096,-0.058344000,0.000000000,0.000000000,-1.156694000,0.000000000,0.000000000,1.015300000,0.000000000,0.000000000,-0.025344000,0.000000000,0.000000000,0.235520000,0.000000000,0.000000000,0.027808000,0.000000000,0.000000000,1720621486.477183342,,,,,,,,,,,
1720621486.489278,-0.058344000,0.000000000,0.000000000,-1.157772000,0.000000000,0.000000000,1.015300000,0.000000000,0.000000000,-0.025344000,0.000000000,0.000000000,0.235520000,0.000000000,0.000000000,0.027808000,0.000000000,0.000000000,1720621486.481183529,,,,,,,,,,,
1720621486.497877,-0.058344000,0.000000000,0.000000000,-1.157772000,0.000000000,0.000000000,1.015300000,0.000000000,0.000000000,-0.025344000,0.000000000,0.000000000,0.235264000,0.000000000,0.000000000,0.027264000,0.000000000,0.000000000,1720621486.489183426,,,,,,,,,,,
1720621486.502631,-0.058344000,0.000000000,0.000000000,-1.158311000,0.000000000,0.000000000,1.015300000,0.000000000,0.000000000,-0.025344000,0.000000000,0.000000000,0.235744000,0.000000000,0.000000000,0.028256000,0.000000000,0.000000000,1720621486.494183302,,,,,,,,,,,
1720621486.509886,-0.058344000,0.000000000,0.000000000,-1.156155000,0.000000000,0.000000000,1.015300000,0.000000000,0.000000000,-0.025344000,0.000000000,0.000000000,0.235936000,0.000000000,0.000000000,0.028384000,0.000000000,0.000000000,1720621486.501183510,,,,,,,,,,,
1720621486.510517,-0.058344000,0.000000000,0.000000000,-1.156155000,0.000000000,0.000000000,1.015300000,0.000000000,0.000000000,-0.025344000,0.000000000,0.000000000,0.235936000,0.000000000,0.000000000,0.028384000,0.000000000,0.000000000,1720621486.502183437,,,,,,,,,,,
1720621486.514595,-0.058344000,0.000000000,0.000000000,-1.156155000,0.000000000,0.000000000,1.015300000,0.000000000,0.000000000,-0.025344000,0.000000000,0.000000000,0.234880000,0.000000000,0.000000000,0.027456000,0.000000000,0.000000000,1720621486.506183386,,,,,,,,,,,
1720621486.521975,-0.058916000,0.000000000,0.000000000,-1.155077000,0.000000000,0.000000000,1.015300000,0.000000000,0.000000000,-0.025344000,0.000000000,0.000000000,0.235392000,0.000000000,0.000000000,0.027648000,0.000000000,0.000000000,1720621486.513183355,,,,,,,,,,,
1720621486.522736,-0.058916000,0.000000000,0.000000000,-1.155077000,0.000000000,0.000000000,1.015300000,0.000000000,0.000000000,-0.025344000,0.000000000,0.000000000,0.235392000,0.000000000,0.000000000,0.027648000,0.000000000,0.000000000,1720621486.514183521,,,,,,,,,,,
1720621486.526762,-0.058344000,0.000000000,0.000000000,-1.151304000,0.000000000,0.000000000,1.015300000,0.000000000,0.000000000,-0.025344000,0.000000000,0.000000000,0.235456000,0.000000000,0.000000000,0.028192000,0.000000000,0.000000000,1720621486.518183470,,,,,,,,,,,
1720621486.534000,-0.058344000,0.000000000,0.000000000,-1.151304000,0.000000000,0.000000000,1.015300000,0.000000000,0.000000000,-0.025344000,0.000000000,0.000000000,0.236384000,0.000000000,0.000000000,0.028320000,0.000000000,0.000000000,1720621486.525183439,,,,,,,,,,,
1720621486.534618,-0.058344000,0.000000000,0.000000000,-1.151304000,0.000000000,0.000000000,1.015300000,0.000000000,0.000000000,-0.025344000,0.000000000,0.000000000,0.236384000,0.000000000,0.000000000,0.028320000,0.000000000,0.000000000,1720621486.526183367,,,,,,,,,,,
1720621486.539109,-0.038324000,0.000000000,0.000000000,-1.191190000,0.000000000,0.000000000,1.015300000,0.000000000,0.000000000,-0.025344000,0.000000000,0.000000000,0.236000000,0.000000000,0.000000000,0.028000000,0.000000000,0.000000000,1720621486.530183315,,,,,,,,,,,
1720621486.540538,,,,,,,,,,,,,,,,,,,,1720621486.525183439,-1.186824000,3.141592654,0.000000015,0.829037542,-0.000000022,-0.000000054,0.559192949,1.395152983,0.001110973,1.481517837
1720621486.546314,-0.058344000,0.000000000,0.000000000,-1.158311000,0.000000000,0.000000000,1.015300000,0.000000000,0.000000000,-0.025344000,0.000000000,0.000000000,0.235744000,0.000000000,0.000000000,0.027584000,0.000000000,0.000000000,1720621486.537183523,,,,,,,,,,,
1720621486.546957,-0.058344000,0.000000000,0.000000000,-1.158311000,0.000000000,0.000000000,1.015300000,0.000000000,0.000000000,-0.025344000,0.000000000,0.000000000,0.235744000,0.000000000,0.000000000,0.027584000,0.000000000,0.000000000,1720621486.538183451,,,,,,,,,,,
1720621486.550388,-0.058344000,0.000000000,0.000000000,-1.158311000,0.000000000,0.000000000,1.015300000,0.000000000,0.000000000,-0.025344000,0.000000000,0.000000000,0.236128000,0.000000000,0.000000000,0.028320000,0.000000000,0.000000000,1720621486.542183399,,,,,,,,,,,
1720621486.557734,-0.058344000,0.000000000,0.000000000,-1.157772000,0.000000000,0.000000000,1.015300000,0.000000000,0.000000000,-0.025344000,0.000000000,0.000000000,0.235872000,0.000000000,0.000000000,0.028256000,0.000000000,0.000000000,1720621486.549183369,,,,,,,,,,,
1720621486.559295,-0.058344000,0.000000000,0.000000000,-1.157772000,0.000000000,0.000000000,1.015300000,0.000000000,0.000000000,-0.025344000,0.000000000,0.000000000,0.235872000,0.000000000,0.000000000,0.028256000,0.000000000,0.000000000,1720621486.550183296,,,,,,,,,,,
1720621486.562417,-0.058344000,0.000000000,0.000000000,-1.179871000,0.000000000,0.000000000,1.015300000,0.000000000,0.000000000,-0.025344000,0.000000000,0.000000000,0.235456000,0.000000000,0.000000000,0.027456000,0.000000000,0.000000000,1720621486.554183483,,,,,,,,,,,
1720621486.569784,-0.058344000,0.000000000,0.000000000,-1.155077000,0.000000000,0.000000000,1.015300000,0.000000000,0.000000000,-0.025344000,0.000000000,0.000000000,0.235872000,0.000000000,0.000000000,0.027520000,0.000000000,0.000000000,1720621486.561183453,,,,,,,,,,,
1720621486.570792,-0.058344000,0.000000000,0.000000000,-1.155077000,0.000000000,0.000000000,1.015300000,0.000000000,0.000000000,-0.025344000,0.000000000,0.000000000,0.235872000,0.000000000,0.000000000,0.027520000,0.000000000,0.000000000,1720621486.562183380,,,,,,,,,,,
1720621486.574603,-0.058344000,0.000000000,0.000000000,-1.155077000,0.000000000,0.000000000,1.015300000,0.000000000,0.000000000,-0.025344000,0.000000000,0.000000000,0.236128000,0.000000000,0.000000000,0.028128000,0.000000000,0.000000000,1720621486.566183329,,,,,,,,,,,
1720621486.582162,-0.058344000,0.000000000,0.000000000,-1.155077000,0.000000000,0.000000000,1.015300000,0.000000000,0.000000000,-0.025344000,0.000000000,0.000000000,0.235872000,0.000000000,0.000000000,0.028320000,0.000000000,0.000000000,1720621486.573183298,,,,,,,,,,,
1720621486.582669,-0.058344000,0.000000000,0.000000000,-1.155077000,0.000000000,0.000000000,1.015300000,0.000000000,0.000000000,-0.025344000,0.000000000,0.000000000,0.235872000,0.000000000,0.000000000,0.028320000,0.000000000,0.000000000,1720621486.574183464,,,,,,,,,,,
1720621486.586876,-0.059488000,0.000000000,0.000000000,-1.155077000,0.000000000,0.000000000,1.015300000,0.000000000,0.000000000,-0.025344000,0.000000000,0.000000000,0.236064000,0.000000000,0.000000000,0.027872000,0.000000000,0.000000000,1720621486.578183413,,,,,,,,,,,
1720621486.590815,,,,,,,,,,,,,,,,,,,,1720621486.578183413,-1.186824000,3.141592654,0.000000015,0.829037542,-0.000000022,-0.000000054,0.559192949,1.395152983,0.001110973,1.481517837
1720621486.593805,-0.058916000,0.000000000,0.000000000,-1.150765000,0.000000000,0.000000000,1.015300000,0.000000000,0.000000000,-0.025344000,0.000000000,0.000000000,0.235264000,0.000000000,0.000000000,0.028512000,0.000000000,0.000000000,1720621486.585183382,,,,,,,,,,,
1720621486.594789,-0.058916000,0.000000000,0.000000000,-1.150765000,0.000000000,0.000000000,1.015300000,0.000000000,0.000000000,-0.025344000,0.000000000,0.000000000,0.235264000,0.000000000,0.000000000,0.028512000,0.000000000,0.000000000,1720621486.586183310,,,,,,,,,,,
1720621486.599576,-0.058344000,0.000000000,0.000000000,-1.157772000,0.000000000,0.000000000,1.015300000,0.000000000,0.000000000,-0.025344000,0.000000000,0.000000000,0.235936000,0.000000000,0.000000000,0.027872000,0.000000000,0.000000000,1720621486.591183424,,,,,,,,,,,
1720621486.606904,-0.058344000,0.000000000,0.000000000,-1.158311000,0.000000000,0.000000000,1.015300000,0.000000000,0.000000000,-0.025344000,0.000000000,0.000000000,0.236000000,0.000000000,0.000000000,0.027456000,0.000000000,0.000000000,1720621486.598183393,,,,,,,,,,,
1720621486.607721,-0.058344000,0.000000000,0.000000000,-1.158311000,0.000000000,0.000000000,1.015300000,0.000000000,0.000000000,-0.025344000,0.000000000,0.000000000,0.236000000,0.000000000,0.000000000,0.027456000,0.000000000,0.000000000,1720621486.599183321,,,,,,,,,,,
1720621486.613798,-0.058344000,0.000000000,0.000000000,-1.156155000,0.000000000,0.000000000,1.015300000,0.000000000,0.000000000,-0.025344000,0.000000000,0.000000000,0.235584000,0.000000000,0.000000000,0.027328000,0.000000000,0.000000000,1720621486.605183363,,,,,,,,,,,
1720621486.620740,-0.058344000,0.000000000,0.000000000,-1.156155000,0.000000000,0.000000000,1.015300000,0.000000000,0.000000000,-0.025344000,0.000000000,0.000000000,0.235936000,0.000000000,0.000000000,0.027712000,0.000000000,0.000000000,1720621486.612183332,,,,,,,,,,,
1720621486.630316,-0.058344000,0.000000000,0.000000000,-1.156694000,0.000000000,0.000000000,1.015300000,0.000000000,0.000000000,-0.025344000,0.000000000,0.000000000,0.235808000,0.000000000,0.000000000,0.027008000,0.000000000,0.000000000,1720621486.621183395,,,,,,,,,,,
1720621486.630619,-0.058344000,0.000000000,0.000000000,-1.156694000,0.000000000,0.000000000,1.015300000,0.000000000,0.000000000,-0.025344000,0.000000000,0.000000000,0.235808000,0.000000000,0.000000000,0.027008000,0.000000000,0.000000000,1720621486.622183323,,,,,,,,,,,
1720621486.632549,-0.058344000,0.000000000,0.000000000,-1.156694000,0.000000000,0.000000000,1.015300000,0.000000000,0.000000000,-0.025344000,0.000000000,0.000000000,0.235744000,0.000000000,0.000000000,0.028864000,0.000000000,0.000000000,1720621486.624183416,,,,,,,,,,,
1720621486.642284,-0.058344000,0.000000000,0.000000000,-1.156155000,0.000000000,0.000000000,1.014156000,0.000000000,0.000000000,-0.025344000,0.000000000,0.000000000,0.235328000,0.000000000,0.000000000,0.028128000,0.000000000,0.000000000,1720621486.633183479,,,,,,,,,,,
1720621486.642990,-0.058344000,0.000000000,0.000000000,-1.156155000,0.000000000,0.000000000,1.014156000,0.000000000,0.000000000,-0.025344000,0.000000000,0.000000000,0.235328000,0.000000000,0.000000000,0.028128000,0.000000000,0.000000000,1720621486.634183407,,,,,,,,,,,
1720621486.643896,-0.058344000,0.000000000,0.000000000,-1.156155000,0.000000000,0.000000000,1.014156000,0.000000000,0.000000000,-0.025344000,0.000000000,0.000000000,0.235328000,0.000000000,0.000000000,0.028128000,0.000000000,0.000000000,1720621486.635183334,,,,,,,,,,,
1720621486.645845,-0.058344000,0.000000000,0.000000000,-1.156155000,0.000000000,0.000000000,1.014156000,0.000000000,0.000000000,-0.025344000,0.000000000,0.000000000,0.236384000,0.000000000,0.000000000,0.028192000,0.000000000,0.000000000,1720621486.637183428,,,,,,,,,,,
1720621486.649671,-0.058344000,0.000000000,0.000000000,-1.156155000,0.000000000,0.000000000,1.014156000,0.000000000,0.000000000,-0.025344000,0.000000000,0.000000000,0.235744000,0.000000000,0.000000000,0.027584000,0.000000000,0.000000000,1720621486.641183376,,,,,,,,,,,
1720621486.650886,,,,,,,,,,,,,,,,,,,,1720621486.633183479,-1.186824000,3.141592654,0.000000015,0.829037542,-0.000000022,-0.000000054,0.559192949,1.395152983,0.001110973,1.481517837
1720621486.658124,-0.058344000,0.000000000,0.000000000,-1.156694000,0.000000000,0.000000000,1.014728000,0.000000000,0.000000000,-0.025344000,0.000000000,0.000000000,0.235456000,0.000000000,0.000000000,0.028448000,0.000000000,0.000000000,1720621486.649183512,,,,,,,,,,,
1720621486.661727,-0.058344000,0.000000000,0.000000000,-1.156694000,0.000000000,0.000000000,1.015300000,0.000000000,0.000000000,-0.025344000,0.000000000,0.000000000,0.235392000,0.000000000,0.000000000,0.027584000,0.000000000,0.000000000,1720621486.653183460,,,,,,,,,,,
1720621486.670213,-0.058344000,0.000000000,0.000000000,-1.156694000,0.000000000,0.000000000,1.015872000,0.000000000,0.000000000,-0.025280000,0.000000000,0.000000000,0.236064000,0.000000000,0.000000000,0.028000000,0.000000000,0.000000000,1720621486.661183357,,,,,,,,,,,
1720621486.673701,-0.058344000,0.000000000,0.000000000,-1.156694000,0.000000000,0.000000000,1.015872000,0.000000000,0.000000000,-0.025280000,0.000000000,0.000000000,0.235936000,0.000000000,0.000000000,0.027808000,0.000000000,0.000000000,1720621486.665183306,,,,,,,,,,,
1720621486.682427,-0.058344000,0.000000000,0.000000000,-1.156694000,0.000000000,0.000000000,1.015300000,0.000000000,0.000000000,-0.025280000,0.000000000,0.000000000,0.236000000,0.000000000,0.000000000,0.027072000,0.000000000,0.000000000,1720621486.673183441,,,,,,,,,,,
1720621486.685678,-0.058344000,0.000000000,0.000000000,-1.156694000,0.000000000,0.000000000,1.015300000,0.000000000,0.000000000,-0.025280000,0.000000000,0.000000000,0.235808000,0.000000000,0.000000000,0.028320000,0.000000000,0.000000000,1720621486.677183390,,,,,,,,,,,
1720621486.694225,-0.058916000,0.000000000,0.000000000,-1.156694000,0.000000000,0.000000000,1.015300000,0.000000000,0.000000000,-0.025280000,0.000000000,0.000000000,0.236384000,0.000000000,0.000000000,0.027872000,0.000000000,0.000000000,1720621486.685183525,,,,,,,,,,,
1720621486.697265,-0.058916000,0.000000000,0.000000000,-1.156694000,0.000000000,0.000000000,1.015300000,0.000000000,0.000000000,-0.025280000,0.000000000,0.000000000,0.236128000,0.000000000,0.000000000,0.027648000,0.000000000,0.000000000,1720621486.688183308,,,,,,,,,,,
1720621486.700587,,,,,,,,,,,,,,,,,,,,1720621486.685183525,-1.186824000,3.141592654,0.000000015,0.829037542,-0.000000022,-0.000000054,0.559192949,1.395152983,0.001110973,1.481517837
1720621486.704842,-0.058344000,0.000000000,0.000000000,-1.156694000,0.000000000,0.000000000,1.015300000,0.000000000,0.000000000,-0.025280000,0.000000000,0.000000000,0.235936000,0.000000000,0.000000000,0.027808000,0.000000000,0.000000000,1720621486.696183443,,,,,,,,,,,
1720621486.709462,-0.058344000,0.000000000,0.000000000,-1.156694000,0.000000000,0.000000000,1.015300000,0.000000000,0.000000000,-0.025280000,0.000000000,0.000000000,0.235936000,0.000000000,0.000000000,0.028320000,0.000000000,0.000000000,1720621486.700183392,,,,,,,,,,,
1720621486.716978,-0.058344000,0.000000000,0.000000000,-1.156155000,0.000000000,0.000000000,1.015300000,0.000000000,0.000000000,-0.025280000,0.000000000,0.000000000,0.235872000,0.000000000,0.000000000,0.029056000,0.000000000,0.000000000,1720621486.708183527,,,,,,,,,,,
1720621486.730091,-0.058344000,0.000000000,0.000000000,-1.165857000,0.000000000,0.000000000,1.015300000,0.000000000,0.000000000,-0.025280000,0.000000000,0.000000000,0.236256000,0.000000000,0.000000000,0.029376000,0.000000000,0.000000000,1720621486.719183445,,,,,,,,,,,
1720621486.742205,-0.058344000,0.000000000,0.000000000,-1.149687000,0.000000000,0.000000000,1.015300000,0.000000000,0.000000000,-0.025280000,0.000000000,0.000000000,0.235872000,0.000000000,0.000000000,0.026784000,0.000000000,0.000000000,1720621486.731183529,,,,,,,,,,,
1720621486.746523,-0.058344000,0.000000000,0.000000000,-1.156155000,0.000000000,0.000000000,1.015300000,0.000000000,0.000000000,-0.025280000,0.000000000,0.000000000,0.235936000,0.000000000,0.000000000,0.026336000,0.000000000,0.000000000,1720621486.737183332,,,,,,,,,,,
1720621486.747420,-0.058344000,0.000000000,0.000000000,-1.156155000,0.000000000,0.000000000,1.015300000,0.000000000,0.000000000,-0.025280000,0.000000000,0.000000000,0.235936000,0.000000000,0.000000000,0.026336000,0.000000000,0.000000000,1720621486.738183498,,,,,,,,,,,
1720621486.749438,-0.058344000,0.000000000,0.000000000,-1.156694000,0.000000000,0.000000000,1.015300000,0.000000000,0.000000000,-0.025280000,0.000000000,0.000000000,0.235744000,0.000000000,0.000000000,0.029984000,0.000000000,0.000000000,1720621486.740183353,,,,,,,,,,,
1720621486.750713,,,,,,,,,,,,,,,,,,,,1720621486.737183332,-1.186824000,3.141592654,0.000000015,0.829037542,-0.000000022,-0.000000054,0.559192949,1.395152983,0.001110973,1.481517837
1720621486.758504,-0.058344000,0.000000000,0.000000000,-1.164779000,0.000000000,0.000000000,1.015300000,0.000000000,0.000000000,-0.025280000,0.000000000,0.000000000,0.235936000,0.000000000,0.000000000,0.029600000,0.000000000,0.000000000,1720621486.749183416,,,,,,,,,,,
1720621486.759761,-0.058344000,0.000000000,0.000000000,-1.164779000,0.000000000,0.000000000,1.015300000,0.000000000,0.000000000,-0.025280000,0.000000000,0.000000000,0.235936000,0.000000000,0.000000000,0.029600000,0.000000000,0.000000000,1720621486.750183344,,,,,,,,,,,
1720621486.761095,-0.058344000,0.000000000,0.000000000,-1.161006000,0.000000000,0.000000000,1.015300000,0.000000000,0.000000000,-0.025280000,0.000000000,0.000000000,0.236192000,0.000000000,0.000000000,0.026528000,0.000000000,0.000000000,1720621486.752183437,,,,,,,,,,,
1720621486.770434,-0.058344000,0.000000000,0.000000000,-1.161006000,0.000000000,0.000000000,1.015300000,0.000000000,0.000000000,-0.025280000,0.000000000,0.000000000,0.235520000,0.000000000,0.000000000,0.027328000,0.000000000,0.000000000,1720621486.761183500,,,,,,,,,,,
1720621486.770929,-0.058344000,0.000000000,0.000000000,-1.161006000,0.000000000,0.000000000,1.015300000,0.000000000,0.000000000,-0.025280000,0.000000000,0.000000000,0.235520000,0.000000000,0.000000000,0.027328000,0.000000000,0.000000000,1720621486.762183428,,,,,,,,,,,
1720621486.772965,-0.058344000,0.000000000,0.000000000,-1.161006000,0.000000000,0.000000000,1.015300000,0.000000000,0.000000000,-0.025280000,0.000000000,0.000000000,0.235520000,0.000000000,0.000000000,0.028192000,0.000000000,0.000000000,1720621486.764183521,,,,,,,,,,,
1720621486.782625,-0.058344000,0.000000000,0.000000000,-1.161006000,0.000000000,0.000000000,1.015300000,0.000000000,0.000000000,-0.025280000,0.000000000,0.000000000,0.235744000,0.000000000,0.000000000,0.027936000,0.000000000,0.000000000,1720621486.773183346,,,,,,,,,,,
1720621486.782836,-0.058344000,0.000000000,0.000000000,-1.161006000,0.000000000,0.000000000,1.015300000,0.000000000,0.000000000,-0.025280000,0.000000000,0.000000000,0.235744000,0.000000000,0.000000000,0.027936000,0.000000000,0.000000000,1720621486.774183512,,,,,,,,,,,
1720621486.786281,-0.060346000,0.000000000,0.000000000,-1.157772000,0.000000000,0.000000000,1.015300000,0.000000000,0.000000000,-0.025280000,0.000000000,0.000000000,0.236064000,0.000000000,0.000000000,0.027872000,0.000000000,0.000000000,1720621486.777183294,,,,,,,,,,,
1720621486.794476,-0.058344000,0.000000000,0.000000000,-1.156155000,0.000000000,0.000000000,1.015300000,0.000000000,0.000000000,-0.025280000,0.000000000,0.000000000,0.235936000,0.000000000,0.000000000,0.027808000,0.000000000,0.000000000,1720621486.785183430,,,,,,,,,,,
1720621486.795282,-0.058344000,0.000000000,0.000000000,-1.156155000,0.000000000,0.000000000,1.015300000,0.000000000,0.000000000,-0.025280000,0.000000000,0.000000000,0.235936000,0.000000000,0.000000000,0.027808000,0.000000000,0.000000000,1720621486.786183357,,,,,,,,,,,
1720621486.798301,-0.057772000,0.000000000,0.000000000,-1.156155000,0.000000000,0.000000000,1.015300000,0.000000000,0.000000000,-0.025280000,0.000000000,0.000000000,0.236000000,0.000000000,0.000000000,0.027936000,0.000000000,0.000000000,1720621486.787183523,,,,,,,,,,,
1720621486.800669,,,,,,,,,,,,,,,,,,,,1720621486.787183523,-1.186824000,3.141592654,0.000000015,0.829037542,-0.000000022,-0.000000054,0.559192949,1.395152983,0.001110973,1.481517837
1720621486.806463,-0.057772000,0.000000000,0.000000000,-1.151304000,0.000000000,0.000000000,1.015300000,0.000000000,0.000000000,-0.025280000,0.000000000,0.000000000,0.235328000,0.000000000,0.000000000,0.027712000,0.000000000,0.000000000,1720621486.797183514,,,,,,,,,,,
1720621486.807865,-0.057772000,0.000000000,0.000000000,-1.151304000,0.000000000,0.000000000,1.015300000,0.000000000,0.000000000,-0.025280000,0.000000000,0.000000000,0.235328000,0.000000000,0.000000000,0.027712000,0.000000000,0.000000000,1720621486.798183441,,,,,,,,,,,
1720621486.808900,-0.057772000,0.000000000,0.000000000,-1.155077000,0.000000000,0.000000000,1.015300000,0.000000000,0.000000000,-0.025280000,0.000000000,0.000000000,0.236384000,0.000000000,0.000000000,0.028448000,0.000000000,0.000000000,1720621486.799183369,,,,,,,,,,,
1720621486.818531,-0.057772000,0.000000000,0.000000000,-1.179871000,0.000000000,0.000000000,1.015300000,0.000000000,0.000000000,-0.025280000,0.000000000,0.000000000,0.235584000,0.000000000,0.000000000,0.029728000,0.000000000,0.000000000,1720621486.809183359,,,,,,,,,,,
1720621486.821181,-0.057772000,0.000000000,0.000000000,-1.155077000,0.000000000,0.000000000,1.015300000,0.000000000,0.000000000,-0.025280000,0.000000000,0.000000000,0.235680000,0.000000000,0.000000000,0.026208000,0.000000000,0.000000000,1720621486.812183380,,,,,,,,,,,
1720621486.831360,-0.057772000,0.000000000,0.000000000,-1.153460000,0.000000000,0.000000000,1.015300000,0.000000000,0.000000000,-0.025280000,0.000000000,0.000000000,0.236064000,0.000000000,0.000000000,0.026880000,0.000000000,0.000000000,1720621486.822183371,,,,,,,,,,,
1720621486.842410,-0.057772000,0.000000000,0.000000000,-1.186878000,0.000000000,0.000000000,1.015300000,0.000000000,0.000000000,-0.025280000,0.000000000,0.000000000,0.235936000,0.000000000,0.000000000,0.028512000,0.000000000,0.000000000,1720621486.833183527,,,,,,,,,,,
1720621486.851289,-0.057772000,0.000000000,0.000000000,-1.142680000,0.000000000,0.000000000,1.015300000,0.000000000,0.000000000,-0.025280000,0.000000000,0.000000000,0.235744000,0.000000000,0.000000000,0.028992000,0.000000000,0.000000000,1720621486.842183352,,,,,,,,,,,
1720621486.860697,,,,,,,,,,,,,,,,,,,,1720621486.842183352,-1.186824000,3.141592654,0.000000015,0.829037542,-0.000000022,-0.000000054,0.559192949,1.395152983,0.001110973,1.481517837
1720621486.862473,-0.057772000,0.000000000,0.000000000,-1.161006000,0.000000000,0.000000000,1.015300000,0.000000000,0.000000000,-0.025280000,0.000000000,0.000000000,0.235744000,0.000000000,0.000000000,0.026208000,0.000000000,0.000000000,1720621486.853183508,,,,,,,,,,,
1720621486.870240,-0.057772000,0.000000000,0.000000000,-1.157772000,0.000000000,0.000000000,1.015300000,0.000000000,0.000000000,-0.025280000,0.000000000,0.000000000,0.235872000,0.000000000,0.000000000,0.027008000,0.000000000,0.000000000,1720621486.861183405,,,,,,,,,,,
1720621486.880987,-0.057772000,0.000000000,0.000000000,-1.157772000,0.000000000,0.000000000,1.015300000,0.000000000,0.000000000,-0.025280000,0.000000000,0.000000000,0.236320000,0.000000000,0.000000000,0.027520000,0.000000000,0.000000000,1720621486.871183395,,,,,,,,,,,
1720621486.890505,-0.057772000,0.000000000,0.000000000,-1.157772000,0.000000000,0.000000000,1.015300000,0.000000000,0.000000000,-0.025280000,0.000000000,0.000000000,0.235584000,0.000000000,0.000000000,0.027264000,0.000000000,0.000000000,1720621486.881183386,,,,,,,,,,,
1720621486.903541,-0.057772000,0.000000000,0.000000000,-1.156694000,0.000000000,0.000000000,1.015300000,0.000000000,0.000000000,-0.025280000,0.000000000,0.000000000,0.235264000,0.000000000,0.000000000,0.028192000,0.000000000,0.000000000,1720621486.894183397,,,,,,,,,,,
1720621486.910809,,,,,,,,,,,,,,,,,,,,1720621486.894183397,-1.186824000,3.141592654,0.000000015,0.829037542,-0.000000022,-0.000000054,0.559192949,1.395152983,0.001110973,1.481517837
1720621486.910841,-0.058344000,0.000000000,0.000000000,-1.160467000,0.000000000,0.000000000,1.015300000,0.000000000,0.000000000,-0.025280000,0.000000000,0.000000000,0.236192000,0.000000000,0.000000000,0.028320000,0.000000000,0.000000000,1720621486.901183367,,,,,,,,,,,
1720621486.911263,-0.058344000,0.000000000,0.000000000,-1.160467000,0.000000000,0.000000000,1.015300000,0.000000000,0.000000000,-0.025280000,0.000000000,0.000000000,0.236192000,0.000000000,0.000000000,0.028320000,0.000000000,0.000000000,1720621486.902183294,,,,,,,,,,,
1720621486.917878,-0.058344000,0.000000000,0.000000000,-1.160467000,0.000000000,0.000000000,1.015300000,0.000000000,0.000000000,-0.025344000,0.000000000,0.000000000,0.235520000,0.000000000,0.000000000,0.028384000,0.000000000,0.000000000,1720621486.908183336,,,,,,,,,,,
1720621486.923457,-0.058344000,0.000000000,0.000000000,-1.160467000,0.000000000,0.000000000,1.015300000,0.000000000,0.000000000,-0.025344000,0.000000000,0.000000000,0.236320000,0.000000000,0.000000000,0.027456000,0.000000000,0.000000000,1720621486.914183378,,,,,,,,,,,
1720621486.925610,-0.060918000,0.000000000,0.000000000,-1.141602000,0.000000000,0.000000000,1.015300000,0.000000000,0.000000000,-0.025344000,0.000000000,0.000000000,0.235456000,0.000000000,0.000000000,0.028448000,0.000000000,0.000000000,1720621486.916183472,,,,,,,,,,,
1720621486.930917,-0.059488000,0.000000000,0.000000000,-1.160467000,0.000000000,0.000000000,1.015300000,0.000000000,0.000000000,-0.025344000,0.000000000,0.000000000,0.235936000,0.000000000,0.000000000,0.027392000,0.000000000,0.000000000,1720621486.920183420,,,,,,,,,,,
1720621486.941356,-0.058916000,0.000000000,0.000000000,-1.158311000,0.000000000,0.000000000,1.015300000,0.000000000,0.000000000,-0.025344000,0.000000000,0.000000000,0.235520000,0.000000000,0.000000000,0.028000000,0.000000000,0.000000000,1720621486.928183317,,,,,,,,,,,
1720621486.948771,-0.057486000,0.000000000,0.000000000,-1.156155000,0.000000000,0.000000000,1.015300000,0.000000000,0.000000000,-0.025344000,0.000000000,0.000000000,0.236064000,0.000000000,0.000000000,0.028128000,0.000000000,0.000000000,1720621486.939183474,,,,,,,,,,,
1720621486.961368,-0.057486000,0.000000000,0.000000000,-1.155077000,0.000000000,0.000000000,1.015300000,0.000000000,0.000000000,-0.025344000,0.000000000,0.000000000,0.235936000,0.000000000,0.000000000,0.027712000,0.000000000,0.000000000,1720621486.952183485,,,,,,,,,,,
1720621486.968919,-0.057772000,0.000000000,0.000000000,-1.155077000,0.000000000,0.000000000,1.015300000,0.000000000,0.000000000,-0.025344000,0.000000000,0.000000000,0.235072000,0.000000000,0.000000000,0.027808000,0.000000000,0.000000000,1720621486.959183455,,,,,,,,,,,
1720621486.970715,,,,,,,,,,,,,,,,,,,,1720621486.952183485,-1.186824000,3.141592654,0.000000015,0.829037542,-0.000000022,-0.000000054,0.559192949,1.395152983,0.001110973,1.481517837
1720621486.981533,-0.057772000,0.000000000,0.000000000,-1.156694000,0.000000000,0.000000000,1.015300000,0.000000000,0.000000000,-0.025344000,0.000000000,0.000000000,0.235936000,0.000000000,0.000000000,0.027712000,0.000000000,0.000000000,1720621486.972183466,,,,,,,,,,,
1720621486.988683,-0.057772000,0.000000000,0.000000000,-1.157772000,0.000000000,0.000000000,1.015300000,0.000000000,0.000000000,-0.025344000,0.000000000,0.000000000,0.235584000,0.000000000,0.000000000,0.027872000,0.000000000,0.000000000,1720621486.979183435,,,,,,,,,,,
1720621486.999628,-0.057772000,0.000000000,0.000000000,-1.157772000,0.000000000,0.000000000,1.015300000,0.000000000,0.000000000,-0.025344000,0.000000000,0.000000000,0.235584000,0.000000000,0.000000000,0.027072000,0.000000000,0.000000000,1720621486.988183498,,,,,,,,,,,
1720621487.011512,-0.057772000,0.000000000,0.000000000,-1.165857000,0.000000000,0.000000000,1.015300000,0.000000000,0.000000000,-0.025344000,0.000000000,0.000000000,0.236192000,0.000000000,0.000000000,0.028864000,0.000000000,0.000000000,1720621487.002183437,,,,,,,,,,,
1720621487.018771,-0.057772000,0.000000000,0.000000000,-1.162084000,0.000000000,0.000000000,1.015300000,0.000000000,0.000000000,-0.025344000,0.000000000,0.000000000,0.236384000,0.000000000,0.000000000,0.028928000,0.000000000,0.000000000,1720621487.009183407,,,,,,,,,,,
1720621487.019512,-0.057772000,0.000000000,0.000000000,-1.162084000,0.000000000,0.000000000,1.015300000,0.000000000,0.000000000,-0.025344000,0.000000000,0.000000000,0.236384000,0.000000000,0.000000000,0.028928000,0.000000000,0.000000000,1720621487.010183334,,,,,,,,,,,
1720621487.020575,,,,,,,,,,,,,,,,,,,,1720621487.002183437,-1.186824000,3.141592654,0.000000015,0.829037542,-0.000000022,-0.000000054,0.559192949,1.395152983,0.001110973,1.481517837
1720621487.025537,-0.057772000,0.000000000,0.000000000,-1.166396000,0.000000000,0.000000000,1.015300000,0.000000000,0.000000000,-0.025344000,0.000000000,0.000000000,0.235872000,0.000000000,0.000000000,0.028736000,0.000000000,0.000000000,1720621487.016183376,,,,,,,,,,,
1720621487.031635,-0.057772000,0.000000000,0.000000000,-1.159389000,0.000000000,0.000000000,1.015300000,0.000000000,0.000000000,-0.025344000,0.000000000,0.000000000,0.236384000,0.000000000,0.000000000,0.027328000,0.000000000,0.000000000,1720621487.022183418,,,,,,,,,,,
1720621487.033648,-0.057772000,0.000000000,0.000000000,-1.159389000,0.000000000,0.000000000,1.015300000,0.000000000,0.000000000,-0.025344000,0.000000000,0.000000000,0.235392000,0.000000000,0.000000000,0.028864000,0.000000000,0.000000000,1720621487.024183512,,,,,,,,,,,
1720621487.037940,-0.057772000,0.000000000,0.000000000,-1.159389000,0.000000000,0.000000000,1.015300000,0.000000000,0.000000000,-0.025344000,0.000000000,0.000000000,0.235936000,0.000000000,0.000000000,0.026944000,0.000000000,0.000000000,1720621487.028183460,,,,,,,,,,,
1720621487.045726,-0.057772000,0.000000000,0.000000000,-1.160467000,0.000000000,0.000000000,1.015300000,0.000000000,0.000000000,-0.025344000,0.000000000,0.000000000,0.235744000,0.000000000,0.000000000,0.027200000,0.000000000,0.000000000,1720621487.036183357,,,,,,,,,,,
1720621487.049328,-0.057772000,0.000000000,0.000000000,-1.165857000,0.000000000,0.000000000,1.015300000,0.000000000,0.000000000,-0.025344000,0.000000000,0.000000000,0.235936000,0.000000000,0.000000000,0.028576000,0.000000000,0.000000000,1720621487.040183306,,,,,,,,,,,
1720621487.065651,-0.057772000,0.000000000,0.000000000,-1.186878000,0.000000000,0.000000000,1.015300000,0.000000000,0.000000000,-0.025344000,0.000000000,0.000000000,0.235264000,0.000000000,0.000000000,0.028128000,0.000000000,0.000000000,1720621487.048183441,,,,,,,,,,,
1720621487.071243,-0.057772000,0.000000000,0.000000000,-1.157772000,0.000000000,0.000000000,1.015300000,0.000000000,0.000000000,-0.025280000,0.000000000,0.000000000,0.236064000,0.000000000,0.000000000,0.028384000,0.000000000,0.000000000,1720621487.061183453,,,,,,,,,,,
1720621487.079176,-0.057772000,0.000000000,0.000000000,-1.157772000,0.000000000,0.000000000,1.015300000,0.000000000,0.000000000,-0.025280000,0.000000000,0.000000000,0.235744000,0.000000000,0.000000000,0.028064000,0.000000000,0.000000000,1720621487.069183350,,,,,,,,,,,
1720621487.080628,,,,,,,,,,,,,,,,,,,,1720621487.061183453,-1.186824000,3.141592654,0.000000015,0.829037542,-0.000000022,-0.000000054,0.559192949,1.395152983,0.001110973,1.481517837
1720621487.082624,-0.057772000,0.000000000,0.000000000,-1.157772000,0.000000000,0.000000000,1.015300000,0.000000000,0.000000000,-0.025280000,0.000000000,0.000000000,0.236384000,0.000000000,0.000000000,0.028000000,0.000000000,0.000000000,1720621487.073183298,,,,,,,,,,,
1720621487.089667,-0.057772000,0.000000000,0.000000000,-1.156694000,0.000000000,0.000000000,1.015300000,0.000000000,0.000000000,-0.025280000,0.000000000,0.000000000,0.235744000,0.000000000,0.000000000,0.028128000,0.000000000,0.000000000,1720621487.080183506,,,,,,,,,,,
1720621487.091244,-0.057772000,0.000000000,0.000000000,-1.156694000,0.000000000,0.000000000,1.015300000,0.000000000,0.000000000,-0.025280000,0.000000000,0.000000000,0.235744000,0.000000000,0.000000000,0.028128000,0.000000000,0.000000000,1720621487.081183434,,,,,,,,,,,
1720621487.094551,-0.057772000,0.000000000,0.000000000,-1.156694000,0.000000000,0.000000000,1.015300000,0.000000000,0.000000000,-0.025280000,0.000000000,0.000000000,0.236384000,0.000000000,0.000000000,0.027200000,0.000000000,0.000000000,1720621487.085183382,,,,,,,,,,,
1720621487.101896,-0.057772000,0.000000000,0.000000000,-1.153999000,0.000000000,0.000000000,1.015300000,0.000000000,0.000000000,-0.025280000,0.000000000,0.000000000,0.235520000,0.000000000,0.000000000,0.027328000,0.000000000,0.000000000,1720621487.092183352,,,,,,,,,,,
1720621487.102800,-0.057772000,0.000000000,0.000000000,-1.153999000,0.000000000,0.000000000,1.015300000,0.000000000,0.000000000,-0.025280000,0.000000000,0.000000000,0.235520000,0.000000000,0.000000000,0.027328000,0.000000000,0.000000000,1720621487.093183517,,,,,,,,,,,
1720621487.106512,-0.057772000,0.000000000,0.000000000,-1.153999000,0.000000000,0.000000000,1.015300000,0.000000000,0.000000000,-0.025280000,0.000000000,0.000000000,0.235520000,0.000000000,0.000000000,0.028864000,0.000000000,0.000000000,1720621487.097183466,,,,,,,,,,,
1720621487.113787,-0.057772000,0.000000000,0.000000000,-1.185800000,0.000000000,0.000000000,1.015300000,0.000000000,0.000000000,-0.025280000,0.000000000,0.000000000,0.235328000,0.000000000,0.000000000,0.028992000,0.000000000,0.000000000,1720621487.104183435,,,,,,,,,,,
1720621487.114676,-0.057772000,0.000000000,0.000000000,-1.185800000,0.000000000,0.000000000,1.015300000,0.000000000,0.000000000,-0.025280000,0.000000000,0.000000000,0.235328000,0.000000000,0.000000000,0.028992000,0.000000000,0.000000000,1720621487.105183363,,,,,,,,,,,
1720621487.118885,-0.057772000,0.000000000,0.000000000,-1.155077000,0.000000000,0.000000000,1.015300000,0.000000000,0.000000000,-0.025280000,0.000000000,0.000000000,0.236064000,0.000000000,0.000000000,0.026528000,0.000000000,0.000000000,1720621487.109183311,,,,,,,,,,,
1720621487.125895,-0.057772000,0.000000000,0.000000000,-1.159389000,0.000000000,0.000000000,1.015300000,0.000000000,0.000000000,-0.025280000,0.000000000,0.000000000,0.235936000,0.000000000,0.000000000,0.026784000,0.000000000,0.000000000,1720621487.116183519,,,,,,,,,,,
1720621487.126471,-0.057772000,0.000000000,0.000000000,-1.159389000,0.000000000,0.000000000,1.015300000,0.000000000,0.000000000,-0.025280000,0.000000000,0.000000000,0.235936000,0.000000000,0.000000000,0.026784000,0.000000000,0.000000000,1720621487.117183447,,,,,,,,,,,
1720621487.130659,,,,,,,,,,,,,,,,,,,,1720621487.116183519,-1.186824000,3.141592654,0.000000015,0.829037542,-0.000000022,-0.000000054,0.559192949,1.395152983,0.001110973,1.481517837
1720621487.131093,-0.057772000,0.000000000,0.000000000,-1.159389000,0.000000000,0.000000000,1.015300000,0.000000000,0.000000000,-0.025280000,0.000000000,0.000000000,0.235200000,0.000000000,0.000000000,0.028800000,0.000000000,0.000000000,1720621487.121183395,,,,,,,,,,,
1720621487.138091,-0.057772000,0.000000000,0.000000000,-1.159389000,0.000000000,0.000000000,1.015300000,0.000000000,0.000000000,-0.025280000,0.000000000,0.000000000,0.235936000,0.000000000,0.000000000,0.028448000,0.000000000,0.000000000,1720621487.128183365,,,,,,,,,,,
1720621487.139057,-0.057772000,0.000000000,0.000000000,-1.159389000,0.000000000,0.000000000,1.015300000,0.000000000,0.000000000,-0.025280000,0.000000000,0.000000000,0.235936000,0.000000000,0.000000000,0.028448000,0.000000000,0.000000000,1720621487.129183292,,,,,,,,,,,
1720621487.142595,-0.057772000,0.000000000,0.000000000,-1.159389000,0.000000000,0.000000000,1.015300000,0.000000000,0.000000000,-0.025280000,0.000000000,0.000000000,0.236192000,0.000000000,0.000000000,0.027264000,0.000000000,0.000000000,1720621487.133183479,,,,,,,,,,,
1720621487.150012,-0.057772000,0.000000000,0.000000000,-1.159389000,0.000000000,0.000000000,1.015300000,0.000000000,0.000000000,-0.025280000,0.000000000,0.000000000,0.235744000,0.000000000,0.000000000,0.027456000,0.000000000,0.000000000,1720621487.140183449,,,,,,,,,,,
1720621487.151495,-0.057772000,0.000000000,0.000000000,-1.159389000,0.000000000,0.000000000,1.015300000,0.000000000,0.000000000,-0.025280000,0.000000000,0.000000000,0.235744000,0.000000000,0.000000000,0.027456000,0.000000000,0.000000000,1720621487.141183376,,,,,,,,,,,
1720621487.154887,-0.057772000,0.000000000,0.000000000,-1.158311000,0.000000000,0.000000000,1.015300000,0.000000000,0.000000000,-0.025280000,0.000000000,0.000000000,0.235936000,0.000000000,0.000000000,0.028000000,0.000000000,0.000000000,1720621487.145183325,,,,,,,,,,,
1720621487.162179,-0.057772000,0.000000000,0.000000000,-1.157772000,0.000000000,0.000000000,1.015300000,0.000000000,0.000000000,-0.025280000,0.000000000,0.000000000,0.235744000,0.000000000,0.000000000,0.027712000,0.000000000,0.000000000,1720621487.152183294,,,,,,,,,,,
1720621487.162826,-0.057772000,0.000000000,0.000000000,-1.157772000,0.000000000,0.000000000,1.015300000,0.000000000,0.000000000,-0.025280000,0.000000000,0.000000000,0.235744000,0.000000000,0.000000000,0.027712000,0.000000000,0.000000000,1720621487.153183460,,,,,,,,,,,
1720621487.166803,-0.057772000,0.000000000,0.000000000,-1.157772000,0.000000000,0.000000000,1.015300000,0.000000000,0.000000000,-0.025280000,0.000000000,0.000000000,0.235936000,0.000000000,0.000000000,0.028800000,0.000000000,0.000000000,1720621487.157183409,,,,,,,,,,,
1720621487.174043,-0.057772000,0.000000000,0.000000000,-1.157772000,0.000000000,0.000000000,1.015300000,0.000000000,0.000000000,-0.025280000,0.000000000,0.000000000,0.235744000,0.000000000,0.000000000,0.028448000,0.000000000,0.000000000,1720621487.164183378,,,,,,,,,,,
1720621487.174890,-0.057772000,0.000000000,0.000000000,-1.157772000,0.000000000,0.000000000,1.015300000,0.000000000,0.000000000,-0.025280000,0.000000000,0.000000000,0.235744000,0.000000000,0.000000000,0.028448000,0.000000000,0.000000000,1720621487.165183306,,,,,,,,,,,
1720621487.178966,-0.057772000,0.000000000,0.000000000,-1.158311000,0.000000000,0.000000000,1.015300000,0.000000000,0.000000000,-0.025280000,0.000000000,0.000000000,0.236672000,0.000000000,0.000000000,0.027264000,0.000000000,0.000000000,1720621487.169183493,,,,,,,,,,,
1720621487.180451,,,,,,,,,,,,,,,,,,,,1720621487.169183493,-1.186824000,3.141592654,0.000000015,0.829037542,-0.000000022,-0.000000054,0.559192949,1.395152983,0.001110973,1.481517837
1720621487.186039,-0.057772000,0.000000000,0.000000000,-1.148609000,0.000000000,0.000000000,1.015300000,0.000000000,0.000000000,-0.025280000,0.000000000,0.000000000,0.235584000,0.000000000,0.000000000,0.027392000,0.000000000,0.000000000,1720621487.176183462,,,,,,,,,,,
1720621487.186733,-0.057772000,0.000000000,0.000000000,-1.148609000,0.000000000,0.000000000,1.015300000,0.000000000,0.000000000,-0.025280000,0.000000000,0.000000000,0.235584000,0.000000000,0.000000000,0.027392000,0.000000000,0.000000000,1720621487.177183390,,,,,,,,,,,
1720621487.191217,-0.057772000,0.000000000,0.000000000,-1.185800000,0.000000000,0.000000000,1.015300000,0.000000000,0.000000000,-0.025280000,0.000000000,0.000000000,0.236608000,0.000000000,0.000000000,0.027648000,0.000000000,0.000000000,1720621487.181183338,,,,,,,,,,,
1720621487.198165,-0.057772000,0.000000000,0.000000000,-1.155077000,0.000000000,0.000000000,1.015300000,0.000000000,0.000000000,-0.025280000,0.000000000,0.000000000,0.236128000,0.000000000,0.000000000,0.027392000,0.000000000,0.000000000,1720621487.188183308,,,,,,,,,,,
1720621487.199136,-0.057772000,0.000000000,0.000000000,-1.155077000,0.000000000,0.000000000,1.015300000,0.000000000,0.000000000,-0.025280000,0.000000000,0.000000000,0.236128000,0.000000000,0.000000000,0.027392000,0.000000000,0.000000000,1720621487.189183474,,,,,,,,,,,
1720621487.202789,-0.057772000,0.000000000,0.000000000,-1.155077000,0.000000000,0.000000000,1.015300000,0.000000000,0.000000000,-0.025280000,0.000000000,0.000000000,0.235072000,0.000000000,0.000000000,0.028448000,0.000000000,0.000000000,1720621487.193183422,,,,,,,,,,,
1720621487.210354,-0.057772000,0.000000000,0.000000000,-1.155077000,0.000000000,0.000000000,1.015300000,0.000000000,0.000000000,-0.025280000,0.000000000,0.000000000,0.236128000,0.000000000,0.000000000,0.028448000,0.000000000,0.000000000,1720621487.200183392,,,,,,,,,,,
1720621487.211515,-0.057772000,0.000000000,0.000000000,-1.155077000,0.000000000,0.000000000,1.015300000,0.000000000,0.000000000,-0.025280000,0.000000000,0.000000000,0.236128000,0.000000000,0.000000000,0.028448000,0.000000000,0.000000000,1720621487.201183319,,,,,,,,,,,
1720621487.214764,-0.057772000,0.000000000,0.000000000,-1.146453000,0.000000000,0.000000000,1.015300000,0.000000000,0.000000000,-0.025280000,0.000000000,0.000000000,0.235328000,0.000000000,0.000000000,0.027328000,0.000000000,0.000000000,1720621487.205183506,,,,,,,,,,,
1720621487.222081,-0.057772000,0.000000000,0.000000000,-1.156155000,0.000000000,0.000000000,1.015300000,0.000000000,0.000000000,-0.025280000,0.000000000,0.000000000,0.235392000,0.000000000,0.000000000,0.027328000,0.000000000,0.000000000,1720621487.212183475,,,,,,,,,,,
1720621487.223017,-0.057772000,0.000000000,0.000000000,-1.156155000,0.000000000,0.000000000,1.015300000,0.000000000,0.000000000,-0.025280000,0.000000000,0.000000000,0.235392000,0.000000000,0.000000000,0.027328000,0.000000000,0.000000000,1720621487.213183403,,,,,,,,,,,
1720621487.226734,-0.057772000,0.000000000,0.000000000,-1.156694000,0.000000000,0.000000000,1.015300000,0.000000000,0.000000000,-0.025280000,0.000000000,0.000000000,0.236256000,0.000000000,0.000000000,0.027872000,0.000000000,0.000000000,1720621487.217183352,,,,,,,,,,,
1720621487.234282,-0.057772000,0.000000000,0.000000000,-1.164779000,0.000000000,0.000000000,1.015300000,0.000000000,0.000000000,-0.025280000,0.000000000,0.000000000,0.235584000,0.000000000,0.000000000,0.026720000,0.000000000,0.000000000,1720621487.224183321,,,,,,,,,,,
1720621487.234718,-0.057772000,0.000000000,0.000000000,-1.164779000,0.000000000,0.000000000,1.015300000,0.000000000,0.000000000,-0.025280000,0.000000000,0.000000000,0.235584000,0.000000000,0.000000000,0.026720000,0.000000000,0.000000000,1720621487.225183487,,,,,,,,,,,
1720621487.238768,-0.057772000,0.000000000,0.000000000,-1.160467000,0.000000000,0.000000000,1.015300000,0.000000000,0.000000000,-0.025280000,0.000000000,0.000000000,0.235744000,0.000000000,0.000000000,0.028928000,0.000000000,0.000000000,1720621487.229183435,,,,,,,,,,,
1720621487.240491,,,,,,,,,,,,,,,,,,,,1720621487.224183321,-1.186824000,3.141592654,0.000000015,0.829037542,-0.000000022,-0.000000054,0.559192949,1.395152983,0.001110973,1.481517837
1720621487.246214,-0.057772000,0.000000000,0.000000000,-1.160467000,0.000000000,0.000000000,1.015300000,0.000000000,0.000000000,-0.025280000,0.000000000,0.000000000,0.235872000,0.000000000,0.000000000,0.028928000,0.000000000,0.000000000,1720621487.236183405,,,,,,,,,,,
1720621487.246754,-0.057772000,0.000000000,0.000000000,-1.160467000,0.000000000,0.000000000,1.015300000,0.000000000,0.000000000,-0.025280000,0.000000000,0.000000000,0.235872000,0.000000000,0.000000000,0.028928000,0.000000000,0.000000000,1720621487.237183332,,,,,,,,,,,
1720621487.249112,-0.057772000,0.000000000,0.000000000,-1.141602000,0.000000000,0.000000000,1.015300000,0.000000000,0.000000000,-0.025216000,0.000000000,0.000000000,0.235008000,0.000000000,0.000000000,0.027648000,0.000000000,0.000000000,1720621487.239183426,,,,,,,,,,,
1720621487.249913,-0.057772000,0.000000000,0.000000000,-1.141602000,0.000000000,0.000000000,1.015300000,0.000000000,0.000000000,-0.025216000,0.000000000,0.000000000,0.235008000,0.000000000,0.000000000,0.027648000,0.000000000,0.000000000,1720621487.240183353,,,,,,,,,,,
1720621487.251365,-0.057772000,0.000000000,0.000000000,-1.141602000,0.000000000,0.000000000,1.015300000,0.000000000,0.000000000,-0.025216000,0.000000000,0.000000000,0.235008000,0.000000000,0.000000000,0.027648000,0.000000000,0.000000000,1720621487.241183519,,,,,,,,,,,
1720621487.252732,-0.057772000,0.000000000,0.000000000,-1.163162000,0.000000000,0.000000000,1.015300000,0.000000000,0.000000000,-0.025280000,0.000000000,0.000000000,0.235872000,0.000000000,0.000000000,0.028320000,0.000000000,0.000000000,1720621487.243183374,,,,,,,,,,,
1720621487.262294,-0.057772000,0.000000000,0.000000000,-1.162084000,0.000000000,0.000000000,1.015300000,0.000000000,0.000000000,-0.025280000,0.000000000,0.000000000,0.235808000,0.000000000,0.000000000,0.028672000,0.000000000,0.000000000,1720621487.252183437,,,,,,,,,,,
1720621487.262832,-0.057772000,0.000000000,0.000000000,-1.162084000,0.000000000,0.000000000,1.015300000,0.000000000,0.000000000,-0.025280000,0.000000000,0.000000000,0.235808000,0.000000000,0.000000000,0.028672000,0.000000000,0.000000000,1720621487.253183365,,,,,,,,,,,
1720621487.264692,-0.057772000,0.000000000,0.000000000,-1.160467000,0.000000000,0.000000000,1.015300000,0.000000000,0.000000000,-0.025280000,0.000000000,0.000000000,0.235872000,0.000000000,0.000000000,0.027520000,0.000000000,0.000000000,1720621487.255183458,,,,,,,,,,,
1720621487.274340,-0.057772000,0.000000000,0.000000000,-1.159389000,0.000000000,0.000000000,1.015300000,0.000000000,0.000000000,-0.025280000,0.000000000,0.000000000,0.235392000,0.000000000,0.000000000,0.027648000,0.000000000,0.000000000,1720621487.264183521,,,,,,,,,,,
1720621487.275016,-0.057772000,0.000000000,0.000000000,-1.159389000,0.000000000,0.000000000,1.015300000,0.000000000,0.000000000,-0.025280000,0.000000000,0.000000000,0.235392000,0.000000000,0.000000000,0.027648000,0.000000000,0.000000000,1720621487.265183449,,,,,,,,,,,
1720621487.276728,-0.057772000,0.000000000,0.000000000,-1.158311000,0.000000000,0.000000000,1.015300000,0.000000000,0.000000000,-0.025280000,0.000000000,0.000000000,0.235584000,0.000000000,0.000000000,0.028000000,0.000000000,0.000000000,1720621487.267183304,,,,,,,,,,,
1720621487.286301,-0.057772000,0.000000000,0.000000000,-1.157772000,0.000000000,0.000000000,1.015300000,0.000000000,0.000000000,-0.025280000,0.000000000,0.000000000,0.235584000,0.000000000,0.000000000,0.027456000,0.000000000,0.000000000,1720621487.276183367,,,,,,,,,,,
1720621487.286707,-0.057772000,0.000000000,0.000000000,-1.157772000,0.000000000,0.000000000,1.015300000,0.000000000,0.000000000,-0.025280000,0.000000000,0.000000000,0.235584000,0.000000000,0.000000000,0.027456000,0.000000000,0.000000000,1720621487.277183294,,,,,,,,,,,
1720621487.289023,-0.057772000,0.000000000,0.000000000,-1.156694000,0.000000000,0.000000000,1.015300000,0.000000000,0.000000000,-0.025280000,0.000000000,0.000000000,0.235744000,0.000000000,0.000000000,0.028512000,0.000000000,0.000000000,1720621487.279183388,,,,,,,,,,,
1720621487.290652,,,,,,,,,,,,,,,,,,,,1720621487.276183367,-1.186824000,3.141592654,0.000000015,0.829037542,-0.000000022,-0.000000054,0.559192949,1.395152983,0.001110973,1.481517837
1720621487.298361,-0.057772000,0.000000000,0.000000000,-1.156694000,0.000000000,0.000000000,1.015300000,0.000000000,0.000000000,-0.025280000,0.000000000,0.000000000,0.235456000,0.000000000,0.000000000,0.028736000,0.000000000,0.000000000,1720621487.288183451,,,,,,,,,,,
1720621487.299195,-0.057772000,0.000000000,0.000000000,-1.156694000,0.000000000,0.000000000,1.015300000,0.000000000,0.000000000,-0.025280000,0.000000000,0.000000000,0.235456000,0.000000000,0.000000000,0.028736000,0.000000000,0.000000000,1720621487.289183378,,,,,,,,,,,
1720621487.301167,-0.057772000,0.000000000,0.000000000,-1.156694000,0.000000000,0.000000000,1.015300000,0.000000000,0.000000000,-0.025280000,0.000000000,0.000000000,0.235328000,0.000000000,0.000000000,0.027200000,0.000000000,0.000000000,1720621487.291183472,,,,,,,,,,,
1720621487.310266,-0.057772000,0.000000000,0.000000000,-1.156694000,0.000000000,0.000000000,1.015300000,0.000000000,0.000000000,-0.025280000,0.000000000,0.000000000,0.236320000,0.000000000,0.000000000,0.028064000,0.000000000,0.000000000,1720621487.300183296,,,,,,,,,,,
1720621487.311358,-0.057772000,0.000000000,0.000000000,-1.156694000,0.000000000,0.000000000,1.015300000,0.000000000,0.000000000,-0.025280000,0.000000000,0.000000000,0.236320000,0.000000000,0.000000000,0.028064000,0.000000000,0.000000000,1720621487.301183462,,,,,,,,,,,
1720621487.312955,-0.057772000,0.000000000,0.000000000,-1.157772000,0.000000000,0.000000000,1.015300000,0.000000000,0.000000000,-0.025280000,0.000000000,0.000000000,0.235456000,0.000000000,0.000000000,0.027456000,0.000000000,0.000000000,1720621487.303183317,,,,,,,,,,,
1720621487.318181,-0.057772000,0.000000000,0.000000000,-1.157772000,0.000000000,0.000000000,1.015300000,0.000000000,0.000000000,-0.025280000,0.000000000,0.000000000,0.235808000,0.000000000,0.000000000,0.027936000,0.000000000,0.000000000,1720621487.308183432,,,,,,,,,,,
1720621487.325121,-0.057772000,0.000000000,0.000000000,-1.160467000,0.000000000,0.000000000,1.015300000,0.000000000,0.000000000,-0.025280000,0.000000000,0.000000000,0.235584000,0.000000000,0.000000000,0.027072000,0.000000000,0.000000000,1720621487.315183401,,,,,,,,,,,
1720621487.327038,-0.057772000,0.000000000,0.000000000,-1.160467000,0.000000000,0.000000000,1.015300000,0.000000000,0.000000000,-0.025280000,0.000000000,0.000000000,0.235584000,0.000000000,0.000000000,0.027072000,0.000000000,0.000000000,1720621487.317183495,,,,,,,,,,,
1720621487.330114,-0.057772000,0.000000000,0.000000000,-1.160467000,0.000000000,0.000000000,1.015300000,0.000000000,0.000000000,-0.025280000,0.000000000,0.000000000,0.236192000,0.000000000,0.000000000,0.029120000,0.000000000,0.000000000,1720621487.320183516,,,,,,,,,,,
1720621487.338571,-0.057772000,0.000000000,0.000000000,-1.159389000,0.000000000,0.000000000,1.015300000,0.000000000,0.000000000,-0.025280000,0.000000000,0.000000000,0.236320000,0.000000000,0.000000000,0.028320000,0.000000000,0.000000000,1720621487.328183413,,,,,,,,,,,
1720621487.340607,,,,,,,,,,,,,,,,,,,,1720621487.328183413,-1.186824000,3.141592654,0.000000015,0.829037542,-0.000000022,-0.000000054,0.559192949,1.395152983,0.001110973,1.481517837
1720621487.342206,-0.057772000,0.000000000,0.000000000,-1.158311000,0.000000000,0.000000000,1.015300000,0.000000000,0.000000000,-0.025280000,0.000000000,0.000000000,0.236608000,0.000000000,0.000000000,0.027712000,0.000000000,0.000000000,1720621487.332183361,,,,,,,,,,,
1720621487.349402,-0.057772000,0.000000000,0.000000000,-1.156155000,0.000000000,0.000000000,1.015300000,0.000000000,0.000000000,-0.025280000,0.000000000,0.000000000,0.235328000,0.000000000,0.000000000,0.028064000,0.000000000,0.000000000,1720621487.339183331,,,,,,,,,,,
1720621487.350159,-0.057772000,0.000000000,0.000000000,-1.156155000,0.000000000,0.000000000,1.015300000,0.000000000,0.000000000,-0.025280000,0.000000000,0.000000000,0.235328000,0.000000000,0.000000000,0.028064000,0.000000000,0.000000000,1720621487.340183496,,,,,,,,,,,
1720621487.354045,-0.057772000,0.000000000,0.000000000,-1.156155000,0.000000000,0.000000000,1.015300000,0.000000000,0.000000000,-0.025344000,0.000000000,0.000000000,0.235328000,0.000000000,0.000000000,0.027712000,0.000000000,0.000000000,1720621487.344183445,,,,,,,,,,,
1720621487.361497,-0.057772000,0.000000000,0.000000000,-1.156155000,0.000000000,0.000000000,1.013584000,0.000000000,0.000000000,-0.025344000,0.000000000,0.000000000,0.236000000,0.000000000,0.000000000,0.027328000,0.000000000,0.000000000,1720621487.351183414,,,,,,,,,,,
1720621487.364974,-0.057772000,0.000000000,0.000000000,-1.156155000,0.000000000,0.000000000,1.014156000,0.000000000,0.000000000,-0.025344000,0.000000000,0.000000000,0.235072000,0.000000000,0.000000000,0.028320000,0.000000000,0.000000000,1720621487.354183435,,,,,,,,,,,
1720621487.373723,-0.057772000,0.000000000,0.000000000,-1.173403000,0.000000000,0.000000000,1.014156000,0.000000000,0.000000000,-0.025344000,0.000000000,0.000000000,0.235936000,0.000000000,0.000000000,0.027520000,0.000000000,0.000000000,1720621487.363183498,,,,,,,,,,,
1720621487.375253,-0.057772000,0.000000000,0.000000000,-1.173403000,0.000000000,0.000000000,1.014156000,0.000000000,0.000000000,-0.025344000,0.000000000,0.000000000,0.235936000,0.000000000,0.000000000,0.027520000,0.000000000,0.000000000,1720621487.365183353,,,,,,,,,,,
1720621487.382041,-0.057772000,0.000000000,0.000000000,-1.157772000,0.000000000,0.000000000,1.015300000,0.000000000,0.000000000,-0.025344000,0.000000000,0.000000000,0.235456000,0.000000000,0.000000000,0.027392000,0.000000000,0.000000000,1720621487.372183323,,,,,,,,,,,
1720621487.387316,-0.059488000,0.000000000,0.000000000,-1.157772000,0.000000000,0.000000000,1.015872000,0.000000000,0.000000000,-0.025344000,0.000000000,0.000000000,0.235520000,0.000000000,0.000000000,0.028320000,0.000000000,0.000000000,1720621487.377183437,,,,,,,,,,,
1720621487.389529,-0.058344000,0.000000000,0.000000000,-1.157772000,0.000000000,0.000000000,1.015872000,0.000000000,0.000000000,-0.025344000,0.000000000,0.000000000,0.236128000,0.000000000,0.000000000,0.028000000,0.000000000,0.000000000,1720621487.379183292,,,,,,,,,,,
1720621487.390718,,,,,,,,,,,,,,,,,,,,1720621487.379183292,-1.186824000,3.141592654,0.000000015,0.829037542,-0.000000022,-0.000000054,0.559192949,1.395152983,0.001110973,1.481517837
1720621487.393285,-0.058344000,0.000000000,0.000000000,-1.157772000,0.000000000,0.000000000,1.015872000,0.000000000,0.000000000,-0.025344000,0.000000000,0.000000000,0.235744000,0.000000000,0.000000000,0.028256000,0.000000000,0.000000000,1720621487.383183479,,,,,,,,,,,
1720621487.401380,-0.057772000,0.000000000,0.000000000,-1.157772000,0.000000000,0.000000000,1.015300000,0.000000000,0.000000000,-0.025344000,0.000000000,0.000000000,0.235456000,0.000000000,0.000000000,0.027712000,0.000000000,0.000000000,1720621487.391183376,,,,,,,,,,,
1720621487.405050,-0.057772000,0.000000000,0.000000000,-1.157772000,0.000000000,0.000000000,1.015300000,0.000000000,0.000000000,-0.025344000,0.000000000,0.000000000,0.236128000,0.000000000,0.000000000,0.027328000,0.000000000,0.000000000,1720621487.395183325,,,,,,,,,,,
1720621487.412786,-0.057772000,0.000000000,0.000000000,-1.156155000,0.000000000,0.000000000,1.015300000,0.000000000,0.000000000,-0.025344000,0.000000000,0.000000000,0.236128000,0.000000000,0.000000000,0.027008000,0.000000000,0.000000000,1720621487.402183294,,,,,,,,,,,
1720621487.418445,-0.057772000,0.000000000,0.000000000,-1.156155000,0.000000000,0.000000000,1.015300000,0.000000000,0.000000000,-0.025344000,0.000000000,0.000000000,0.236000000,0.000000000,0.000000000,0.028928000,0.000000000,0.000000000,1720621487.408183336,,,,,,,,,,,
1720621487.423776,-0.057772000,0.000000000,0.000000000,-1.156155000,0.000000000,0.000000000,1.015300000,0.000000000,0.000000000,-0.025344000,0.000000000,0.000000000,0.236000000,0.000000000,0.000000000,0.026592000,0.000000000,0.000000000,1720621487.413183451,,,,,,,,,,,
1720621487.425384,-0.057772000,0.000000000,0.000000000,-1.156155000,0.000000000,0.000000000,1.015300000,0.000000000,0.000000000,-0.025344000,0.000000000,0.000000000,0.235008000,0.000000000,0.000000000,0.028992000,0.000000000,0.000000000,1720621487.415183306,,,,,,,,,,,
1720621487.429547,-0.057772000,0.000000000,0.000000000,-1.156155000,0.000000000,0.000000000,1.015300000,0.000000000,0.000000000,-0.025344000,0.000000000,0.000000000,0.235936000,0.000000000,0.000000000,0.027136000,0.000000000,0.000000000,1720621487.419183493,,,,,,,,,,,
1720621487.437512,-0.057772000,0.000000000,0.000000000,-1.156155000,0.000000000,0.000000000,1.015300000,0.000000000,0.000000000,-0.025344000,0.000000000,0.000000000,0.235520000,0.000000000,0.000000000,0.027328000,0.000000000,0.000000000,1720621487.427183390,,,,,,,,,,,
1720621487.442201,-0.057772000,0.000000000,0.000000000,-1.156155000,0.000000000,0.000000000,1.015300000,0.000000000,0.000000000,-0.025344000,0.000000000,0.000000000,0.235264000,0.000000000,0.000000000,0.028256000,0.000000000,0.000000000,1720621487.432183504,,,,,,,,,,,
1720621487.450738,,,,,,,,,,,,,,,,,,,,1720621487.432183504,-1.186824000,3.141592654,0.000000015,0.829037542,-0.000000022,-0.000000054,0.559192949,1.395152983,0.001110973,1.481517837
1720621487.450740,-0.057772000,0.000000000,0.000000000,-1.128666000,0.000000000,0.000000000,1.015300000,0.000000000,0.000000000,-0.025344000,0.000000000,0.000000000,0.235744000,0.000000000,0.000000000,0.026720000,0.000000000,0.000000000,1720621487.440183401,,,,,,,,,,,
1720621487.454333,-0.057772000,0.000000000,0.000000000,-1.158311000,0.000000000,0.000000000,1.015300000,0.000000000,0.000000000,-0.025344000,0.000000000,0.000000000,0.235584000,0.000000000,0.000000000,0.030048000,-0.000038380,0.009134350,1720621487.444183350,,,,,,,,,,,
1720621487.461682,-0.057772000,0.000000000,0.000000000,-1.151304000,0.000000000,0.000000000,1.015300000,0.000000000,0.000000000,-0.025344000,0.000000000,0.000000000,0.236384000,0.000000000,0.000000000,0.029984000,-0.000038380,0.009134350,1720621487.451183319,,,,,,,,,,,
1720621487.462517,-0.057772000,0.000000000,0.000000000,-1.151304000,0.000000000,0.000000000,1.015300000,0.000000000,0.000000000,-0.025344000,0.000000000,0.000000000,0.236384000,0.000000000,0.000000000,0.029984000,-0.000038380,0.009134350,1720621487.452183485,,,,,,,,,,,
1720621487.466160,-0.057772000,0.000000000,0.000000000,-1.163701000,0.000000000,0.000000000,1.015300000,0.000000000,0.000000000,-0.025344000,0.000000000,0.000000000,0.236384000,0.000000000,0.000000000,0.025856000,0.000000000,0.009134350,1720621487.456183434,,,,,,,,,,,
1720621487.473701,-0.057772000,0.000000000,0.000000000,-1.157772000,0.000000000,0.000000000,1.015300000,0.000000000,0.000000000,-0.025344000,0.000000000,0.000000000,0.236064000,0.000000000,0.000000000,0.027072000,0.000000000,0.000000000,1720621487.463183403,,,,,,,,,,,
1720621487.474702,-0.057772000,0.000000000,0.000000000,-1.157772000,0.000000000,0.000000000,1.015300000,0.000000000,0.000000000,-0.025344000,0.000000000,0.000000000,0.236064000,0.000000000,0.000000000,0.027072000,0.000000000,0.000000000,1720621487.464183331,,,,,,,,,,,
1720621487.478556,-0.057772000,0.000000000,0.000000000,-1.157772000,0.000000000,0.000000000,1.015300000,0.000000000,0.000000000,-0.025344000,0.000000000,0.000000000,0.235584000,0.000000000,0.000000000,0.028256000,0.000000000,0.000000000,1720621487.468183517,,,,,,,,,,,
1720621487.485682,-0.057772000,0.000000000,0.000000000,-1.159389000,0.000000000,0.000000000,1.015300000,0.000000000,0.000000000,-0.025344000,0.000000000,0.000000000,0.235744000,0.000000000,0.000000000,0.028512000,0.000000000,0.000000000,1720621487.475183487,,,,,,,,,,,
1720621487.486713,-0.057772000,0.000000000,0.000000000,-1.159389000,0.000000000,0.000000000,1.015300000,0.000000000,0.000000000,-0.025344000,0.000000000,0.000000000,0.235744000,0.000000000,0.000000000,0.028512000,0.000000000,0.000000000,1720621487.476183414,,,,,,,,,,,
1720621487.491042,-0.057772000,0.000000000,0.000000000,-1.160467000,0.000000000,0.000000000,1.015300000,0.000000000,0.000000000,-0.025344000,0.000000000,0.000000000,0.236736000,0.000000000,0.000000000,0.027520000,0.000000000,0.000000000,1720621487.480183363,,,,,,,,,,,
1720621487.497452,-0.057772000,0.000000000,0.000000000,-1.158311000,0.000000000,0.000000000,1.015300000,0.000000000,0.000000000,-0.025344000,0.000000000,0.000000000,0.235008000,0.000000000,0.000000000,0.027328000,0.000000000,0.000000000,1720621487.487183332,,,,,,,,,,,
1720621487.498569,-0.057772000,0.000000000,0.000000000,-1.158311000,0.000000000,0.000000000,1.015300000,0.000000000,0.000000000,-0.025344000,0.000000000,0.000000000,0.235008000,0.000000000,0.000000000,0.027328000,0.000000000,0.000000000,1720621487.488183498,,,,,,,,,,,
1720621487.500510,,,,,,,,,,,,,,,,,,,,1720621487.487183332,-1.186824000,3.141592654,0.000000015,0.829037542,-0.000000022,-0.000000054,0.559192949,1.395152983,0.001110973,1.481517837
1720621487.502289,-0.057772000,0.000000000,0.000000000,-1.150765000,0.000000000,0.000000000,1.015300000,0.000000000,0.000000000,-0.025344000,0.000000000,0.000000000,0.235936000,0.000000000,0.000000000,0.028384000,0.000000000,0.000000000,1720621487.492183447,,,,,,,,,,,
1720621487.510108,-0.058344000,0.000000000,0.000000000,-1.155077000,0.000000000,0.000000000,1.015300000,0.000000000,0.000000000,-0.025344000,0.000000000,0.000000000,0.235520000,0.000000000,0.000000000,0.028320000,0.000000000,0.000000000,1720621487.499183416,,,,,,,,,,,
1720621487.511167,-0.058344000,0.000000000,0.000000000,-1.155077000,0.000000000,0.000000000,1.015300000,0.000000000,0.000000000,-0.025344000,0.000000000,0.000000000,0.235520000,0.000000000,0.000000000,0.028320000,0.000000000,0.000000000,1720621487.500183344,,,,,,,,,,,
1720621487.514402,-0.058344000,0.000000000,0.000000000,-1.155077000,0.000000000,0.000000000,1.015300000,0.000000000,0.000000000,-0.025344000,0.000000000,0.000000000,0.236000000,0.000000000,0.000000000,0.027584000,0.000000000,0.000000000,1720621487.504183292,,,,,,,,,,,
1720621487.521896,-0.057772000,0.000000000,0.000000000,-1.172864000,0.000000000,0.000000000,1.015300000,0.000000000,0.000000000,-0.025344000,0.000000000,0.000000000,0.236256000,0.000000000,0.000000000,0.027936000,0.000000000,0.000000000,1720621487.511183500,,,,,,,,,,,
1720621487.522804,-0.057772000,0.000000000,0.000000000,-1.172864000,0.000000000,0.000000000,1.015300000,0.000000000,0.000000000,-0.025344000,0.000000000,0.000000000,0.236256000,0.000000000,0.000000000,0.027936000,0.000000000,0.000000000,1720621487.512183428,,,,,,,,,,,
1720621487.526523,-0.057772000,0.000000000,0.000000000,-1.152382000,0.000000000,0.000000000,1.015300000,0.000000000,0.000000000,-0.025344000,0.000000000,0.000000000,0.235456000,0.000000000,0.000000000,0.027648000,0.000000000,0.000000000,1720621487.516183376,,,,,,,,,,,
1720621487.533888,-0.057772000,0.000000000,0.000000000,-1.178793000,0.000000000,0.000000000,1.015300000,0.000000000,0.000000000,-0.025344000,0.000000000,0.000000000,0.235808000,0.000000000,0.000000000,0.028064000,0.000000000,0.000000000,1720621487.523183346,,,,,,,,,,,
1720621487.534706,-0.057772000,0.000000000,0.000000000,-1.178793000,0.000000000,0.000000000,1.015300000,0.000000000,0.000000000,-0.025344000,0.000000000,0.000000000,0.235808000,0.000000000,0.000000000,0.028064000,0.000000000,0.000000000,1720621487.524183512,,,,,,,,,,,
1720621487.538643,-0.057772000,0.000000000,0.000000000,-1.161006000,0.000000000,0.000000000,1.015300000,0.000000000,0.000000000,-0.025344000,0.000000000,0.000000000,0.235520000,0.000000000,0.000000000,0.028256000,0.000000000,0.000000000,1720621487.528183460,,,,,,,,,,,
1720621487.545910,-0.057772000,0.000000000,0.000000000,-1.159389000,0.000000000,0.000000000,1.015300000,0.000000000,0.000000000,-0.025344000,0.000000000,0.000000000,0.235808000,0.000000000,0.000000000,0.028064000,0.000000000,0.000000000,1720621487.535183430,,,,,,,,,,,
1720621487.546631,-0.057772000,0.000000000,0.000000000,-1.159389000,0.000000000,0.000000000,1.015300000,0.000000000,0.000000000,-0.025344000,0.000000000,0.000000000,0.235808000,0.000000000,0.000000000,0.028064000,0.000000000,0.000000000,1720621487.536183357,,,,,,,,,,,
1720621487.551118,-0.057772000,0.000000000,0.000000000,-1.159389000,0.000000000,0.000000000,1.015300000,0.000000000,0.000000000,-0.025344000,0.000000000,0.000000000,0.235584000,0.000000000,0.000000000,0.027520000,0.000000000,0.000000000,1720621487.540183306,,,,,,,,,,,
1720621487.557874,-0.057772000,0.000000000,0.000000000,-1.162084000,0.000000000,0.000000000,1.015300000,0.000000000,0.000000000,-0.025344000,0.000000000,0.000000000,0.235264000,0.000000000,0.000000000,0.027648000,0.000000000,0.000000000,1720621487.547183514,,,,,,,,,,,
1720621487.558795,-0.057772000,0.000000000,0.000000000,-1.162084000,0.000000000,0.000000000,1.015300000,0.000000000,0.000000000,-0.025344000,0.000000000,0.000000000,0.235264000,0.000000000,0.000000000,0.027648000,0.000000000,0.000000000,1720621487.548183441,,,,,,,,,,,
1720621487.560564,,,,,,,,,,,,,,,,,,,,1720621487.540183306,-1.186824000,3.141592654,0.000000015,0.829037542,-0.000000022,-0.000000054,0.559192949,1.395152983,0.001110973,1.481517837
1720621487.562681,-0.057772000,0.000000000,0.000000000,-1.162084000,0.000000000,0.000000000,1.015300000,0.000000000,0.000000000,-0.025344000,0.000000000,0.000000000,0.236064000,0.000000000,0.000000000,0.028128000,0.000000000,0.000000000,1720621487.552183390,,,,,,,,,,,
1720621487.570339,-0.057772000,0.000000000,0.000000000,-1.164779000,0.000000000,0.000000000,1.015300000,0.000000000,0.000000000,-0.025344000,0.000000000,0.000000000,0.235744000,0.000000000,0.000000000,0.028384000,0.000000000,0.000000000,1720621487.559183359,,,,,,,,,,,
1720621487.571320,-0.057772000,0.000000000,0.000000000,-1.164779000,0.000000000,0.000000000,1.015300000,0.000000000,0.000000000,-0.025344000,0.000000000,0.000000000,0.235744000,0.000000000,0.000000000,0.028384000,0.000000000,0.000000000,1720621487.560183525,,,,,,,,,,,
1720621487.571336,-0.057772000,0.000000000,0.000000000,-1.164779000,0.000000000,0.000000000,1.015300000,0.000000000,0.000000000,-0.025344000,0.000000000,0.000000000,0.235744000,0.000000000,0.000000000,0.028384000,0.000000000,0.000000000,1720621487.561183453,,,,,,,,,,,
1720621487.582826,-0.059488000,0.000000000,0.000000000,-1.160467000,0.000000000,0.000000000,1.015300000,0.000000000,0.000000000,-0.025344000,0.000000000,0.000000000,0.235584000,0.000000000,0.000000000,0.028064000,0.000000000,0.000000000,1720621487.567183495,,,,,,,,,,,
1720621487.584906,-0.058344000,0.000000000,0.000000000,-1.159389000,0.000000000,0.000000000,1.015300000,0.000000000,0.000000000,-0.025344000,0.000000000,0.000000000,0.235584000,0.000000000,0.000000000,0.028128000,0.000000000,0.000000000,1720621487.573183298,,,,,,,,,,,
1720621487.594293,-0.057772000,0.000000000,0.000000000,-1.156694000,0.000000000,0.000000000,1.015300000,0.000000000,0.000000000,-0.025344000,0.000000000,0.000000000,0.235808000,0.000000000,0.000000000,0.027808000,0.000000000,0.000000000,1720621487.583183527,,,,,,,,,,,
1720621487.594598,-0.057772000,0.000000000,0.000000000,-1.156694000,0.000000000,0.000000000,1.015300000,0.000000000,0.000000000,-0.025344000,0.000000000,0.000000000,0.235808000,0.000000000,0.000000000,0.027808000,0.000000000,0.000000000,1720621487.584183455,,,,,,,,,,,
1720621487.595881,-0.057772000,0.000000000,0.000000000,-1.156694000,0.000000000,0.000000000,1.015300000,0.000000000,0.000000000,-0.025344000,0.000000000,0.000000000,0.235808000,0.000000000,0.000000000,0.027808000,0.000000000,0.000000000,1720621487.585183382,,,,,,,,,,,
1720621487.597867,-0.057772000,0.000000000,0.000000000,-1.156694000,0.000000000,0.000000000,1.015300000,0.000000000,0.000000000,-0.025344000,0.000000000,0.000000000,0.236000000,0.000000000,0.000000000,0.027712000,0.000000000,0.000000000,1720621487.587183475,,,,,,,,,,,
1720621487.601751,-0.057486000,0.000000000,0.000000000,-1.156694000,0.000000000,0.000000000,1.015300000,0.000000000,0.000000000,-0.025344000,0.000000000,0.000000000,0.235584000,0.000000000,0.000000000,0.028320000,0.000000000,0.000000000,1720621487.591183424,,,,,,,,,,,
1720621487.610363,-0.057486000,0.000000000,0.000000000,-1.159389000,0.000000000,0.000000000,1.015300000,0.000000000,0.000000000,-0.025344000,0.000000000,0.000000000,0.235808000,0.000000000,0.000000000,0.028256000,0.000000000,0.000000000,1720621487.599183321,,,,,,,,,,,
1720621487.610520,,,,,,,,,,,,,,,,,,,,1720621487.591183424,-1.186824000,3.141592654,0.000000015,0.829037542,-0.000000022,-0.000000054,0.559192949,1.395152983,0.001110973,1.481517837
1720621487.612612,-0.057486000,0.000000000,0.000000000,-1.159389000,0.000000000,0.000000000,1.015300000,0.000000000,0.000000000,-0.025344000,0.000000000,0.000000000,0.235808000,0.000000000,0.000000000,0.028256000,0.000000000,0.000000000,1720621487.601183414,,,,,,,,,,,
1720621487.622406,-0.057772000,0.000000000,0.000000000,-1.159389000,0.000000000,0.000000000,1.015300000,0.000000000,0.000000000,-0.025344000,0.000000000,0.000000000,0.236320000,0.000000000,0.000000000,0.028384000,0.000000000,0.000000000,1720621487.611183405,,,,,,,,,,,
1720621487.622810,-0.057772000,0.000000000,0.000000000,-1.159389000,0.000000000,0.000000000,1.015300000,0.000000000,0.000000000,-0.025344000,0.000000000,0.000000000,0.236320000,0.000000000,0.000000000,0.028384000,0.000000000,0.000000000,1720621487.612183332,,,,,,,,,,,
1720621487.624842,-0.057772000,0.000000000,0.000000000,-1.160467000,0.000000000,0.000000000,1.015300000,0.000000000,0.000000000,-0.025344000,0.000000000,0.000000000,0.236256000,0.000000000,0.000000000,0.027520000,0.000000000,0.000000000,1720621487.613183498,,,,,,,,,,,
1720621487.634453,-0.057486000,0.000000000,0.000000000,-1.162084000,0.000000000,0.000000000,1.015300000,0.000000000,0.000000000,-0.025344000,0.000000000,0.000000000,0.236544000,0.000000000,0.000000000,0.028384000,0.000000000,0.000000000,1720621487.623183489,,,,,,,,,,,
1720621487.634732,-0.057486000,0.000000000,0.000000000,-1.162084000,0.000000000,0.000000000,1.015300000,0.000000000,0.000000000,-0.025344000,0.000000000,0.000000000,0.236544000,0.000000000,0.000000000,0.028384000,0.000000000,0.000000000,1720621487.624183416,,,,,,,,,,,
1720621487.636932,-0.057486000,0.000000000,0.000000000,-1.162084000,0.000000000,0.000000000,1.015300000,0.000000000,0.000000000,-0.025344000,0.000000000,0.000000000,0.236544000,0.000000000,0.000000000,0.028384000,0.000000000,0.000000000,1720621487.625183344,,,,,,,,,,,
1720621487.646343,-0.057486000,0.000000000,0.000000000,-1.157772000,0.000000000,0.000000000,1.015300000,0.000000000,0.000000000,-0.025344000,0.000000000,0.000000000,0.235680000,0.000000000,0.000000000,0.027872000,0.000000000,0.000000000,1720621487.635183334,,,,,,,,,,,
1720621487.646961,-0.057486000,0.000000000,0.000000000,-1.157772000,0.000000000,0.000000000,1.015300000,0.000000000,0.000000000,-0.025344000,0.000000000,0.000000000,0.235680000,0.000000000,0.000000000,0.027872000,0.000000000,0.000000000,1720621487.636183500,,,,,,,,,,,
1720621487.647709,-0.057486000,0.000000000,0.000000000,-1.157772000,0.000000000,0.000000000,1.015300000,0.000000000,0.000000000,-0.025344000,0.000000000,0.000000000,0.235680000,0.000000000,0.000000000,0.027872000,0.000000000,0.000000000,1720621487.637183428,,,,,,,,,,,
1720621487.650062,-0.057772000,0.000000000,0.000000000,-1.158311000,0.000000000,0.000000000,1.015300000,0.000000000,0.000000000,-0.025344000,0.000000000,0.000000000,0.235584000,0.000000000,0.000000000,0.027648000,0.000000000,0.000000000,1720621487.639183521,,,,,,,,,,,
1720621487.659090,-0.057772000,0.000000000,0.000000000,-1.152382000,0.000000000,0.000000000,1.015300000,0.000000000,0.000000000,-0.025344000,0.000000000,0.000000000,0.235808000,0.000000000,0.000000000,0.028256000,0.000000000,0.000000000,1720621487.644183397,,,,,,,,,,,
1720621487.660599,,,,,,,,,,,,,,,,,,,,1720621487.644183397,-1.186824000,3.141592654,0.000000015,0.829037542,-0.000000022,-0.000000054,0.559192949,1.395152983,0.001110973,1.481517837
1720621487.662297,-0.057772000,0.000000000,0.000000000,-1.123276000,0.000000000,0.000000000,1.015300000,0.000000000,0.000000000,-0.025344000,0.000000000,0.000000000,0.236064000,0.000000000,0.000000000,0.028576000,0.000000000,0.000000000,1720621487.651183367,,,,,,,,,,,
1720621487.663043,-0.057772000,0.000000000,0.000000000,-1.123276000,0.000000000,0.000000000,1.015300000,0.000000000,0.000000000,-0.025344000,0.000000000,0.000000000,0.236064000,0.000000000,0.000000000,0.028576000,0.000000000,0.000000000,1720621487.652183294,,,,,,,,,,,
1720621487.666956,-0.057772000,0.000000000,0.000000000,-1.178793000,0.000000000,0.000000000,1.015300000,0.000000000,0.000000000,-0.025344000,0.000000000,0.000000000,0.235520000,0.000000000,0.000000000,0.027808000,0.000000000,0.000000000,1720621487.656183481,,,,,,,,,,,
1720621487.674106,-0.057772000,0.000000000,0.000000000,-1.158311000,0.000000000,0.000000000,1.015300000,0.000000000,0.000000000,-0.025344000,0.000000000,0.000000000,0.236192000,0.000000000,0.000000000,0.028256000,0.000000000,0.000000000,1720621487.663183451,,,,,,,,,,,
1720621487.674869,-0.057772000,0.000000000,0.000000000,-1.158311000,0.000000000,0.000000000,1.015300000,0.000000000,0.000000000,-0.025344000,0.000000000,0.000000000,0.236192000,0.000000000,0.000000000,0.028256000,0.000000000,0.000000000,1720621487.664183378,,,,,,,,,,,
1720621487.678961,-0.057772000,0.000000000,0.000000000,-1.160467000,0.000000000,0.000000000,1.015300000,0.000000000,0.000000000,-0.025344000,0.000000000,0.000000000,0.235264000,0.000000000,0.000000000,0.027008000,0.000000000,0.000000000,1720621487.668183327,,,,,,,,,,,
1720621487.686255,-0.057772000,0.000000000,0.000000000,-1.169091000,0.000000000,0.000000000,1.015300000,0.000000000,0.000000000,-0.025344000,0.000000000,0.000000000,0.235680000,0.000000000,0.000000000,0.027264000,0.000000000,0.000000000,1720621487.675183296,,,,,,,,,,,
1720621487.687044,-0.057772000,0.000000000,0.000000000,-1.169091000,0.000000000,0.000000000,1.015300000,0.000000000,0.000000000,-0.025344000,0.000000000,0.000000000,0.235680000,0.000000000,0.000000000,0.027264000,0.000000000,0.000000000,1720621487.676183462,,,,,,,,,,,
1720621487.699027,-0.057772000,0.000000000,0.000000000,-1.161006000,0.000000000,0.000000000,1.015300000,0.000000000,0.000000000,-0.025344000,0.000000000,0.000000000,0.235936000,0.000000000,0.000000000,0.029056000,0.000000000,0.000000000,1720621487.680183411,,,,,,,,,,,
1720621487.702849,-0.057772000,0.000000000,0.000000000,-1.158311000,0.000000000,0.000000000,1.015300000,0.000000000,0.000000000,-0.025344000,0.000000000,0.000000000,0.235872000,0.000000000,0.000000000,0.028320000,0.000000000,0.000000000,1720621487.692183495,,,,,,,,,,,
1720621487.710321,-0.058344000,0.000000000,0.000000000,-1.156694000,0.000000000,0.000000000,1.015300000,0.000000000,0.000000000,-0.025344000,0.000000000,0.000000000,0.235744000,0.000000000,0.000000000,0.028448000,0.000000000,0.000000000,1720621487.699183464,,,,,,,,,,,
1720621487.714093,-0.057772000,0.000000000,0.000000000,-1.179871000,0.000000000,0.000000000,1.015300000,0.000000000,0.000000000,-0.025344000,0.000000000,0.000000000,0.235936000,0.000000000,0.000000000,0.027808000,0.000000000,0.000000000,1720621487.703183413,,,,,,,,,,,
1720621487.720800,,,,,,,,,,,,,,,,,,,,1720621487.699183464,-1.186824000,3.141592654,0.000000015,0.829037542,-0.000000022,-0.000000054,0.559192949,1.395152983,0.001110973,1.481517837
1720621487.726120,-0.057486000,0.000000000,0.000000000,-1.153460000,0.000000000,0.000000000,1.015300000,0.000000000,0.000000000,-0.025344000,0.000000000,0.000000000,0.236064000,0.000000000,0.000000000,0.026944000,0.000000000,0.000000000,1720621487.715183496,,,,,,,,,,,
1720621487.731382,-0.057486000,0.000000000,0.000000000,-1.181488000,0.000000000,0.000000000,1.015300000,0.000000000,0.000000000,-0.025344000,0.000000000,0.000000000,0.235520000,0.000000000,0.000000000,0.029120000,0.000000000,0.000000000,1720621487.720183372,,,,,,,,,,,
1720621487.734550,-0.057486000,0.000000000,0.000000000,-1.151304000,0.000000000,0.000000000,1.015300000,0.000000000,0.000000000,-0.025344000,0.000000000,0.000000000,0.236128000,0.000000000,0.000000000,0.026784000,0.000000000,0.000000000,1720621487.723183393,,,,,,,,,,,
1720621487.736929,-0.057486000,0.000000000,0.000000000,-1.139985000,0.000000000,0.000000000,1.015300000,0.000000000,0.000000000,-0.025344000,0.000000000,0.000000000,0.235936000,0.000000000,0.000000000,0.028928000,0.000000000,0.000000000,1720621487.726183414,,,,,,,,,,,
1720621487.745286,-0.057486000,0.000000000,0.000000000,-1.150765000,0.000000000,0.000000000,1.015300000,0.000000000,0.000000000,-0.025344000,0.000000000,0.000000000,0.235456000,0.000000000,0.000000000,0.029248000,0.000000000,0.000000000,1720621487.734183311,,,,,,,,,,,
1720621487.749205,-0.057486000,0.000000000,0.000000000,-1.156694000,0.000000000,0.000000000,1.015300000,0.000000000,0.000000000,-0.025344000,0.000000000,0.000000000,0.235936000,0.000000000,0.000000000,0.026208000,0.000000000,0.000000000,1720621487.738183498,,,,,,,,,,,
1720621487.758347,-0.057486000,0.000000000,0.000000000,-1.158311000,0.000000000,0.000000000,1.015300000,0.000000000,0.000000000,-0.025344000,0.000000000,0.000000000,0.236000000,0.000000000,0.000000000,0.026592000,0.000000000,0.000000000,1720621487.747183323,,,,,,,,,,,
1720621487.766727,-0.057486000,0.000000000,0.000000000,-1.158311000,0.000000000,0.000000000,1.015300000,0.000000000,0.000000000,-0.025344000,0.000000000,0.000000000,0.235936000,0.000000000,0.000000000,0.027200000,0.000000000,0.000000000,1720621487.755183458,,,,,,,,,,,
1720621487.767188,-0.057486000,0.000000000,0.000000000,-1.158311000,0.000000000,0.000000000,1.015300000,0.000000000,0.000000000,-0.025344000,0.000000000,0.000000000,0.235936000,0.000000000,0.000000000,0.027200000,0.000000000,0.000000000,1720621487.756183386,,,,,,,,,,,
1720621487.770228,-0.057486000,0.000000000,0.000000000,-1.158311000,0.000000000,0.000000000,1.015300000,0.000000000,0.000000000,-0.025344000,0.000000000,0.000000000,0.235936000,0.000000000,0.000000000,0.028992000,0.000000000,0.000000000,1720621487.759183407,,,,,,,,,,,
1720621487.770548,,,,,,,,,,,,,,,,,,,,1720621487.755183458,-1.186824000,3.141592654,0.000000015,0.829037542,-0.000000022,-0.000000054,0.559192949,1.395152983,0.001110973,1.481517837
1720621487.778576,-0.057486000,0.000000000,0.000000000,-1.163701000,0.000000000,0.000000000,1.015300000,0.000000000,0.000000000,-0.025344000,0.000000000,0.000000000,0.235872000,0.000000000,0.000000000,0.029312000,0.000000000,0.000000000,1720621487.767183304,,,,,,,,,,,
1720621487.779057,-0.057486000,0.000000000,0.000000000,-1.163701000,0.000000000,0.000000000,1.015300000,0.000000000,0.000000000,-0.025344000,0.000000000,0.000000000,0.235872000,0.000000000,0.000000000,0.029312000,0.000000000,0.000000000,1720621487.768183470,,,,,,,,,,,
1720621487.782255,-0.057486000,0.000000000,0.000000000,-1.185800000,0.000000000,0.000000000,1.015300000,0.000000000,0.000000000,-0.025344000,0.000000000,0.000000000,0.235936000,0.000000000,0.000000000,0.026400000,0.000000000,0.000000000,1720621487.771183491,,,,,,,,,,,
1720621487.790645,-0.057486000,0.000000000,0.000000000,-1.157772000,0.000000000,0.000000000,1.015300000,0.000000000,0.000000000,-0.025344000,0.000000000,0.000000000,0.236256000,0.000000000,0.000000000,0.026720000,0.000000000,0.000000000,1720621487.779183388,,,,,,,,,,,
1720621487.791637,-0.057486000,0.000000000,0.000000000,-1.157772000,0.000000000,0.000000000,1.015300000,0.000000000,0.000000000,-0.025344000,0.000000000,0.000000000,0.236256000,0.000000000,0.000000000,0.026720000,0.000000000,0.000000000,1720621487.780183315,,,,,,,,,,,
1720621487.793370,-0.057486000,0.000000000,0.000000000,-1.157772000,0.000000000,0.000000000,1.015300000,0.000000000,0.000000000,-0.025344000,0.000000000,0.000000000,0.234816000,0.000000000,0.000000000,0.029248000,0.000000000,0.000000000,1720621487.782183409,,,,,,,,,,,
1720621487.802554,-0.057486000,0.000000000,0.000000000,-1.150765000,0.000000000,0.000000000,1.015300000,0.000000000,0.000000000,-0.025344000,0.000000000,0.000000000,0.235520000,0.000000000,0.000000000,0.029056000,0.000000000,0.000000000,1720621487.791183472,,,,,,,,,,,
1720621487.803750,-0.057486000,0.000000000,0.000000000,-1.150765000,0.000000000,0.000000000,1.015300000,0.000000000,0.000000000,-0.025344000,0.000000000,0.000000000,0.235520000,0.000000000,0.000000000,0.029056000,0.000000000,0.000000000,1720621487.792183399,,,,,,,,,,,
1720621487.815222,-0.057486000,0.000000000,0.000000000,-1.156155000,0.000000000,0.000000000,1.015300000,0.000000000,0.000000000,-0.025344000,0.000000000,0.000000000,0.235936000,0.000000000,0.000000000,0.027008000,0.000000000,0.000000000,1720621487.802183390,,,,,,,,,,,
1720621487.825135,-0.062920000,0.000000000,0.000000000,-1.156694000,0.000000000,0.000000000,1.015300000,0.000000000,0.000000000,-0.025344000,0.000000000,0.000000000,0.236384000,0.000000000,0.000000000,0.028736000,0.000000000,0.000000000,1720621487.814183474,,,,,,,,,,,
1720621487.830575,,,,,,,,,,,,,,,,,,,,1720621487.814183474,-1.186824000,3.141592654,0.000000015,0.829037542,-0.000000022,-0.000000054,0.559192949,1.395152983,0.001110973,1.481517837
1720621487.840726,-0.058344000,0.000000000,0.000000000,-1.161006000,0.000000000,0.000000000,1.015300000,0.000000000,0.000000000,-0.025344000,0.000000000,0.000000000,0.235584000,0.000000000,0.000000000,0.026208000,0.000000000,0.000000000,1720621487.825183392,,,,,,,,,,,
1720621487.843521,-0.058344000,0.000000000,0.000000000,-1.159389000,0.000000000,0.000000000,1.015300000,0.000000000,0.000000000,-0.025344000,0.000000000,0.000000000,0.235936000,0.000000000,0.000000000,0.029184000,0.000000000,0.000000000,1720621487.832183361,,,,,,,,,,,
1720621487.846535,-0.058344000,0.000000000,0.000000000,-1.159389000,0.000000000,0.000000000,1.015300000,0.000000000,0.000000000,-0.025344000,0.000000000,0.000000000,0.235744000,0.000000000,0.000000000,0.027072000,0.000000000,0.000000000,1720621487.835183382,,,,,,,,,,,
1720621487.849328,-0.057772000,0.000000000,0.000000000,-1.159389000,0.000000000,0.000000000,1.015300000,0.000000000,0.000000000,-0.025344000,0.000000000,0.000000000,0.236000000,0.000000000,0.000000000,0.028992000,0.000000000,0.000000000,1720621487.838183403,,,,,,,,,,,
1720621487.857731,-0.057486000,0.000000000,0.000000000,-1.164779000,0.000000000,0.000000000,1.015300000,0.000000000,0.000000000,-0.025344000,0.000000000,0.000000000,0.236256000,0.000000000,0.000000000,0.028928000,0.000000000,0.000000000,1720621487.846183300,,,,,,,,,,,
1720621487.866280,-0.057486000,0.000000000,0.000000000,-1.159389000,0.000000000,0.000000000,1.015300000,0.000000000,0.000000000,-0.025344000,0.000000000,0.000000000,0.235808000,0.000000000,0.000000000,0.027264000,0.000000000,0.000000000,1720621487.851183414,,,,,,,,,,,
1720621487.869616,-0.057486000,0.000000000,0.000000000,-1.190112000,0.000000000,0.000000000,1.015300000,0.000000000,0.000000000,-0.025344000,0.000000000,0.000000000,0.235008000,0.000000000,0.000000000,0.026944000,0.000000000,0.000000000,1720621487.858183384,,,,,,,,,,,
1720621487.871755,-0.057486000,0.000000000,0.000000000,-1.190112000,0.000000000,0.000000000,1.015300000,0.000000000,0.000000000,-0.025344000,0.000000000,0.000000000,0.235008000,0.000000000,0.000000000,0.026944000,0.000000000,0.000000000,1720621487.860183477,,,,,,,,,,,
1720621487.873423,-0.057486000,0.000000000,0.000000000,-1.130283000,0.000000000,0.000000000,1.015300000,0.000000000,0.000000000,-0.025344000,0.000000000,0.000000000,0.235872000,0.000000000,0.000000000,0.028672000,0.000000000,0.000000000,1720621487.862183332,,,,,,,,,,,
1720621487.874369,-0.057486000,0.000000000,0.000000000,-1.130283000,0.000000000,0.000000000,1.015300000,0.000000000,0.000000000,-0.025344000,0.000000000,0.000000000,0.235872000,0.000000000,0.000000000,0.028672000,0.000000000,0.000000000,1720621487.863183498,,,,,,,,,,,
1720621487.878144,-0.057486000,0.000000000,0.000000000,-1.158311000,0.000000000,0.000000000,1.015300000,0.000000000,0.000000000,-0.025344000,0.000000000,0.000000000,0.235680000,0.000000000,0.000000000,0.027456000,0.000000000,0.000000000,1720621487.867183447,,,,,,,,,,,
1720621487.880542,,,,,,,,,,,,,,,,,,,,1720621487.867183447,-1.186824000,3.141592654,0.000000015,0.829037542,-0.000000022,-0.000000054,0.559192949,1.395152983,0.001110973,1.481517837
1720621487.887254,-0.057486000,0.000000000,0.000000000,-1.155077000,0.000000000,0.000000000,1.015300000,0.000000000,0.000000000,-0.025344000,0.000000000,0.000000000,0.235872000,0.000000000,0.000000000,0.028064000,0.000000000,0.000000000,1720621487.876183510,,,,,,,,,,,
1720621487.899345,-0.057486000,0.000000000,0.000000000,-1.157772000,0.000000000,0.000000000,1.015300000,0.000000000,0.000000000,-0.025344000,0.000000000,0.000000000,0.236256000,0.000000000,0.000000000,0.027520000,0.000000000,0.000000000,1720621487.888183355,,,,,,,,,,,
1720621487.906507,-0.057486000,0.000000000,0.000000000,-1.155077000,0.000000000,0.000000000,1.015300000,0.000000000,0.000000000,-0.025344000,0.000000000,0.000000000,0.235328000,0.000000000,0.000000000,0.027392000,0.000000000,0.000000000,1720621487.895183325,,,,,,,,,,,
1720621487.907396,-0.057486000,0.000000000,0.000000000,-1.155077000,0.000000000,0.000000000,1.015300000,0.000000000,0.000000000,-0.025344000,0.000000000,0.000000000,0.235328000,0.000000000,0.000000000,0.027392000,0.000000000,0.000000000,1720621487.896183491,,,,,,,,,,,
1720621487.918403,-0.057486000,0.000000000,0.000000000,-1.155077000,0.000000000,0.000000000,1.015300000,0.000000000,0.000000000,-0.025344000,0.000000000,0.000000000,0.235936000,0.000000000,0.000000000,0.027712000,0.000000000,0.000000000,1720621487.902183294,,,,,,,,,,,
1720621487.919487,-0.057486000,0.000000000,0.000000000,-1.155077000,0.000000000,0.000000000,1.015300000,0.000000000,0.000000000,-0.025344000,0.000000000,0.000000000,0.235520000,0.000000000,0.000000000,0.027936000,0.000000000,0.000000000,1720621487.908183336,,,,,,,,,,,
1720621487.921868,-0.057486000,0.000000000,0.000000000,-1.155077000,0.000000000,0.000000000,1.015300000,0.000000000,0.000000000,-0.025344000,0.000000000,0.000000000,0.235936000,0.000000000,0.000000000,0.027936000,0.000000000,0.000000000,1720621487.910183430,,,,,,,,,,,
1720621487.925522,-0.057486000,0.000000000,0.000000000,-1.151304000,0.000000000,0.000000000,1.015300000,0.000000000,0.000000000,-0.025344000,0.000000000,0.000000000,0.235584000,0.000000000,0.000000000,0.027936000,0.000000000,0.000000000,1720621487.914183378,,,,,,,,,,,
1720621487.933744,-0.057486000,0.000000000,0.000000000,-1.146453000,0.000000000,0.000000000,1.015300000,0.000000000,0.000000000,-0.025344000,0.000000000,0.000000000,0.235936000,0.000000000,0.000000000,0.028192000,0.000000000,0.000000000,1720621487.922183514,,,,,,,,,,,
1720621487.938641,-0.057486000,0.000000000,0.000000000,-1.156155000,0.000000000,0.000000000,1.015300000,0.000000000,0.000000000,-0.025344000,0.000000000,0.000000000,0.235744000,0.000000000,0.000000000,0.027456000,0.000000000,0.000000000,1720621487.927183390,,,,,,,,,,,
1720621487.940650,,,,,,,,,,,,,,,,,,,,1720621487.922183514,-1.186824000,3.141592654,0.000000015,0.829037542,-0.000000022,-0.000000054,0.559192949,1.395152983,0.001110973,1.481517837
1720621487.945670,-0.057486000,0.000000000,0.000000000,-1.156155000,0.000000000,0.000000000,1.015300000,0.000000000,0.000000000,-0.025344000,0.000000000,0.000000000,0.235872000,0.000000000,0.000000000,0.027200000,0.000000000,0.000000000,1720621487.934183359,,,,,,,,,,,
1720621487.949564,-0.057486000,0.000000000,0.000000000,-1.156155000,0.000000000,0.000000000,1.015300000,0.000000000,0.000000000,-0.025344000,0.000000000,0.000000000,0.236448000,0.000000000,0.000000000,0.028448000,0.000000000,0.000000000,1720621487.938183308,,,,,,,,,,,
1720621487.958433,-0.057486000,0.000000000,0.000000000,-1.156155000,0.000000000,0.000000000,1.015300000,0.000000000,0.000000000,-0.025344000,0.000000000,0.000000000,0.235744000,0.000000000,0.000000000,0.027648000,0.000000000,0.000000000,1720621487.947183371,,,,,,,,,,,
1720621487.969166,-0.057486000,0.000000000,0.000000000,-1.157772000,0.000000000,0.000000000,1.015300000,0.000000000,0.000000000,-0.025344000,0.000000000,0.000000000,0.235456000,0.000000000,0.000000000,0.028064000,0.000000000,0.000000000,1720621487.957183361,,,,,,,,,,,
1720621487.969470,-0.057486000,0.000000000,0.000000000,-1.157772000,0.000000000,0.000000000,1.015300000,0.000000000,0.000000000,-0.025344000,0.000000000,0.000000000,0.235456000,0.000000000,0.000000000,0.028064000,0.000000000,0.000000000,1720621487.958183527,,,,,,,,,,,
1720621487.972835,-0.057486000,0.000000000,0.000000000,-1.157772000,0.000000000,0.000000000,1.015300000,0.000000000,0.000000000,-0.025344000,0.000000000,0.000000000,0.236384000,0.000000000,0.000000000,0.028064000,0.000000000,0.000000000,1720621487.961183310,,,,,,,,,,,
1720621487.982663,-0.057486000,0.000000000,0.000000000,-1.158311000,0.000000000,0.000000000,1.015300000,0.000000000,0.000000000,-0.025344000,0.000000000,0.000000000,0.236000000,0.000000000,0.000000000,0.029056000,0.000000000,0.000000000,1720621487.970183372,,,,,,,,,,,
1720621487.982755,-0.057486000,0.000000000,0.000000000,-1.158311000,0.000000000,0.000000000,1.015300000,0.000000000,0.000000000,-0.025344000,0.000000000,0.000000000,0.236000000,0.000000000,0.000000000,0.029056000,0.000000000,0.000000000,1720621487.971183300,,,,,,,,,,,
1720621487.983808,-0.057486000,0.000000000,0.000000000,-1.158311000,0.000000000,0.000000000,1.015300000,0.000000000,0.000000000,-0.025344000,0.000000000,0.000000000,0.236000000,0.000000000,0.000000000,0.029056000,0.000000000,0.000000000,1720621487.972183466,,,,,,,,,,,
1720621487.990733,,,,,,,,,,,,,,,,,,,,1720621487.972183466,-1.186824000,3.141592654,0.000000015,0.829037542,-0.000000022,-0.000000054,0.559192949,1.395152983,0.001110973,1.481517837
1720621487.994650,-0.057486000,0.000000000,0.000000000,-1.158311000,0.000000000,0.000000000,1.015300000,0.000000000,0.000000000,-0.025344000,0.000000000,0.000000000,0.235584000,0.000000000,0.000000000,0.028800000,0.000000000,0.000000000,1720621487.978183508,,,,,,,,,,,
1720621487.995531,-0.057486000,0.000000000,0.000000000,-1.157772000,0.000000000,0.000000000,1.015300000,0.000000000,0.000000000,-0.025344000,0.000000000,0.000000000,0.235936000,0.000000000,0.000000000,0.027456000,0.000000000,0.000000000,1720621487.984183311,,,,,,,,,,,
1720621487.997721,-0.057486000,0.000000000,0.000000000,-1.155077000,0.000000000,0.000000000,1.015300000,0.000000000,0.000000000,-0.025344000,0.000000000,0.000000000,0.235808000,0.000000000,0.000000000,0.028000000,0.000000000,0.000000000,1720621487.986183405,,,,,,,,,,,
1720621488.002068,-0.057486000,0.000000000,0.000000000,-1.134595000,0.000000000,0.000000000,1.015300000,0.000000000,0.000000000,-0.025344000,0.000000000,0.000000000,0.236192000,0.000000000,0.000000000,0.027328000,0.000000000,0.000000000,1720621487.990183353,,,,,,,,,,,
1720621488.009851,-0.057486000,0.000000000,0.000000000,-1.158311000,0.000000000,0.000000000,1.015300000,0.000000000,0.000000000,-0.025344000,0.000000000,0.000000000,0.235328000,0.000000000,0.000000000,0.027328000,0.000000000,0.000000000,1720621487.998183489,,,,,,,,,,,
1720621488.013410,-0.057486000,0.000000000,0.000000000,-1.155077000,0.000000000,0.000000000,1.015300000,0.000000000,0.000000000,-0.025344000,0.000000000,0.000000000,0.236064000,0.000000000,0.000000000,0.028256000,0.000000000,0.000000000,1720621488.002183437,,,,,,,,,,,
1720621488.022057,-0.057486000,0.000000000,0.000000000,-1.158311000,0.000000000,0.000000000,1.015300000,0.000000000,0.000000000,-0.025344000,0.000000000,0.000000000,0.235328000,0.000000000,0.000000000,0.028320000,0.000000000,0.000000000,1720621488.010183334,,,,,,,,,,,
1720621488.025356,-0.057486000,0.000000000,0.000000000,-1.158311000,0.000000000,0.000000000,1.015300000,0.000000000,0.000000000,-0.025344000,0.000000000,0.000000000,0.236192000,0.000000000,0.000000000,0.027584000,0.000000000,0.000000000,1720621488.014183521,,,,,,,,,,,
1720621488.033986,-0.057486000,0.000000000,0.000000000,-1.155077000,0.000000000,0.000000000,1.015300000,0.000000000,0.000000000,-0.025344000,0.000000000,0.000000000,0.236192000,0.000000000,0.000000000,0.027264000,0.000000000,0.000000000,1720621488.022183418,,,,,,,,,,,
1720621488.037774,-0.057486000,0.000000000,0.000000000,-1.157772000,0.000000000,0.000000000,1.015300000,0.000000000,0.000000000,-0.025344000,0.000000000,0.000000000,0.236128000,0.000000000,0.000000000,0.028384000,0.000000000,0.000000000,1720621488.026183367,,,,,,,,,,,
1720621488.040707,,,,,,,,,,,,,,,,,,,,1720621488.022183418,-1.186824000,3.141592654,0.000000015,0.829037542,-0.000000022,-0.000000054,0.559192949,1.395152983,0.001110973,1.481517837
1720621488.045897,-0.057486000,0.000000000,0.000000000,-1.157772000,0.000000000,0.000000000,1.015300000,0.000000000,0.000000000,-0.025344000,0.000000000,0.000000000,0.235808000,0.000000000,0.000000000,0.028192000,0.000000000,0.000000000,1720621488.034183502,,,,,,,,,,,
1720621488.050847,-0.057486000,0.000000000,0.000000000,-1.152382000,0.000000000,0.000000000,1.015300000,0.000000000,0.000000000,-0.025344000,0.000000000,0.000000000,0.236256000,0.000000000,0.000000000,0.027136000,0.000000000,0.000000000,1720621488.039183378,,,,,,,,,,,
