zakjeens/yaskawa_debug_materials/t4/joints.csv
__time,/joint_states/group_1/joint_1/effort,/joint_states/group_1/joint_1/position,/joint_states/group_1/joint_1/velocity,/joint_states/group_1/joint_2/effort,/joint_states/group_1/joint_2/position,/joint_states/group_1/joint_2/velocity,/joint_states/group_1/joint_3/effort,/joint_states/group_1/joint_3/position,/joint_states/group_1/joint_3/velocity,/joint_states/group_1/joint_4/effort,/joint_states/group_1/joint_4/position,/joint_states/group_1/joint_4/velocity,/joint_states/group_1/joint_5/effort,/joint_states/group_1/joint_5/position,/joint_states/group_1/joint_5/velocity,/joint_states/group_1/joint_6/effort,/joint_states/group_1/joint_6/position,/joint_states/group_1/joint_6/velocity,/joint_states/header/stamp,/world_to_torch/header/header/stamp,/world_to_torch/transform/rotation/pitch,/world_to_torch/transform/rotation/roll,/world_to_torch/transform/rotation/w,/world_to_torch/transform/rotation/x,/world_to_torch/transform/rotation/y,/world_to_torch/transform/rotation/yaw,/world_to_torch/transform/rotation/z,/world_to_torch/transform/translation/x,/world_to_torch/transform/translation/y,/world_to_torch/transform/translation/z
1720619242.253105,0.029744000,0.000000000,0.000000000,-1.209516000,0.000000000,0.000000000,0.992706000,0.000000000,0.000000000,0.048576000,0.000000000,0.000000000,0.236608000,0.000000000,0.000000000,-0.046496000,0.000000000,0.009134350,1720619242.243717432,,,,,,,,,,,
1720619242.254285,0.029744000,0.000000000,0.000000000,-1.209516000,0.000000000,0.000000000,0.992706000,0.000000000,0.000000000,0.048576000,0.000000000,0.000000000,0.236608000,0.000000000,0.000000000,-0.046496000,0.000000000,0.009134350,1720619242.244717360,,,,,,,,,,,
1720619242.257507,0.029744000,0.000000000,0.000000000,-1.219218000,0.000000000,0.000000000,0.992706000,0.000000000,0.000000000,0.048576000,0.000000000,0.000000000,0.236448000,0.000000000,0.000000000,-0.047904000,0.000038380,0.009134350,1720619242.248717546,,,,,,,,,,,
1720619242.265200,0.029744000,0.000000000,0.000000000,-1.245090000,0.000000000,0.000000000,0.992706000,0.000000000,0.000000000,0.048576000,0.000000000,0.000000000,0.235744000,0.000000000,0.000000000,-0.047776000,0.000038380,0.009134350,1720619242.255717516,,,,,,,,,,,
1720619242.266083,0.029744000,0.000000000,0.000000000,-1.245090000,0.000000000,0.000000000,0.992706000,0.000000000,0.000000000,0.048576000,0.000000000,0.000000000,0.235744000,0.000000000,0.000000000,-0.047776000,0.000038380,0.009134350,1720619242.256717443,,,,,,,,,,,
1720619242.269548,0.029744000,0.000000000,0.000000000,-1.217062000,0.000000000,0.000000000,0.992706000,0.000000000,0.000000000,0.048160000,0.000000000,0.000000000,0.236000000,0.000000000,0.000000000,-0.046048000,0.000000000,0.009134350,1720619242.260717392,,,,,,,,,,,
1720619242.277210,0.029744000,0.000000000,0.000000000,-1.214367000,0.000000000,0.000000000,0.992706000,0.000000000,0.000000000,0.048576000,0.000000000,0.000000000,0.235392000,0.000000000,0.000000000,-0.046496000,0.000000000,0.009134350,1720619242.267717361,,,,,,,,,,,
1720619242.277656,0.029744000,0.000000000,0.000000000,-1.214367000,0.000000000,0.000000000,0.992706000,0.000000000,0.000000000,0.048576000,0.000000000,0.000000000,0.235392000,0.000000000,0.000000000,-0.046496000,0.000000000,0.009134350,1720619242.268717527,,,,,,,,,,,
1720619242.284103,0.029744000,0.000000000,0.000000000,-1.210594000,0.000000000,0.000000000,0.992706000,0.000000000,0.000000000,0.048576000,0.000000000,0.000000000,0.235744000,0.000000000,0.000000000,-0.047040000,0.000000000,0.000000000,1720619242.273717403,,,,,,,,,,,
1720619242.288876,0.029744000,0.000000000,0.000000000,-1.209516000,0.000000000,0.000000000,0.992706000,0.000000000,0.000000000,0.048576000,0.000000000,0.000000000,0.236064000,0.000000000,0.000000000,-0.046592000,0.000000000,0.000000000,1720619242.279717445,,,,,,,,,,,
1720619242.289761,0.029744000,0.000000000,0.000000000,-1.209516000,0.000000000,0.000000000,0.992706000,0.000000000,0.000000000,0.048576000,0.000000000,0.000000000,0.236064000,0.000000000,0.000000000,-0.046592000,0.000000000,0.000000000,1720619242.280717373,,,,,,,,,,,
1720619242.296809,0.029744000,0.000000000,0.000000000,-1.208977000,0.000000000,0.000000000,0.992706000,0.000000000,0.000000000,0.048576000,0.000000000,0.000000000,0.235264000,0.000000000,0.000000000,-0.047296000,0.000000000,0.000000000,1720619242.281717539,,,,,,,,,,,
1720619242.301096,0.029744000,0.000000000,0.000000000,-1.211672000,0.000000000,0.000000000,0.992706000,0.000000000,0.000000000,0.048640000,0.000000000,0.000000000,0.236064000,0.000000000,0.000000000,-0.047648000,0.000000000,0.000000000,1720619242.291717529,,,,,,,,,,,
1720619242.301915,0.029744000,0.000000000,0.000000000,-1.211672000,0.000000000,0.000000000,0.992706000,0.000000000,0.000000000,0.048640000,0.000000000,0.000000000,0.236064000,0.000000000,0.000000000,-0.047648000,0.000000000,0.000000000,1720619242.292717457,,,,,,,,,,,
1720619242.304251,0.029744000,0.000000000,0.000000000,-1.203587000,0.000000000,0.000000000,0.992706000,0.000000000,0.000000000,0.048576000,0.000000000,0.000000000,0.236544000,0.000000000,0.000000000,-0.046048000,0.000000000,0.000000000,1720619242.293717384,,,,,,,,,,,
1720619242.313347,0.029744000,0.000000000,0.000000000,-1.201970000,0.000000000,0.000000000,0.992706000,0.000000000,0.000000000,0.048640000,0.000000000,0.000000000,0.235872000,0.000000000,0.000000000,-0.046784000,0.000000000,0.000000000,1720619242.303717375,,,,,,,,,,,
1720619242.314664,0.029744000,0.000000000,0.000000000,-1.201970000,0.000000000,0.000000000,0.992706000,0.000000000,0.000000000,0.048640000,0.000000000,0.000000000,0.235872000,0.000000000,0.000000000,-0.046784000,0.000000000,0.000000000,1720619242.304717541,,,,,,,,,,,
1720619242.316373,0.029744000,0.000000000,0.000000000,-1.214367000,0.000000000,0.000000000,0.992706000,0.000000000,0.000000000,0.048640000,0.000000000,0.000000000,0.235808000,0.000000000,0.000000000,-0.046912000,0.000000000,0.000000000,1720619242.306717396,,,,,,,,,,,
1720619242.325456,0.029744000,0.000000000,0.000000000,-1.214906000,0.000000000,0.000000000,0.992706000,0.000000000,0.000000000,0.048640000,0.000000000,0.000000000,0.235456000,0.000000000,0.000000000,-0.047104000,0.000000000,0.000000000,1720619242.315717459,,,,,,,,,,,
1720619242.326254,0.029744000,0.000000000,0.000000000,-1.214906000,0.000000000,0.000000000,0.992706000,0.000000000,0.000000000,0.048640000,0.000000000,0.000000000,0.235456000,0.000000000,0.000000000,-0.047104000,0.000000000,0.000000000,1720619242.316717386,,,,,,,,,,,
1720619242.327980,0.029744000,0.000000000,0.000000000,-1.210594000,0.000000000,0.000000000,0.992706000,0.000000000,0.000000000,0.048640000,0.000000000,0.000000000,0.236192000,0.000000000,0.000000000,-0.046720000,0.000000000,0.000000000,1720619242.318717480,,,,,,,,,,,
1720619242.337480,0.029744000,0.000000000,0.000000000,-1.210594000,0.000000000,0.000000000,0.992706000,0.000000000,0.000000000,0.048576000,0.000000000,0.000000000,0.236320000,0.000000000,0.000000000,-0.046912000,0.000000000,0.000000000,1720619242.327717543,,,,,,,,,,,
1720619242.338145,0.029744000,0.000000000,0.000000000,-1.210594000,0.000000000,0.000000000,0.992706000,0.000000000,0.000000000,0.048576000,0.000000000,0.000000000,0.236320000,0.000000000,0.000000000,-0.046912000,0.000000000,0.000000000,1720619242.328717470,,,,,,,,,,,
1720619242.340873,0.029744000,0.000000000,0.000000000,-1.217601000,0.000000000,0.000000000,0.992706000,0.000000000,0.000000000,0.048576000,0.000000000,0.000000000,0.235520000,0.000000000,0.000000000,-0.046368000,0.000000000,0.000000000,1720619242.331717491,,,,,,,,,,,
1720619242.349406,0.029744000,0.000000000,0.000000000,-1.217601000,0.000000000,0.000000000,0.992706000,0.000000000,0.000000000,0.048576000,0.000000000,0.000000000,0.236736000,0.000000000,0.000000000,-0.046976000,0.000000000,0.000000000,1720619242.339717388,,,,,,,,,,,
1720619242.349944,0.029744000,0.000000000,0.000000000,-1.217601000,0.000000000,0.000000000,0.992706000,0.000000000,0.000000000,0.048576000,0.000000000,0.000000000,0.236736000,0.000000000,0.000000000,-0.046976000,0.000000000,0.000000000,1720619242.340717316,,,,,,,,,,,
1720619242.353068,0.029744000,0.000000000,0.000000000,-1.207360000,0.000000000,0.000000000,0.992706000,0.000000000,0.000000000,0.048640000,0.000000000,0.000000000,0.236064000,0.000000000,0.000000000,-0.046912000,0.000000000,0.000000000,1720619242.343717337,,,,,,,,,,,
1720619242.361599,0.029744000,0.000000000,0.000000000,-1.204665000,0.000000000,0.000000000,0.992706000,0.000000000,0.000000000,0.048512000,0.000000000,0.000000000,0.235872000,0.000000000,0.000000000,-0.046912000,0.000000000,0.000000000,1720619242.351717472,,,,,,,,,,,
1720619242.361947,0.029744000,0.000000000,0.000000000,-1.204665000,0.000000000,0.000000000,0.992706000,0.000000000,0.000000000,0.048512000,0.000000000,0.000000000,0.235872000,0.000000000,0.000000000,-0.046912000,0.000000000,0.000000000,1720619242.352717400,,,,,,,,,,,
1720619242.365187,0.029744000,0.000000000,0.000000000,-1.204665000,0.000000000,0.000000000,0.992706000,0.000000000,0.000000000,0.048576000,0.000000000,0.000000000,0.236064000,0.000000000,0.000000000,-0.046496000,0.000000000,0.000000000,1720619242.355717421,,,,,,,,,,,
1720619242.373338,0.029744000,0.000000000,0.000000000,-1.226764000,0.000000000,0.000000000,0.992706000,0.000000000,0.000000000,0.048576000,0.000000000,0.000000000,0.235872000,0.000000000,0.000000000,-0.046304000,0.000000000,0.009134350,1720619242.363717318,,,,,,,,,,,
1720619242.374530,0.029744000,0.000000000,0.000000000,-1.226764000,0.000000000,0.000000000,0.992706000,0.000000000,0.000000000,0.048576000,0.000000000,0.000000000,0.235872000,0.000000000,0.000000000,-0.046304000,0.000000000,0.009134350,1720619242.364717484,,,,,,,,,,,
1720619242.377230,0.029744000,0.000000000,0.000000000,-1.201970000,0.000000000,0.000000000,0.992706000,0.000000000,0.000000000,0.048576000,0.000000000,0.000000000,0.235872000,0.000000000,0.000000000,-0.046976000,0.000000000,0.000000000,1720619242.367717505,,,,,,,,,,,
1720619242.385557,0.029744000,0.000000000,0.000000000,-1.203587000,0.000000000,0.000000000,0.992706000,0.000000000,0.000000000,0.048576000,0.000000000,0.000000000,0.235936000,0.000000000,0.000000000,-0.046784000,0.000000000,0.000000000,1720619242.375717402,,,,,,,,,,,
1720619242.386597,0.029744000,0.000000000,0.000000000,-1.203587000,0.000000000,0.000000000,0.992706000,0.000000000,0.000000000,0.048576000,0.000000000,0.000000000,0.235936000,0.000000000,0.000000000,-0.046784000,0.000000000,0.000000000,1720619242.376717329,,,,,,,,,,,
1720619242.388045,0.029744000,0.000000000,0.000000000,-1.205204000,0.000000000,0.000000000,0.993564000,0.000000000,0.000000000,0.048576000,0.000000000,0.000000000,0.236320000,0.000000000,0.000000000,-0.046496000,0.000000000,0.000000000,1720619242.378717422,,,,,,,,,,,
1720619242.397538,0.029744000,0.000000000,0.000000000,-1.207899000,0.000000000,0.000000000,0.993564000,0.000000000,0.000000000,0.048576000,0.000000000,0.000000000,0.235520000,0.000000000,0.000000000,-0.046848000,0.000000000,0.000000000,1720619242.387717485,,,,,,,,,,,
1720619242.398238,0.029744000,0.000000000,0.000000000,-1.207899000,0.000000000,0.000000000,0.993564000,0.000000000,0.000000000,0.048576000,0.000000000,0.000000000,0.235520000,0.000000000,0.000000000,-0.046848000,0.000000000,0.000000000,1720619242.388717413,,,,,,,,,,,
1720619242.401196,0.029744000,0.000000000,0.000000000,-1.208977000,0.000000000,0.000000000,0.993278000,0.000000000,0.000000000,0.048576000,0.000000000,0.000000000,0.236448000,0.000000000,0.000000000,-0.046112000,0.000000000,0.000000000,1720619242.389717340,,,,,,,,,,,
1720619242.409486,0.029744000,0.000000000,0.000000000,-1.209516000,0.000000000,0.000000000,0.993278000,0.000000000,0.000000000,0.048576000,0.000000000,0.000000000,0.236256000,0.000000000,0.000000000,-0.046496000,0.000000000,0.000000000,1720619242.399717331,,,,,,,,,,,
1720619242.410213,0.029744000,0.000000000,0.000000000,-1.209516000,0.000000000,0.000000000,0.993278000,0.000000000,0.000000000,0.048576000,0.000000000,0.000000000,0.236256000,0.000000000,0.000000000,-0.046496000,0.000000000,0.000000000,1720619242.400717497,,,,,,,,,,,
1720619242.412394,0.029744000,0.000000000,0.000000000,-1.209516000,0.000000000,0.000000000,0.993278000,0.000000000,0.000000000,0.048576000,0.000000000,0.000000000,0.236448000,0.000000000,0.000000000,-0.047168000,0.000000000,0.000000000,1720619242.402717352,,,,,,,,,,,
1720619242.414238,0.029744000,0.000000000,0.000000000,-1.209516000,0.000000000,0.000000000,0.993278000,0.000000000,0.000000000,0.048576000,0.000000000,0.000000000,0.236448000,0.000000000,0.000000000,-0.047168000,0.000000000,0.000000000,1720619242.404717445,,,,,,,,,,,
1720619242.419841,0.029744000,0.000000000,0.000000000,-1.208977000,0.000000000,0.000000000,0.993278000,0.000000000,0.000000000,0.048512000,0.000000000,0.000000000,0.235744000,0.000000000,0.000000000,-0.047648000,0.000000000,0.000000000,1720619242.409717321,,,,,,,,,,,
1720619242.426849,0.029744000,0.000000000,0.000000000,-1.208977000,0.000000000,0.000000000,0.993278000,0.000000000,0.000000000,0.048512000,0.000000000,0.000000000,0.236064000,0.000000000,0.000000000,-0.046240000,0.000000000,0.000000000,1720619242.416717529,,,,,,,,,,,
1720619242.427963,0.029744000,0.000000000,0.000000000,-1.208977000,0.000000000,0.000000000,0.993278000,0.000000000,0.000000000,0.048512000,0.000000000,0.000000000,0.237056000,0.000000000,0.000000000,-0.046912000,0.000000000,0.000000000,1720619242.417717457,,,,,,,,,,,
1720619242.431940,0.029744000,0.000000000,0.000000000,-1.207899000,0.000000000,0.000000000,0.993278000,0.000000000,0.000000000,0.048576000,0.000000000,0.000000000,0.236064000,0.000000000,0.000000000,-0.046304000,0.000000000,0.000000000,1720619242.421717405,,,,,,,,,,,
1720619242.435545,,,,,,,,,,,,,,,,,,,,1720619242.416717529,-1.186824000,3.141592654,0.000000015,0.829037542,-0.000000022,-0.000000054,0.559192949,1.395152983,0.001110973,1.481517837
1720619242.438511,0.029744000,0.000000000,0.000000000,-1.207360000,0.000000000,0.000000000,0.993278000,0.000000000,0.000000000,0.048576000,0.000000000,0.000000000,0.236192000,0.000000000,0.000000000,-0.047968000,0.000038380,0.009134350,1720619242.428717375,,,,,,,,,,,
1720619242.440372,0.029744000,0.000000000,0.000000000,-1.207360000,0.000000000,0.000000000,0.993278000,0.000000000,0.000000000,0.048576000,0.000000000,0.000000000,0.235520000,0.000000000,0.000000000,-0.046592000,0.000000000,0.009134350,1720619242.430717468,,,,,,,,,,,
1720619242.444326,0.029744000,0.000000000,0.000000000,-1.207360000,0.000000000,0.000000000,0.993278000,0.000000000,0.000000000,0.048576000,0.000000000,0.000000000,0.236672000,0.000000000,0.000000000,-0.046912000,0.000000000,0.000000000,1720619242.434717417,,,,,,,,,,,
1720619242.456553,0.029744000,0.000000000,0.000000000,-1.207360000,0.000000000,0.000000000,0.993278000,0.000000000,0.000000000,0.048576000,0.000000000,0.000000000,0.236992000,0.000000000,0.000000000,-0.048160000,0.000038380,0.009134350,1720619242.446717501,,,,,,,,,,,
1720619242.462570,0.029744000,0.000000000,0.000000000,-1.207360000,0.000000000,0.000000000,0.993278000,0.000000000,0.000000000,0.048576000,0.000000000,0.000000000,0.236448000,0.000000000,0.000000000,-0.045856000,0.000000000,0.009134350,1720619242.452717543,,,,,,,,,,,
1720619242.464568,0.029744000,0.000000000,0.000000000,-1.207899000,0.000000000,0.000000000,0.993278000,0.000000000,0.000000000,0.048576000,0.000000000,0.000000000,0.235520000,0.000000000,0.000000000,-0.047104000,0.000000000,0.000000000,1720619242.454717398,,,,,,,,,,,
1720619242.469520,0.029744000,0.000000000,0.000000000,-1.207899000,0.000000000,0.000000000,0.993278000,0.000000000,0.000000000,0.048576000,0.000000000,0.000000000,0.236128000,0.000000000,0.000000000,-0.046784000,0.000000000,0.000000000,1720619242.459717512,,,,,,,,,,,
1720619242.476892,0.029744000,0.000000000,0.000000000,-1.207360000,0.000000000,0.000000000,0.993278000,0.000000000,0.000000000,0.048576000,0.000000000,0.000000000,0.235744000,0.000000000,0.000000000,-0.046784000,0.000000000,0.000000000,1720619242.466717482,,,,,,,,,,,
1720619242.480387,0.029744000,0.000000000,0.000000000,-1.207360000,0.000000000,0.000000000,0.993278000,0.000000000,0.000000000,0.048576000,0.000000000,0.000000000,0.235936000,0.000000000,0.000000000,-0.046848000,0.000000000,0.000000000,1720619242.470717430,,,,,,,,,,,
1720619242.485459,,,,,,,,,,,,,,,,,,,,1720619242.466717482,-1.186824000,3.141592654,0.000000015,0.829037542,-0.000000022,-0.000000054,0.559192949,1.395152983,0.001110973,1.481517837
1720619242.490463,0.029744000,0.000000000,0.000000000,-1.207360000,0.000000000,0.000000000,0.993278000,0.000000000,0.000000000,0.048576000,0.000000000,0.000000000,0.236128000,0.000000000,0.000000000,-0.047040000,0.000000000,0.000000000,1720619242.480717421,,,,,,,,,,,
1720619242.500243,0.029744000,0.000000000,0.000000000,-1.207360000,0.000000000,0.000000000,0.993278000,0.000000000,0.000000000,0.048576000,0.000000000,0.000000000,0.235936000,0.000000000,0.000000000,-0.046432000,0.000000000,0.000000000,1720619242.489717484,,,,,,,,,,,
1720619242.510612,0.029744000,0.000000000,0.000000000,-1.204665000,0.000000000,0.000000000,0.993278000,0.000000000,0.000000000,0.048576000,0.000000000,0.000000000,0.235936000,0.000000000,0.000000000,-0.046592000,0.000000000,0.000000000,1720619242.500717402,,,,,,,,,,,
1720619242.521501,0.029744000,0.000000000,0.000000000,-1.204665000,0.000000000,0.000000000,0.993278000,0.000000000,0.000000000,0.048576000,0.000000000,0.000000000,0.236608000,0.000000000,0.000000000,-0.046368000,0.000000000,0.000000000,1720619242.511717319,,,,,,,,,,,
1720619242.528644,0.029744000,0.000000000,0.000000000,-1.205204000,0.000000000,0.000000000,0.993278000,0.000000000,0.000000000,0.048576000,0.000000000,0.000000000,0.236128000,0.000000000,0.000000000,-0.047296000,0.000000000,0.000000000,1720619242.518717527,,,,,,,,,,,
1720619242.530211,0.029744000,0.000000000,0.000000000,-1.205204000,0.000000000,0.000000000,0.993278000,0.000000000,0.000000000,0.048576000,0.000000000,0.000000000,0.236128000,0.000000000,0.000000000,-0.047296000,0.000000000,0.000000000,1720619242.519717455,,,,,,,,,,,
1720619242.533396,0.029744000,0.000000000,0.000000000,-1.206282000,0.000000000,0.000000000,0.993278000,0.000000000,0.000000000,0.048576000,0.000000000,0.000000000,0.236256000,0.000000000,0.000000000,-0.045920000,0.000000000,0.000000000,1720619242.523717403,,,,,,,,,,,
1720619242.535529,,,,,,,,,,,,,,,,,,,,1720619242.518717527,-1.186824000,3.141592654,0.000000015,0.829037542,-0.000000022,-0.000000054,0.559192949,1.395152983,0.001110973,1.481517837
1720619242.541699,0.029744000,0.000000000,0.000000000,-1.208977000,0.000000000,0.000000000,0.993278000,0.000000000,0.000000000,0.048640000,0.000000000,0.000000000,0.236864000,0.000000000,0.000000000,-0.045632000,0.000000000,0.009134350,1720619242.531717539,,,,,,,,,,,
1720619242.545515,0.029744000,0.000000000,0.000000000,-1.208977000,0.000000000,0.000000000,0.993278000,0.000000000,0.000000000,0.048512000,0.000000000,0.000000000,0.236000000,0.000000000,0.000000000,-0.047424000,0.000000000,0.000000000,1720619242.535717487,,,,,,,,,,,
1720619242.561948,0.029744000,0.000000000,0.000000000,-1.209516000,0.000000000,0.000000000,0.993278000,0.000000000,0.000000000,0.048512000,0.000000000,0.000000000,0.236128000,0.000000000,0.000000000,-0.046432000,0.000000000,0.000000000,1720619242.546717405,,,,,,,,,,,
1720619242.562497,0.029744000,0.000000000,0.000000000,-1.208977000,0.000000000,0.000000000,0.993278000,0.000000000,0.000000000,0.048512000,0.000000000,0.000000000,0.236000000,0.000000000,0.000000000,-0.047232000,0.000000000,0.000000000,1720619242.552717447,,,,,,,,,,,
1720619242.563829,0.029744000,0.000000000,0.000000000,-1.208977000,0.000000000,0.000000000,0.993278000,0.000000000,0.000000000,0.048512000,0.000000000,0.000000000,0.235680000,0.000000000,0.000000000,-0.046912000,0.000000000,0.000000000,1720619242.553717375,,,,,,,,,,,
1720619242.568308,0.029744000,0.000000000,0.000000000,-1.208977000,0.000000000,0.000000000,0.993278000,0.000000000,0.000000000,0.048512000,0.000000000,0.000000000,0.236064000,0.000000000,0.000000000,-0.046720000,0.000000000,0.000000000,1720619242.558717489,,,,,,,,,,,
1720619242.574627,0.029744000,0.000000000,0.000000000,-1.208977000,0.000000000,0.000000000,0.993278000,0.000000000,0.000000000,0.048512000,0.000000000,0.000000000,0.236192000,0.000000000,0.000000000,-0.046720000,0.000000000,0.000000000,1720619242.564717531,,,,,,,,,,,
1720619242.577104,0.029744000,0.000000000,0.000000000,-1.208977000,0.000000000,0.000000000,0.993278000,0.000000000,0.000000000,0.048512000,0.000000000,0.000000000,0.236736000,0.000000000,0.000000000,-0.046656000,0.000000000,0.000000000,1720619242.566717386,,,,,,,,,,,
1720619242.581965,0.029744000,0.000000000,0.000000000,-1.208977000,0.000000000,0.000000000,0.993278000,0.000000000,0.000000000,0.048512000,0.000000000,0.000000000,0.236192000,0.000000000,0.000000000,-0.046848000,0.000000000,0.000000000,1720619242.571717501,,,,,,,,,,,
1720619242.585431,,,,,,,,,,,,,,,,,,,,1720619242.571717501,-1.186824000,3.141592654,0.000000015,0.829037542,-0.000000022,-0.000000054,0.559192949,1.395152983,0.001110973,1.481517837
1720619242.588504,0.029744000,0.000000000,0.000000000,-1.208977000,0.000000000,0.000000000,0.993278000,0.000000000,0.000000000,0.048512000,0.000000000,0.000000000,0.235744000,0.000000000,0.000000000,-0.046496000,0.000000000,0.000000000,1720619242.578717470,,,,,,,,,,,
1720619242.589550,0.029744000,0.000000000,0.000000000,-1.208977000,0.000000000,0.000000000,0.993278000,0.000000000,0.000000000,0.048512000,0.000000000,0.000000000,0.235744000,0.000000000,0.000000000,-0.046496000,0.000000000,0.000000000,1720619242.579717398,,,,,,,,,,,
1720619242.593553,0.029744000,0.000000000,0.000000000,-1.208977000,0.000000000,0.000000000,0.993278000,0.000000000,0.000000000,0.048512000,0.000000000,0.000000000,0.235936000,0.000000000,0.000000000,-0.046784000,0.000000000,0.000000000,1720619242.583717346,,,,,,,,,,,
1720619242.600657,0.029744000,0.000000000,0.000000000,-1.208977000,0.000000000,0.000000000,0.993278000,0.000000000,0.000000000,0.048512000,0.000000000,0.000000000,0.236672000,0.000000000,0.000000000,-0.046656000,0.000000000,0.000000000,1720619242.590717316,,,,,,,,,,,
1720619242.602620,0.029744000,0.000000000,0.000000000,-1.208977000,0.000000000,0.000000000,0.993278000,0.000000000,0.000000000,0.048512000,0.000000000,0.000000000,0.236672000,0.000000000,0.000000000,-0.046656000,0.000000000,0.000000000,1720619242.592717409,,,,,,,,,,,
1720619242.606653,0.029744000,0.000000000,0.000000000,-1.208977000,0.000000000,0.000000000,0.993278000,0.000000000,0.000000000,0.048512000,0.000000000,0.000000000,0.235936000,0.000000000,0.000000000,-0.047296000,0.000000000,0.000000000,1720619242.596717358,,,,,,,,,,,
1720619242.614637,0.029744000,0.000000000,0.000000000,-1.208977000,0.000000000,0.000000000,0.993278000,0.000000000,0.000000000,0.048512000,0.000000000,0.000000000,0.236544000,0.000000000,0.000000000,-0.046912000,0.000000000,0.000000000,1720619242.604717493,,,,,,,,,,,
1720619242.620599,0.029744000,0.000000000,0.000000000,-1.207360000,0.000000000,0.000000000,0.993278000,0.000000000,0.000000000,0.048512000,0.000000000,0.000000000,0.235872000,0.000000000,0.000000000,-0.046784000,0.000000000,0.000000000,1720619242.610717535,,,,,,,,,,,
1720619242.627776,0.049764000,0.000000000,0.000000000,-1.207360000,0.000000000,0.000000000,0.993278000,0.000000000,0.000000000,0.048512000,0.000000000,0.000000000,0.236256000,0.000000000,0.000000000,-0.047520000,0.000000000,0.000000000,1720619242.617717505,,,,,,,,,,,
1720619242.637212,0.029172000,0.000000000,0.000000000,-1.172864000,0.000000000,0.000000000,0.993278000,0.000000000,0.000000000,0.048512000,0.000000000,0.000000000,0.236192000,0.000000000,0.000000000,-0.047040000,0.000000000,0.000000000,1720619242.626717329,,,,,,,,,,,
1720619242.637483,0.029172000,0.000000000,0.000000000,-1.172864000,0.000000000,0.000000000,0.993278000,0.000000000,0.000000000,0.048512000,0.000000000,0.000000000,0.236192000,0.000000000,0.000000000,-0.047040000,0.000000000,0.000000000,1720619242.627717495,,,,,,,,,,,
1720619242.638561,0.029172000,0.000000000,0.000000000,-1.172864000,0.000000000,0.000000000,0.993278000,0.000000000,0.000000000,0.048512000,0.000000000,0.000000000,0.236192000,0.000000000,0.000000000,-0.047040000,0.000000000,0.000000000,1720619242.628717422,,,,,,,,,,,
1720619242.639740,0.029172000,0.000000000,0.000000000,-1.200892000,0.000000000,0.000000000,0.993278000,0.000000000,0.000000000,0.048512000,0.000000000,0.000000000,0.235872000,0.000000000,0.000000000,-0.046912000,0.000000000,0.000000000,1720619242.629717350,,,,,,,,,,,
1720619242.640490,0.029172000,0.000000000,0.000000000,-1.200892000,0.000000000,0.000000000,0.993278000,0.000000000,0.000000000,0.048512000,0.000000000,0.000000000,0.235872000,0.000000000,0.000000000,-0.046912000,0.000000000,0.000000000,1720619242.630717516,,,,,,,,,,,
1720619242.641945,0.029172000,0.000000000,0.000000000,-1.200892000,0.000000000,0.000000000,0.993278000,0.000000000,0.000000000,0.048512000,0.000000000,0.000000000,0.235872000,0.000000000,0.000000000,-0.046912000,0.000000000,0.000000000,1720619242.631717443,,,,,,,,,,,
1720619242.645258,,,,,,,,,,,,,,,,,,,,1720619242.626717329,-1.186824000,3.141592654,0.000000015,0.829037542,-0.000000022,-0.000000054,0.559192949,1.395152983,0.001110973,1.481517837
1720619242.648454,0.029172000,0.000000000,0.000000000,-1.206282000,0.000000000,0.000000000,0.993278000,0.000000000,0.000000000,0.048512000,0.000000000,0.000000000,0.236128000,0.000000000,0.000000000,-0.046176000,0.000000000,0.000000000,1720619242.638717413,,,,,,,,,,,
1720619242.655682,0.028600000,0.000000000,0.000000000,-1.206282000,0.000000000,0.000000000,0.993278000,0.000000000,0.000000000,0.048512000,0.000000000,0.000000000,0.235872000,0.000000000,0.000000000,-0.047040000,0.000000000,0.000000000,1720619242.644717455,,,,,,,,,,,
1720619242.664824,0.029744000,0.000000000,0.000000000,-1.238083000,0.000000000,0.000000000,0.993278000,0.000000000,0.000000000,0.048576000,0.000000000,0.000000000,0.235584000,0.000000000,0.000000000,-0.046304000,0.000000000,0.000000000,1720619242.654717445,,,,,,,,,,,
1720619242.665848,0.029744000,0.000000000,0.000000000,-1.238083000,0.000000000,0.000000000,0.993278000,0.000000000,0.000000000,0.048576000,0.000000000,0.000000000,0.235584000,0.000000000,0.000000000,-0.046304000,0.000000000,0.000000000,1720619242.655717373,,,,,,,,,,,
1720619242.667945,0.029744000,0.000000000,0.000000000,-1.206282000,0.000000000,0.000000000,0.993278000,0.000000000,0.000000000,0.048576000,0.000000000,0.000000000,0.235520000,0.000000000,0.000000000,-0.047840000,0.000000000,0.000000000,1720619242.657717466,,,,,,,,,,,
1720619242.677378,0.029744000,0.000000000,0.000000000,-1.207899000,0.000000000,0.000000000,0.993278000,0.000000000,0.000000000,0.048576000,0.000000000,0.000000000,0.236864000,0.000000000,0.000000000,-0.047584000,0.000000000,0.000000000,1720619242.666717529,,,,,,,,,,,
1720619242.677426,0.029744000,0.000000000,0.000000000,-1.207899000,0.000000000,0.000000000,0.993278000,0.000000000,0.000000000,0.048576000,0.000000000,0.000000000,0.236864000,0.000000000,0.000000000,-0.047584000,0.000000000,0.000000000,1720619242.667717457,,,,,,,,,,,
1720619242.678608,0.029744000,0.000000000,0.000000000,-1.207899000,0.000000000,0.000000000,0.993278000,0.000000000,0.000000000,0.048576000,0.000000000,0.000000000,0.236864000,0.000000000,0.000000000,-0.047584000,0.000000000,0.000000000,1720619242.668717384,,,,,,,,,,,
1720619242.681079,0.029744000,0.000000000,0.000000000,-1.239700000,0.000000000,0.000000000,0.993278000,0.000000000,0.000000000,0.048576000,0.000000000,0.000000000,0.236256000,0.000000000,0.000000000,-0.045792000,0.000000000,0.000000000,1720619242.670717478,,,,,,,,,,,
1720619242.684551,0.029744000,0.000000000,0.000000000,-1.206282000,0.000000000,0.000000000,0.993278000,0.000000000,0.000000000,0.048448000,0.000000000,0.000000000,0.235744000,0.000000000,0.000000000,-0.047840000,0.000000000,0.000000000,1720619242.674717426,,,,,,,,,,,
1720619242.691952,0.029744000,0.000000000,0.000000000,-1.208977000,0.000000000,0.000000000,0.993278000,0.000000000,0.000000000,0.048448000,0.000000000,0.000000000,0.236128000,0.000000000,0.000000000,-0.047520000,0.000000000,0.000000000,1720619242.681717396,,,,,,,,,,,
1720619242.695444,,,,,,,,,,,,,,,,,,,,1720619242.681717396,-1.186824000,3.141592654,0.000000015,0.829037542,-0.000000022,-0.000000054,0.559192949,1.395152983,0.001110973,1.481517837
1720619242.697085,0.029744000,0.000000000,0.000000000,-1.207360000,0.000000000,0.000000000,0.993278000,0.000000000,0.000000000,0.048448000,0.000000000,0.000000000,0.236128000,0.000000000,0.000000000,-0.046720000,0.000000000,0.000000000,1720619242.686717510,,,,,,,,,,,
1720619242.704523,0.029744000,0.000000000,0.000000000,-1.203587000,0.000000000,0.000000000,0.993278000,0.000000000,0.000000000,0.048448000,0.000000000,0.000000000,0.236000000,0.000000000,0.000000000,-0.047968000,0.000000000,0.000000000,1720619242.693717480,,,,,,,,,,,
1720619242.713138,0.029744000,0.000000000,0.000000000,-1.203587000,0.000000000,0.000000000,0.993278000,0.000000000,0.000000000,0.048448000,0.000000000,0.000000000,0.236128000,0.000000000,0.000000000,-0.048096000,0.000000000,0.000000000,1720619242.702717543,,,,,,,,,,,
1720619242.714292,0.029744000,0.000000000,0.000000000,-1.203587000,0.000000000,0.000000000,0.993278000,0.000000000,0.000000000,0.048448000,0.000000000,0.000000000,0.236128000,0.000000000,0.000000000,-0.048096000,0.000000000,0.000000000,1720619242.703717470,,,,,,,,,,,
1720619242.714329,0.029744000,0.000000000,0.000000000,-1.203587000,0.000000000,0.000000000,0.993278000,0.000000000,0.000000000,0.048448000,0.000000000,0.000000000,0.236128000,0.000000000,0.000000000,-0.048096000,0.000000000,0.000000000,1720619242.704717398,,,,,,,,,,,
1720619242.725114,0.029744000,0.000000000,0.000000000,-1.207360000,0.000000000,0.000000000,0.993278000,0.000000000,0.000000000,0.048512000,0.000000000,0.000000000,0.235936000,0.000000000,0.000000000,-0.046656000,0.000000000,0.000000000,1720619242.714717388,,,,,,,,,,,
1720619242.725928,0.029744000,0.000000000,0.000000000,-1.207360000,0.000000000,0.000000000,0.993278000,0.000000000,0.000000000,0.048512000,0.000000000,0.000000000,0.235936000,0.000000000,0.000000000,-0.046656000,0.000000000,0.000000000,1720619242.715717316,,,,,,,,,,,
1720619242.726723,0.029744000,0.000000000,0.000000000,-1.207360000,0.000000000,0.000000000,0.993278000,0.000000000,0.000000000,0.048512000,0.000000000,0.000000000,0.235936000,0.000000000,0.000000000,-0.046656000,0.000000000,0.000000000,1720619242.716717482,,,,,,,,,,,
1720619242.728932,0.029744000,0.000000000,0.000000000,-1.207899000,0.000000000,0.000000000,0.993278000,0.000000000,0.000000000,0.048512000,0.000000000,0.000000000,0.235680000,0.000000000,0.000000000,-0.047424000,0.000000000,0.000000000,1720619242.718717337,,,,,,,,,,,
1720619242.729810,0.029744000,0.000000000,0.000000000,-1.207899000,0.000000000,0.000000000,0.993278000,0.000000000,0.000000000,0.048512000,0.000000000,0.000000000,0.235680000,0.000000000,0.000000000,-0.047424000,0.000000000,0.000000000,1720619242.719717503,,,,,,,,,,,
1720619242.734195,0.029744000,0.000000000,0.000000000,-1.208977000,0.000000000,0.000000000,0.993278000,0.000000000,0.000000000,0.048512000,0.000000000,0.000000000,0.236064000,0.000000000,0.000000000,-0.045792000,0.000000000,0.000000000,1720619242.723717451,,,,,,,,,,,
1720619242.741032,0.029744000,0.000000000,0.000000000,-1.209516000,0.000000000,0.000000000,0.993278000,0.000000000,0.000000000,0.048512000,0.000000000,0.000000000,0.236448000,0.000000000,0.000000000,-0.045920000,0.000000000,0.009134350,1720619242.730717421,,,,,,,,,,,
1720619242.741849,0.029744000,0.000000000,0.000000000,-1.209516000,0.000000000,0.000000000,0.993278000,0.000000000,0.000000000,0.048512000,0.000000000,0.000000000,0.236448000,0.000000000,0.000000000,-0.045920000,0.000000000,0.009134350,1720619242.731717348,,,,,,,,,,,
1720619242.745596,0.029744000,0.000000000,0.000000000,-1.212211000,0.000000000,0.000000000,0.993278000,0.000000000,0.000000000,0.048512000,0.000000000,0.000000000,0.236128000,0.000000000,0.000000000,-0.047104000,0.000000000,0.000000000,1720619242.735717535,,,,,,,,,,,
1720619242.745624,,,,,,,,,,,,,,,,,,,,1720619242.731717348,-1.186824000,3.141592654,0.000000015,0.829037542,-0.000000022,-0.000000054,0.559192949,1.395152983,0.001110973,1.481517837
1720619242.753238,0.029744000,0.000000000,0.000000000,-1.210594000,0.000000000,0.000000000,0.993278000,0.000000000,0.000000000,0.048512000,0.000000000,0.000000000,0.236608000,0.000000000,0.000000000,-0.047296000,0.000000000,0.000000000,1720619242.742717505,,,,,,,,,,,
1720619242.754621,0.029744000,0.000000000,0.000000000,-1.210594000,0.000000000,0.000000000,0.993278000,0.000000000,0.000000000,0.048512000,0.000000000,0.000000000,0.236608000,0.000000000,0.000000000,-0.047296000,0.000000000,0.000000000,1720619242.743717432,,,,,,,,,,,
1720619242.758139,0.029744000,0.000000000,0.000000000,-1.209516000,0.000000000,0.000000000,0.993278000,0.000000000,0.000000000,0.048512000,0.000000000,0.000000000,0.236320000,0.000000000,0.000000000,-0.046368000,0.000000000,0.000000000,1720619242.747717381,,,,,,,,,,,
1720619242.765265,0.029744000,0.000000000,0.000000000,-1.207899000,0.000000000,0.000000000,0.993278000,0.000000000,0.000000000,0.048512000,0.000000000,0.000000000,0.236128000,0.000000000,0.000000000,-0.047040000,0.000000000,0.000000000,1720619242.754717350,,,,,,,,,,,
1720619242.766125,0.029744000,0.000000000,0.000000000,-1.207899000,0.000000000,0.000000000,0.993278000,0.000000000,0.000000000,0.048512000,0.000000000,0.000000000,0.236128000,0.000000000,0.000000000,-0.047040000,0.000000000,0.000000000,1720619242.755717516,,,,,,,,,,,
1720619242.778205,0.029744000,0.000000000,0.000000000,-1.207360000,0.000000000,0.000000000,0.993278000,0.000000000,0.000000000,0.048512000,0.000000000,0.000000000,0.235936000,0.000000000,0.000000000,-0.047424000,0.000000000,0.000000000,1720619242.762717485,,,,,,,,,,,
1720619242.780092,0.029744000,0.000000000,0.000000000,-1.199814000,0.000000000,0.000000000,0.993278000,0.000000000,0.000000000,0.048512000,0.000000000,0.000000000,0.235808000,0.000000000,0.000000000,-0.046976000,0.000000000,0.000000000,1720619242.769717455,,,,,,,,,,,
1720619242.789316,0.029744000,0.000000000,0.000000000,-1.205204000,0.000000000,0.000000000,0.993278000,0.000000000,0.000000000,0.048512000,0.000000000,0.000000000,0.236192000,0.000000000,0.000000000,-0.046976000,0.000000000,0.000000000,1720619242.778717518,,,,,,,,,,,
1720619242.789911,0.029744000,0.000000000,0.000000000,-1.205204000,0.000000000,0.000000000,0.993278000,0.000000000,0.000000000,0.048512000,0.000000000,0.000000000,0.236192000,0.000000000,0.000000000,-0.046976000,0.000000000,0.000000000,1720619242.779717445,,,,,,,,,,,
1720619242.792037,0.029744000,0.000000000,0.000000000,-1.205204000,0.000000000,0.000000000,0.993278000,0.000000000,0.000000000,0.048512000,0.000000000,0.000000000,0.236064000,0.000000000,0.000000000,-0.046848000,0.000000000,0.000000000,1720619242.781717539,,,,,,,,,,,
1720619242.795503,,,,,,,,,,,,,,,,,,,,1720619242.781717539,-1.186824000,3.141592654,0.000000015,0.829037542,-0.000000022,-0.000000054,0.559192949,1.395152983,0.001110973,1.481517837
1720619242.801487,0.029744000,0.000000000,0.000000000,-1.205204000,0.000000000,0.000000000,0.993278000,0.000000000,0.000000000,0.048512000,0.000000000,0.000000000,0.236320000,0.000000000,0.000000000,-0.047104000,0.000000000,0.000000000,1720619242.790717363,,,,,,,,,,,
1720619242.802030,0.029744000,0.000000000,0.000000000,-1.205204000,0.000000000,0.000000000,0.993278000,0.000000000,0.000000000,0.048512000,0.000000000,0.000000000,0.236320000,0.000000000,0.000000000,-0.047104000,0.000000000,0.000000000,1720619242.791717529,,,,,,,,,,,
1720619242.805249,0.029744000,0.000000000,0.000000000,-1.206282000,0.000000000,0.000000000,0.993278000,0.000000000,0.000000000,0.048512000,0.000000000,0.000000000,0.235520000,0.000000000,0.000000000,-0.046976000,0.000000000,0.000000000,1720619242.794717312,,,,,,,,,,,
1720619242.815620,0.029744000,0.000000000,0.000000000,-1.213289000,0.000000000,0.000000000,0.993278000,0.000000000,0.000000000,0.048576000,0.000000000,0.000000000,0.236384000,0.000000000,0.000000000,-0.046976000,0.000000000,0.000000000,1720619242.805717468,,,,,,,,,,,
1720619242.824514,0.029744000,0.000000000,0.000000000,-1.214367000,0.000000000,0.000000000,0.993278000,0.000000000,0.000000000,0.048512000,0.000000000,0.000000000,0.236256000,0.000000000,0.000000000,-0.046784000,0.000000000,0.000000000,1720619242.813717365,,,,,,,,,,,
1720619242.833444,0.029744000,0.000000000,0.000000000,-1.210594000,0.000000000,0.000000000,0.993278000,0.000000000,0.000000000,0.048512000,0.000000000,0.000000000,0.236384000,0.000000000,0.000000000,-0.046848000,0.000000000,0.000000000,1720619242.822717428,,,,,,,,,,,
1720619242.834674,0.029744000,0.000000000,0.000000000,-1.210594000,0.000000000,0.000000000,0.993278000,0.000000000,0.000000000,0.048512000,0.000000000,0.000000000,0.236384000,0.000000000,0.000000000,-0.046848000,0.000000000,0.000000000,1720619242.823717356,,,,,,,,,,,
1720619242.837287,0.029744000,0.000000000,0.000000000,-1.209516000,0.000000000,0.000000000,0.993278000,0.000000000,0.000000000,0.048512000,0.000000000,0.000000000,0.235808000,0.000000000,0.000000000,-0.046912000,0.000000000,0.000000000,1720619242.826717377,,,,,,,,,,,
1720619242.845410,0.029744000,0.000000000,0.000000000,-1.206282000,0.000000000,0.000000000,0.993564000,0.000000000,0.000000000,0.048512000,0.000000000,0.000000000,0.236384000,0.000000000,0.000000000,-0.046592000,0.000000000,0.000000000,1720619242.834717512,,,,,,,,,,,
1720619242.845875,0.029744000,0.000000000,0.000000000,-1.206282000,0.000000000,0.000000000,0.993564000,0.000000000,0.000000000,0.048512000,0.000000000,0.000000000,0.236384000,0.000000000,0.000000000,-0.046592000,0.000000000,0.000000000,1720619242.835717440,,,,,,,,,,,
1720619242.848143,0.029744000,0.000000000,0.000000000,-1.202509000,0.000000000,0.000000000,0.993564000,0.000000000,0.000000000,0.048512000,0.000000000,0.000000000,0.236064000,0.000000000,0.000000000,-0.047040000,0.000000000,0.000000000,1720619242.837717533,,,,,,,,,,,
1720619242.855674,,,,,,,,,,,,,,,,,,,,1720619242.834717512,-1.186824000,3.141592654,0.000000015,0.829037542,-0.000000022,-0.000000054,0.559192949,1.395152983,0.001110973,1.481517837
1720619242.857307,0.029744000,0.000000000,0.000000000,-1.203587000,0.000000000,0.000000000,0.993564000,0.000000000,0.000000000,0.048512000,0.000000000,0.000000000,0.236256000,0.000000000,0.000000000,-0.047296000,0.000000000,0.000000000,1720619242.846717358,,,,,,,,,,,
1720619242.858422,0.029744000,0.000000000,0.000000000,-1.203587000,0.000000000,0.000000000,0.993564000,0.000000000,0.000000000,0.048512000,0.000000000,0.000000000,0.236256000,0.000000000,0.000000000,-0.047296000,0.000000000,0.000000000,1720619242.847717524,,,,,,,,,,,
1720619242.860081,0.029744000,0.000000000,0.000000000,-1.192807000,0.000000000,0.000000000,0.993278000,0.000000000,0.000000000,0.048512000,0.000000000,0.000000000,0.237056000,0.000000000,0.000000000,-0.046112000,0.000000000,0.000000000,1720619242.849717379,,,,,,,,,,,
1720619242.869532,0.029744000,0.000000000,0.000000000,-1.207360000,0.000000000,0.000000000,0.993278000,0.000000000,0.000000000,0.048512000,0.000000000,0.000000000,0.236128000,0.000000000,0.000000000,-0.046304000,0.000000000,0.009134350,1720619242.858717442,,,,,,,,,,,
1720619242.870175,0.029744000,0.000000000,0.000000000,-1.207360000,0.000000000,0.000000000,0.993278000,0.000000000,0.000000000,0.048512000,0.000000000,0.000000000,0.236128000,0.000000000,0.000000000,-0.046304000,0.000000000,0.009134350,1720619242.859717369,,,,,,,,,,,
1720619242.872066,0.029744000,0.000000000,0.000000000,-1.207899000,0.000000000,0.000000000,0.993278000,0.000000000,0.000000000,0.048512000,0.000000000,0.000000000,0.236256000,0.000000000,0.000000000,-0.046432000,0.000000000,0.000000000,1720619242.861717463,,,,,,,,,,,
1720619242.881609,0.029744000,0.000000000,0.000000000,-1.207899000,0.000000000,0.000000000,0.993278000,0.000000000,0.000000000,0.048512000,0.000000000,0.000000000,0.236128000,0.000000000,0.000000000,-0.047040000,0.000000000,0.000000000,1720619242.870717525,,,,,,,,,,,
1720619242.882176,0.029744000,0.000000000,0.000000000,-1.207899000,0.000000000,0.000000000,0.993278000,0.000000000,0.000000000,0.048512000,0.000000000,0.000000000,0.236128000,0.000000000,0.000000000,-0.047040000,0.000000000,0.000000000,1720619242.871717453,,,,,,,,,,,
1720619242.885093,0.029744000,0.000000000,0.000000000,-1.207899000,0.000000000,0.000000000,0.993278000,0.000000000,0.000000000,0.048512000,0.000000000,0.000000000,0.236320000,0.000000000,0.000000000,-0.046656000,0.000000000,0.000000000,1720619242.874717474,,,,,,,,,,,
1720619242.893664,0.029744000,0.000000000,0.000000000,-1.207899000,0.000000000,0.000000000,0.993278000,0.000000000,0.000000000,0.048512000,0.000000000,0.000000000,0.235392000,0.000000000,0.000000000,-0.046432000,0.000000000,0.000000000,1720619242.882717371,,,,,,,,,,,
1720619242.896070,0.029744000,0.000000000,0.000000000,-1.207899000,0.000000000,0.000000000,0.993278000,0.000000000,0.000000000,0.048512000,0.000000000,0.000000000,0.235392000,0.000000000,0.000000000,-0.046432000,0.000000000,0.000000000,1720619242.883717537,,,,,,,,,,,
1720619242.905069,0.029744000,0.000000000,0.000000000,-1.207899000,0.000000000,0.000000000,0.993278000,0.000000000,0.000000000,0.048512000,0.000000000,0.000000000,0.236192000,0.000000000,0.000000000,-0.045920000,0.000000000,0.000000000,1720619242.894717455,,,,,,,,,,,
1720619242.915389,,,,,,,,,,,,,,,,,,,,1720619242.894717455,-1.186824000,3.141592654,0.000000015,0.829037542,-0.000000022,-0.000000054,0.559192949,1.395152983,0.001110973,1.481517837
1720619242.917277,0.029744000,0.000000000,0.000000000,-1.207899000,0.000000000,0.000000000,0.993278000,0.000000000,0.000000000,0.048448000,0.000000000,0.000000000,0.236064000,0.000000000,0.000000000,-0.047776000,0.000000000,0.000000000,1720619242.906717539,,,,,,,,,,,
1720619242.926323,0.029744000,0.000000000,0.000000000,-1.205204000,0.000000000,0.000000000,0.993278000,0.000000000,0.000000000,0.048512000,0.000000000,0.000000000,0.236320000,0.000000000,0.000000000,-0.046784000,0.000000000,0.000000000,1720619242.915717363,,,,,,,,,,,
1720619242.934406,0.029744000,0.000000000,0.000000000,-1.206282000,0.000000000,0.000000000,0.993278000,0.000000000,0.000000000,0.048512000,0.000000000,0.000000000,0.235936000,0.000000000,0.000000000,-0.046976000,0.000000000,0.000000000,1720619242.923717499,,,,,,,,,,,
1720619242.941401,0.029744000,0.000000000,0.000000000,-1.209516000,0.000000000,0.000000000,0.993278000,0.000000000,0.000000000,0.048512000,0.000000000,0.000000000,0.236608000,0.000000000,0.000000000,-0.047104000,0.000000000,0.000000000,1720619242.930717468,,,,,,,,,,,
1720619242.948959,0.029744000,0.000000000,0.000000000,-1.207360000,0.000000000,0.000000000,0.993278000,0.000000000,0.000000000,0.048512000,0.000000000,0.000000000,0.236320000,0.000000000,0.000000000,-0.046912000,0.000000000,0.000000000,1720619242.937717438,,,,,,,,,,,
1720619242.949383,0.029744000,0.000000000,0.000000000,-1.207360000,0.000000000,0.000000000,0.993278000,0.000000000,0.000000000,0.048512000,0.000000000,0.000000000,0.236320000,0.000000000,0.000000000,-0.046912000,0.000000000,0.000000000,1720619242.938717365,,,,,,,,,,,
1720619242.953423,0.029744000,0.000000000,0.000000000,-1.207899000,0.000000000,0.000000000,0.993278000,0.000000000,0.000000000,0.048512000,0.000000000,0.000000000,0.235456000,0.000000000,0.000000000,-0.046592000,0.000000000,0.000000000,1720619242.942717314,,,,,,,,,,,
1720619242.960562,0.029744000,0.000000000,0.000000000,-1.210594000,0.000000000,0.000000000,0.993278000,0.000000000,0.000000000,0.048512000,0.000000000,0.000000000,0.236064000,0.000000000,0.000000000,-0.047104000,0.000000000,0.000000000,1720619242.949717522,,,,,,,,,,,
1720619242.961493,0.029744000,0.000000000,0.000000000,-1.210594000,0.000000000,0.000000000,0.993278000,0.000000000,0.000000000,0.048512000,0.000000000,0.000000000,0.236064000,0.000000000,0.000000000,-0.047104000,0.000000000,0.000000000,1720619242.950717449,,,,,,,,,,,
1720619242.965441,0.029744000,0.000000000,0.000000000,-1.210594000,0.000000000,0.000000000,0.993278000,0.000000000,0.000000000,0.048448000,0.000000000,0.000000000,0.236544000,0.000000000,0.000000000,-0.046912000,0.000000000,0.000000000,1720619242.954717398,,,,,,,,,,,
1720619242.965466,,,,,,,,,,,,,,,,,,,,1720619242.949717522,-1.186824000,3.141592654,0.000000015,0.829037542,-0.000000022,-0.000000054,0.559192949,1.395152983,0.001110973,1.481517837
1720619242.972521,0.029744000,0.000000000,0.000000000,-1.210594000,0.000000000,0.000000000,0.993278000,0.000000000,0.000000000,0.048512000,0.000000000,0.000000000,0.235520000,0.000000000,0.000000000,-0.046912000,0.000000000,0.000000000,1720619242.961717367,,,,,,,,,,,
1720619242.973572,0.029744000,0.000000000,0.000000000,-1.210594000,0.000000000,0.000000000,0.993278000,0.000000000,0.000000000,0.048512000,0.000000000,0.000000000,0.235520000,0.000000000,0.000000000,-0.046912000,0.000000000,0.000000000,1720619242.962717533,,,,,,,,,,,
1720619242.977726,0.029744000,0.000000000,0.000000000,-1.210594000,0.000000000,0.000000000,0.993278000,0.000000000,0.000000000,0.048576000,0.000000000,0.000000000,0.236448000,0.000000000,0.000000000,-0.046432000,0.000000000,0.000000000,1720619242.966717482,,,,,,,,,,,
1720619242.979836,0.029744000,0.000000000,0.000000000,-1.210594000,0.000000000,0.000000000,0.993278000,0.000000000,0.000000000,0.048576000,0.000000000,0.000000000,0.236448000,0.000000000,0.000000000,-0.046432000,0.000000000,0.000000000,1720619242.967717409,,,,,,,,,,,
1720619242.992373,0.029744000,0.000000000,0.000000000,-1.206282000,0.000000000,0.000000000,0.993278000,0.000000000,0.000000000,0.048640000,0.000000000,0.000000000,0.235392000,0.000000000,0.000000000,-0.046784000,0.000000000,0.000000000,1720619242.981717348,,,,,,,,,,,
1720619242.999840,0.029744000,0.000000000,0.000000000,-1.198197000,0.000000000,0.000000000,0.993278000,0.000000000,0.000000000,0.048576000,0.000000000,0.000000000,0.235808000,0.000000000,0.000000000,-0.046848000,0.000000000,0.000000000,1720619242.988717318,,,,,,,,,,,
1720619243.009692,0.029744000,0.000000000,0.000000000,-1.209516000,0.000000000,0.000000000,0.993278000,0.000000000,0.000000000,0.048576000,0.000000000,0.000000000,0.236672000,0.000000000,0.000000000,-0.047232000,0.000000000,0.000000000,1720619242.998717546,,,,,,,,,,,
1720619243.010669,0.029744000,0.000000000,0.000000000,-1.209516000,0.000000000,0.000000000,0.993278000,0.000000000,0.000000000,0.048576000,0.000000000,0.000000000,0.236672000,0.000000000,0.000000000,-0.047232000,0.000000000,0.000000000,1720619242.999717474,,,,,,,,,,,
1720619243.012414,0.029744000,0.000000000,0.000000000,-1.209516000,0.000000000,0.000000000,0.993278000,0.000000000,0.000000000,0.048576000,0.000000000,0.000000000,0.236320000,0.000000000,0.000000000,-0.046784000,0.000000000,0.000000000,1720619243.001717329,,,,,,,,,,,
1720619243.015495,,,,,,,,,,,,,,,,,,,,1720619242.999717474,-1.186824000,3.141592654,0.000000015,0.829037542,-0.000000022,-0.000000054,0.559192949,1.395152983,0.001110973,1.481517837
1720619243.016548,0.029744000,0.000000000,0.000000000,-1.209516000,0.000000000,0.000000000,0.993278000,0.000000000,0.000000000,0.048640000,0.000000000,0.000000000,0.235392000,0.000000000,0.000000000,-0.046912000,0.000000000,0.000000000,1720619243.005717516,,,,,,,,,,,
1720619243.024081,0.029744000,0.000000000,0.000000000,-1.209516000,0.000000000,0.000000000,0.993278000,0.000000000,0.000000000,0.048640000,0.000000000,0.000000000,0.236672000,0.000000000,0.000000000,-0.045920000,0.000000000,0.000000000,1720619243.012717485,,,,,,,,,,,
1720619243.028571,0.029744000,0.000000000,0.000000000,-1.209516000,0.000000000,0.000000000,0.993278000,0.000000000,0.000000000,0.048640000,0.000000000,0.000000000,0.236800000,0.000000000,0.000000000,-0.047584000,0.000000000,0.000000000,1720619243.017717361,,,,,,,,,,,
1720619243.034823,0.029744000,0.000000000,0.000000000,-1.209516000,0.000000000,0.000000000,0.993278000,0.000000000,0.000000000,0.048640000,0.000000000,0.000000000,0.235744000,0.000000000,0.000000000,-0.046240000,0.000000000,0.000000000,1720619243.023717403,,,,,,,,,,,
1720619243.036589,0.029744000,0.000000000,0.000000000,-1.209516000,0.000000000,0.000000000,0.993278000,0.000000000,0.000000000,0.048640000,0.000000000,0.000000000,0.235872000,0.000000000,0.000000000,-0.047232000,0.000000000,0.000000000,1720619243.025717497,,,,,,,,,,,
1720619243.040395,0.029744000,0.000000000,0.000000000,-1.208977000,0.000000000,0.000000000,0.993278000,0.000000000,0.000000000,0.048640000,0.000000000,0.000000000,0.236064000,0.000000000,0.000000000,-0.046912000,0.000000000,0.000000000,1720619243.029717445,,,,,,,,,,,
1720619243.049269,0.029744000,0.000000000,0.000000000,-1.208977000,0.000000000,0.000000000,0.993278000,0.000000000,0.000000000,0.048576000,0.000000000,0.000000000,0.235936000,0.000000000,0.000000000,-0.047776000,0.000000000,0.000000000,1720619243.037717342,,,,,,,,,,,
1720619243.053594,0.029744000,0.000000000,0.000000000,-1.208977000,0.000000000,0.000000000,0.993278000,0.000000000,0.000000000,0.048576000,0.000000000,0.000000000,0.236128000,0.000000000,0.000000000,-0.045920000,0.000000000,0.000000000,1720619243.042717457,,,,,,,,,,,
1720619243.061977,0.029744000,0.000000000,0.000000000,-1.208977000,0.000000000,0.000000000,0.993278000,0.000000000,0.000000000,0.048576000,0.000000000,0.000000000,0.235936000,0.000000000,0.000000000,-0.045728000,0.000000000,0.000000000,1720619243.050717354,,,,,,,,,,,
1720619243.065563,0.029744000,0.000000000,0.000000000,-1.208977000,0.000000000,0.000000000,0.993278000,0.000000000,0.000000000,0.048576000,0.000000000,0.000000000,0.235872000,0.000000000,0.000000000,-0.047968000,0.000038380,0.009134350,1720619243.054717541,,,,,,,,,,,
1720619243.065593,,,,,,,,,,,,,,,,,,,,1720619243.050717354,-1.186824000,3.141592654,0.000000015,0.829037542,-0.000000022,-0.000000054,0.559192949,1.395152983,0.001110973,1.481517837
1720619243.072677,0.029744000,0.000000000,0.000000000,-1.213289000,0.000000000,0.000000000,0.993278000,0.000000000,0.000000000,0.048576000,0.000000000,0.000000000,0.236736000,0.000000000,0.000000000,-0.047968000,0.000038380,0.009134350,1720619243.061717510,,,,,,,,,,,
1720619243.073675,0.029744000,0.000000000,0.000000000,-1.213289000,0.000000000,0.000000000,0.993278000,0.000000000,0.000000000,0.048576000,0.000000000,0.000000000,0.236736000,0.000000000,0.000000000,-0.047968000,0.000038380,0.009134350,1720619243.062717438,,,,,,,,,,,
1720619243.077492,0.029744000,0.000000000,0.000000000,-1.207899000,0.000000000,0.000000000,0.993278000,0.000000000,0.000000000,0.048224000,0.000000000,0.000000000,0.236128000,0.000000000,0.000000000,-0.045984000,0.000000000,0.009134350,1720619243.066717386,,,,,,,,,,,
1720619243.084471,0.029744000,0.000000000,0.000000000,-1.199814000,0.000000000,0.000000000,0.993564000,0.000000000,0.000000000,0.048576000,0.000000000,0.000000000,0.235872000,0.000000000,0.000000000,-0.045920000,0.000000000,0.009134350,1720619243.073717356,,,,,,,,,,,
1720619243.085600,0.029744000,0.000000000,0.000000000,-1.199814000,0.000000000,0.000000000,0.993564000,0.000000000,0.000000000,0.048576000,0.000000000,0.000000000,0.235872000,0.000000000,0.000000000,-0.045920000,0.000000000,0.009134350,1720619243.074717522,,,,,,,,,,,
1720619243.090098,0.029744000,0.000000000,0.000000000,-1.211672000,0.000000000,0.000000000,0.993278000,0.000000000,0.000000000,0.048576000,0.000000000,0.000000000,0.236544000,0.000000000,0.000000000,-0.047520000,0.000038380,0.009134350,1720619243.078717470,,,,,,,,,,,
1720619243.096781,0.029744000,0.000000000,0.000000000,-1.210594000,0.000000000,0.000000000,0.993278000,0.000000000,0.000000000,0.048576000,0.000000000,0.000000000,0.236128000,0.000000000,0.000000000,-0.047232000,0.000000000,0.000000000,1720619243.085717440,,,,,,,,,,,
1720619243.097600,0.029744000,0.000000000,0.000000000,-1.210594000,0.000000000,0.000000000,0.993278000,0.000000000,0.000000000,0.048576000,0.000000000,0.000000000,0.236128000,0.000000000,0.000000000,-0.047232000,0.000000000,0.000000000,1720619243.086717367,,,,,,,,,,,
1720619243.102523,0.029744000,0.000000000,0.000000000,-1.209516000,0.000000000,0.000000000,0.993278000,0.000000000,0.000000000,0.048576000,0.000000000,0.000000000,0.235584000,0.000000000,0.000000000,-0.047040000,0.000000000,0.000000000,1720619243.091717482,,,,,,,,,,,
1720619243.109308,0.029744000,0.000000000,0.000000000,-1.206282000,0.000000000,0.000000000,0.993278000,0.000000000,0.000000000,0.048576000,0.000000000,0.000000000,0.235872000,0.000000000,0.000000000,-0.046784000,0.000000000,0.000000000,1720619243.097717524,,,,,,,,,,,
1720619243.110257,0.029744000,0.000000000,0.000000000,-1.206282000,0.000000000,0.000000000,0.993278000,0.000000000,0.000000000,0.048576000,0.000000000,0.000000000,0.235872000,0.000000000,0.000000000,-0.046784000,0.000000000,0.000000000,1720619243.098717451,,,,,,,,,,,
1720619243.110315,0.029744000,0.000000000,0.000000000,-1.206282000,0.000000000,0.000000000,0.993278000,0.000000000,0.000000000,0.048576000,0.000000000,0.000000000,0.235872000,0.000000000,0.000000000,-0.046784000,0.000000000,0.000000000,1720619243.099717379,,,,,,,,,,,
1720619243.121774,0.029744000,0.000000000,0.000000000,-1.206282000,0.000000000,0.000000000,0.993278000,0.000000000,0.000000000,0.048576000,0.000000000,0.000000000,0.236000000,0.000000000,0.000000000,-0.046496000,0.000000000,0.000000000,1720619243.105717421,,,,,,,,,,,
1720619243.122767,0.029744000,0.000000000,0.000000000,-1.205204000,0.000000000,0.000000000,0.993278000,0.000000000,0.000000000,0.048576000,0.000000000,0.000000000,0.236256000,0.000000000,0.000000000,-0.047232000,0.000000000,0.000000000,1720619243.111717463,,,,,,,,,,,
1720619243.124729,0.029744000,0.000000000,0.000000000,-1.205204000,0.000000000,0.000000000,0.993278000,0.000000000,0.000000000,0.048576000,0.000000000,0.000000000,0.236544000,0.000000000,0.000000000,-0.046656000,0.000000000,0.000000000,1720619243.113717318,,,,,,,,,,,
1720619243.125547,,,,,,,,,,,,,,,,,,,,1720619243.105717421,-1.186824000,3.141592654,0.000000015,0.829037542,-0.000000022,-0.000000054,0.559192949,1.395152983,0.001110973,1.481517837
1720619243.128818,0.029744000,0.000000000,0.000000000,-1.205204000,0.000000000,0.000000000,0.993278000,0.000000000,0.000000000,0.048576000,0.000000000,0.000000000,0.235072000,0.000000000,0.000000000,-0.047296000,0.000000000,0.000000000,1720619243.117717505,,,,,,,,,,,
1720619243.136867,0.029744000,0.000000000,0.000000000,-1.205204000,0.000000000,0.000000000,0.993278000,0.000000000,0.000000000,0.048576000,0.000000000,0.000000000,0.236256000,0.000000000,0.000000000,-0.046912000,0.000000000,0.000000000,1720619243.125717402,,,,,,,,,,,
1720619243.140712,0.029744000,0.000000000,0.000000000,-1.206282000,0.000000000,0.000000000,0.993278000,0.000000000,0.000000000,0.048576000,0.000000000,0.000000000,0.235936000,0.000000000,0.000000000,-0.047040000,0.000000000,0.000000000,1720619243.129717350,,,,,,,,,,,
1720619243.149577,0.029744000,0.000000000,0.000000000,-1.207899000,0.000000000,0.000000000,0.993278000,0.000000000,0.000000000,0.048576000,0.000000000,0.000000000,0.236192000,0.000000000,0.000000000,-0.047040000,0.000000000,0.000000000,1720619243.137717485,,,,,,,,,,,
1720619243.152598,0.029744000,0.000000000,0.000000000,-1.206282000,0.000000000,0.000000000,0.993278000,0.000000000,0.000000000,0.048576000,0.000000000,0.000000000,0.236064000,0.000000000,0.000000000,-0.047104000,0.000000000,0.000000000,1720619243.141717434,,,,,,,,,,,
1720619243.160871,0.029744000,0.000000000,0.000000000,-1.184183000,0.000000000,0.000000000,0.993278000,0.000000000,0.000000000,0.048576000,0.000000000,0.000000000,0.235744000,0.000000000,0.000000000,-0.046720000,0.000000000,0.000000000,1720619243.149717331,,,,,,,,,,,
1720619243.164842,0.029744000,0.000000000,0.000000000,-1.199275000,0.000000000,0.000000000,0.993278000,0.000000000,0.000000000,0.048576000,0.000000000,0.000000000,0.236608000,0.000000000,0.000000000,-0.047424000,0.000000000,0.000000000,1720619243.153717518,,,,,,,,,,,
1720619243.172841,0.030030000,0.000000000,0.000000000,-1.208977000,0.000000000,0.000000000,0.993278000,0.000000000,0.000000000,0.048576000,0.000000000,0.000000000,0.236128000,0.000000000,0.000000000,-0.047296000,0.000000000,0.000000000,1720619243.161717415,,,,,,,,,,,
1720619243.175453,,,,,,,,,,,,,,,,,,,,1720619243.161717415,-1.186824000,3.141592654,0.000000015,0.829037542,-0.000000022,-0.000000054,0.559192949,1.395152983,0.001110973,1.481517837
1720619243.176511,0.030030000,0.000000000,0.000000000,-1.207899000,0.000000000,0.000000000,0.993278000,0.000000000,0.000000000,0.048576000,0.000000000,0.000000000,0.235008000,0.000000000,0.000000000,-0.046240000,0.000000000,0.000000000,1720619243.165717363,,,,,,,,,,,
1720619243.184739,0.029744000,0.000000000,0.000000000,-1.207360000,0.000000000,0.000000000,0.993278000,0.000000000,0.000000000,0.048576000,0.000000000,0.000000000,0.236256000,0.000000000,0.000000000,-0.046496000,0.000000000,0.000000000,1720619243.173717499,,,,,,,,,,,
1720619243.188551,0.029744000,0.000000000,0.000000000,-1.238083000,0.000000000,0.000000000,0.993278000,0.000000000,0.000000000,0.048576000,0.000000000,0.000000000,0.236128000,0.000000000,0.000000000,-0.047648000,0.000000000,0.000000000,1720619243.177717447,,,,,,,,,,,
1720619243.197294,0.029744000,0.000000000,0.000000000,-1.206282000,0.000000000,0.000000000,0.993278000,0.000000000,0.000000000,0.048576000,0.000000000,0.000000000,0.235808000,0.000000000,0.000000000,-0.048096000,0.000038380,0.009134350,1720619243.185717344,,,,,,,,,,,
1720619243.202082,0.029744000,0.000000000,0.000000000,-1.183105000,0.000000000,0.000000000,0.993278000,0.000000000,0.000000000,0.048576000,0.000000000,0.000000000,0.236192000,0.000000000,0.000000000,-0.045856000,0.000000000,0.009134350,1720619243.190717459,,,,,,,,,,,
1720619243.209119,0.030030000,0.000000000,0.000000000,-1.206282000,0.000000000,0.000000000,0.993278000,0.000000000,0.000000000,0.048576000,0.000000000,0.000000000,0.236128000,0.000000000,0.000000000,-0.046304000,0.000000000,0.009134350,1720619243.197717428,,,,,,,,,,,
1720619243.212538,0.030030000,0.000000000,0.000000000,-1.207360000,0.000000000,0.000000000,0.993278000,0.000000000,0.000000000,0.048576000,0.000000000,0.000000000,0.236064000,0.000000000,0.000000000,-0.047296000,0.000038380,0.009134350,1720619243.201717377,,,,,,,,,,,
1720619243.221323,0.029744000,0.000000000,0.000000000,-1.207360000,0.000000000,0.000000000,0.993278000,0.000000000,0.000000000,0.048576000,0.000000000,0.000000000,0.235872000,0.000000000,0.000000000,-0.046912000,0.000000000,0.000000000,1720619243.209717512,,,,,,,,,,,
1720619243.225785,0.029744000,0.000000000,0.000000000,-1.207360000,0.000000000,0.000000000,0.993278000,0.000000000,0.000000000,0.048576000,0.000000000,0.000000000,0.236448000,0.000000000,0.000000000,-0.047040000,0.000000000,0.000000000,1720619243.214717388,,,,,,,,,,,
1720619243.233396,0.030030000,0.000000000,0.000000000,-1.207360000,0.000000000,0.000000000,0.993278000,0.000000000,0.000000000,0.048576000,0.000000000,0.000000000,0.236128000,0.000000000,0.000000000,-0.046720000,0.000000000,0.000000000,1720619243.221717358,,,,,,,,,,,
1720619243.234276,0.030030000,0.000000000,0.000000000,-1.207360000,0.000000000,0.000000000,0.993278000,0.000000000,0.000000000,0.048576000,0.000000000,0.000000000,0.236128000,0.000000000,0.000000000,-0.046720000,0.000000000,0.000000000,1720619243.222717524,,,,,,,,,,,
1720619243.235665,,,,,,,,,,,,,,,,,,,,1720619243.214717388,-1.186824000,3.141592654,0.000000015,0.829037542,-0.000000022,-0.000000054,0.559192949,1.395152983,0.001110973,1.481517837
1720619243.238055,0.030030000,0.000000000,0.000000000,-1.207899000,0.000000000,0.000000000,0.993278000,0.000000000,0.000000000,0.048576000,0.000000000,0.000000000,0.235808000,0.000000000,0.000000000,-0.047424000,0.000000000,0.000000000,1720619243.226717472,,,,,,,,,,,
1720619243.245344,0.029744000,0.000000000,0.000000000,-1.217062000,0.000000000,0.000000000,0.993278000,0.000000000,0.000000000,0.048576000,0.000000000,0.000000000,0.236256000,0.000000000,0.000000000,-0.046912000,0.000000000,0.000000000,1720619243.233717442,,,,,,,,,,,
1720619243.246088,0.029744000,0.000000000,0.000000000,-1.217062000,0.000000000,0.000000000,0.993278000,0.000000000,0.000000000,0.048576000,0.000000000,0.000000000,0.236256000,0.000000000,0.000000000,-0.046912000,0.000000000,0.000000000,1720619243.234717369,,,,,,,,,,,
1720619243.250421,0.029744000,0.000000000,0.000000000,-1.232693000,0.000000000,0.000000000,0.993278000,0.000000000,0.000000000,0.048576000,0.000000000,0.000000000,0.235936000,0.000000000,0.000000000,-0.047648000,0.000000000,0.000000000,1720619243.238717318,,,,,,,,,,,
1720619243.257458,0.049764000,0.000000000,0.000000000,-1.205204000,0.000000000,0.000000000,0.993278000,0.000000000,0.000000000,0.048576000,0.000000000,0.000000000,0.236192000,0.000000000,0.000000000,-0.048032000,0.000038380,0.009134350,1720619243.245717525,,,,,,,,,,,
1720619243.258125,0.049764000,0.000000000,0.000000000,-1.205204000,0.000000000,0.000000000,0.993278000,0.000000000,0.000000000,0.048576000,0.000000000,0.000000000,0.236192000,0.000000000,0.000000000,-0.048032000,0.000038380,0.009134350,1720619243.246717453,,,,,,,,,,,
1720619243.262454,0.029172000,0.000000000,0.000000000,-1.213289000,0.000000000,0.000000000,0.993278000,0.000000000,0.000000000,0.048224000,0.000000000,0.000000000,0.235808000,0.000000000,0.000000000,-0.046592000,0.000000000,0.009134350,1720619243.250717402,,,,,,,,,,,
1720619243.269409,0.028600000,0.000000000,0.000000000,-1.211672000,0.000000000,0.000000000,0.993278000,0.000000000,0.000000000,0.048576000,0.000000000,0.000000000,0.236256000,0.000000000,0.000000000,-0.047040000,0.000000000,0.000000000,1720619243.257717371,,,,,,,,,,,
1720619243.270570,0.028600000,0.000000000,0.000000000,-1.211672000,0.000000000,0.000000000,0.993278000,0.000000000,0.000000000,0.048576000,0.000000000,0.000000000,0.236256000,0.000000000,0.000000000,-0.047040000,0.000000000,0.000000000,1720619243.258717537,,,,,,,,,,,
1720619243.274016,0.028600000,0.000000000,0.000000000,-1.209516000,0.000000000,0.000000000,0.993278000,0.000000000,0.000000000,0.048576000,0.000000000,0.000000000,0.236256000,0.000000000,0.000000000,-0.046432000,0.000000000,0.000000000,1720619243.262717485,,,,,,,,,,,
1720619243.281556,0.029744000,0.000000000,0.000000000,-1.207360000,0.000000000,0.000000000,0.993278000,0.000000000,0.000000000,0.048576000,0.000000000,0.000000000,0.236064000,0.000000000,0.000000000,-0.046656000,0.000000000,0.000000000,1720619243.269717455,,,,,,,,,,,
1720619243.285648,,,,,,,,,,,,,,,,,,,,1720619243.269717455,-1.186824000,3.141592654,0.000000015,0.829037542,-0.000000022,-0.000000054,0.559192949,1.395152983,0.001110973,1.481517837
1720619243.288924,0.029744000,0.000000000,0.000000000,-1.207360000,0.000000000,0.000000000,0.993278000,0.000000000,0.000000000,0.048576000,0.000000000,0.000000000,0.236064000,0.000000000,0.000000000,-0.046656000,0.000000000,0.000000000,1720619243.270717382,,,,,,,,,,,
1720619243.292716,0.031174000,0.000000000,0.000000000,-1.206282000,0.000000000,0.000000000,0.993278000,0.000000000,0.000000000,0.048576000,0.000000000,0.000000000,0.236128000,0.000000000,0.000000000,-0.047040000,0.000000000,0.000000000,1720619243.280717373,,,,,,,,,,,
1720619243.293253,0.031174000,0.000000000,0.000000000,-1.206282000,0.000000000,0.000000000,0.993278000,0.000000000,0.000000000,0.048576000,0.000000000,0.000000000,0.236128000,0.000000000,0.000000000,-0.047040000,0.000000000,0.000000000,1720619243.281717539,,,,,,,,,,,
1720619243.294077,0.031174000,0.000000000,0.000000000,-1.206282000,0.000000000,0.000000000,0.993278000,0.000000000,0.000000000,0.048576000,0.000000000,0.000000000,0.236128000,0.000000000,0.000000000,-0.047040000,0.000000000,0.000000000,1720619243.282717466,,,,,,,,,,,
1720619243.297225,0.030602000,0.000000000,0.000000000,-1.207360000,0.000000000,0.000000000,0.993278000,0.000000000,0.000000000,0.048576000,0.000000000,0.000000000,0.236256000,0.000000000,0.000000000,-0.046592000,0.000000000,0.000000000,1720619243.285717487,,,,,,,,,,,
1720619243.305837,0.030602000,0.000000000,0.000000000,-1.205204000,0.000000000,0.000000000,0.993278000,0.000000000,0.000000000,0.048576000,0.000000000,0.000000000,0.235936000,0.000000000,0.000000000,-0.045792000,0.000000000,0.000000000,1720619243.293717384,,,,,,,,,,,
1720619243.306118,0.030602000,0.000000000,0.000000000,-1.205204000,0.000000000,0.000000000,0.993278000,0.000000000,0.000000000,0.048576000,0.000000000,0.000000000,0.235936000,0.000000000,0.000000000,-0.045792000,0.000000000,0.000000000,1720619243.294717312,,,,,,,,,,,
1720619243.309469,0.030602000,0.000000000,0.000000000,-1.209516000,0.000000000,0.000000000,0.993278000,0.000000000,0.000000000,0.048640000,0.000000000,0.000000000,0.235872000,0.000000000,0.000000000,-0.047904000,0.000038380,0.009134350,1720619243.297717333,,,,,,,,,,,
1720619243.317693,0.030602000,0.000000000,0.000000000,-1.209516000,0.000000000,0.000000000,0.993278000,0.000000000,0.000000000,0.048640000,0.000000000,0.000000000,0.235936000,0.000000000,0.000000000,-0.046784000,0.000000000,0.000000000,1720619243.305717468,,,,,,,,,,,
1720619243.318045,0.030602000,0.000000000,0.000000000,-1.209516000,0.000000000,0.000000000,0.993278000,0.000000000,0.000000000,0.048640000,0.000000000,0.000000000,0.235936000,0.000000000,0.000000000,-0.046784000,0.000000000,0.000000000,1720619243.306717396,,,,,,,,,,,
1720619243.320483,0.030602000,0.000000000,0.000000000,-1.209516000,0.000000000,0.000000000,0.993278000,0.000000000,0.000000000,0.048640000,0.000000000,0.000000000,0.235520000,0.000000000,0.000000000,-0.046432000,0.000000000,0.000000000,1720619243.308717489,,,,,,,,,,,
1720619243.329636,0.030602000,0.000000000,0.000000000,-1.208977000,0.000000000,0.000000000,0.993278000,0.000000000,0.000000000,0.048640000,0.000000000,0.000000000,0.235936000,0.000000000,0.000000000,-0.046656000,0.000000000,0.000000000,1720619243.317717314,,,,,,,,,,,
1720619243.330559,0.030602000,0.000000000,0.000000000,-1.208977000,0.000000000,0.000000000,0.993278000,0.000000000,0.000000000,0.048640000,0.000000000,0.000000000,0.235936000,0.000000000,0.000000000,-0.046656000,0.000000000,0.000000000,1720619243.318717480,,,,,,,,,,,
1720619243.332728,0.030602000,0.000000000,0.000000000,-1.208977000,0.000000000,0.000000000,0.993278000,0.000000000,0.000000000,0.048640000,0.000000000,0.000000000,0.236544000,0.000000000,0.000000000,-0.047296000,0.000000000,0.000000000,1720619243.320717335,,,,,,,,,,,
1720619243.335729,,,,,,,,,,,,,,,,,,,,1720619243.320717335,-1.186824000,3.141592654,0.000000015,0.829037542,-0.000000022,-0.000000054,0.559192949,1.395152983,0.001110973,1.481517837
1720619243.341714,0.030602000,0.000000000,0.000000000,-1.208977000,0.000000000,0.000000000,0.993278000,0.000000000,0.000000000,0.048640000,0.000000000,0.000000000,0.235520000,0.000000000,0.000000000,-0.047648000,0.000000000,0.000000000,1720619243.329717398,,,,,,,,,,,
1720619243.344348,0.030602000,0.000000000,0.000000000,-1.208977000,0.000000000,0.000000000,0.993278000,0.000000000,0.000000000,0.048640000,0.000000000,0.000000000,0.235520000,0.000000000,0.000000000,-0.047648000,0.000000000,0.000000000,1720619243.330717325,,,,,,,,,,,
1720619243.354017,0.030602000,0.000000000,0.000000000,-1.208977000,0.000000000,0.000000000,0.993278000,0.000000000,0.000000000,0.048576000,0.000000000,0.000000000,0.235936000,0.000000000,0.000000000,-0.045920000,0.000000000,0.000000000,1720619243.340717316,,,,,,,,,,,
1720619243.364280,0.030602000,0.000000000,0.000000000,-1.208977000,0.000000000,0.000000000,0.993278000,0.000000000,0.000000000,0.048576000,0.000000000,0.000000000,0.235808000,0.000000000,0.000000000,-0.047584000,0.000000000,0.000000000,1720619243.352717400,,,,,,,,,,,
1720619243.377964,0.030602000,0.000000000,0.000000000,-1.208977000,0.000000000,0.000000000,0.993278000,0.000000000,0.000000000,0.048512000,0.000000000,0.000000000,0.236000000,0.000000000,0.000000000,-0.047168000,0.000000000,0.000000000,1720619243.362717390,,,,,,,,,,,
1720619243.385005,0.030602000,0.000000000,0.000000000,-1.208977000,0.000000000,0.000000000,0.993278000,0.000000000,0.000000000,0.048512000,0.000000000,0.000000000,0.236000000,0.000000000,0.000000000,-0.047104000,0.000000000,0.000000000,1720619243.373717546,,,,,,,,,,,
1720619243.392750,0.030602000,0.000000000,0.000000000,-1.207360000,0.000000000,0.000000000,0.993278000,0.000000000,0.000000000,0.048512000,0.000000000,0.000000000,0.236128000,0.000000000,0.000000000,-0.047104000,0.000000000,0.000000000,1720619243.380717516,,,,,,,,,,,
1720619243.393330,0.030602000,0.000000000,0.000000000,-1.207360000,0.000000000,0.000000000,0.993278000,0.000000000,0.000000000,0.048512000,0.000000000,0.000000000,0.236128000,0.000000000,0.000000000,-0.047104000,0.000000000,0.000000000,1720619243.381717443,,,,,,,,,,,
1720619243.395612,,,,,,,,,,,,,,,,,,,,1720619243.373717546,-1.186824000,3.141592654,0.000000015,0.829037542,-0.000000022,-0.000000054,0.559192949,1.395152983,0.001110973,1.481517837
1720619243.397463,0.030602000,0.000000000,0.000000000,-1.207360000,0.000000000,0.000000000,0.993278000,0.000000000,0.000000000,0.048512000,0.000000000,0.000000000,0.235456000,0.000000000,0.000000000,-0.046784000,0.000000000,0.000000000,1720619243.385717392,,,,,,,,,,,
1720619243.405870,0.030602000,0.000000000,0.000000000,-1.211672000,0.000000000,0.000000000,0.993278000,0.000000000,0.000000000,0.048512000,0.000000000,0.000000000,0.236128000,0.000000000,0.000000000,-0.046784000,0.000000000,0.000000000,1720619243.393717527,,,,,,,,,,,
1720619243.409474,0.030602000,0.000000000,0.000000000,-1.206282000,0.000000000,0.000000000,0.993278000,0.000000000,0.000000000,0.048512000,0.000000000,0.000000000,0.236448000,0.000000000,0.000000000,-0.047520000,0.000000000,0.000000000,1720619243.397717476,,,,,,,,,,,
1720619243.416445,0.030602000,0.000000000,0.000000000,-1.206282000,0.000000000,0.000000000,0.993278000,0.000000000,0.000000000,0.048512000,0.000000000,0.000000000,0.235328000,0.000000000,0.000000000,-0.047424000,0.000000000,0.000000000,1720619243.404717445,,,,,,,,,,,
1720619243.418343,0.030602000,0.000000000,0.000000000,-1.206282000,0.000000000,0.000000000,0.993278000,0.000000000,0.000000000,0.048512000,0.000000000,0.000000000,0.235328000,0.000000000,0.000000000,-0.047424000,0.000000000,0.000000000,1720619243.406717539,,,,,,,,,,,
1720619243.421284,0.030602000,0.000000000,0.000000000,-1.206282000,0.000000000,0.000000000,0.993278000,0.000000000,0.000000000,0.048512000,0.000000000,0.000000000,0.236000000,0.000000000,0.000000000,-0.046432000,0.000000000,0.000000000,1720619243.409717321,,,,,,,,,,,
1720619243.429741,0.030602000,0.000000000,0.000000000,-1.207360000,0.000000000,0.000000000,0.993278000,0.000000000,0.000000000,0.048512000,0.000000000,0.000000000,0.236128000,0.000000000,0.000000000,-0.046592000,0.000000000,0.000000000,1720619243.417717457,,,,,,,,,,,
1720619243.433393,0.030602000,0.000000000,0.000000000,-1.207360000,0.000000000,0.000000000,0.993278000,0.000000000,0.000000000,0.048512000,0.000000000,0.000000000,0.235200000,0.000000000,0.000000000,-0.047104000,0.000000000,0.000000000,1720619243.421717405,,,,,,,,,,,
1720619243.441002,0.030602000,0.000000000,0.000000000,-1.209516000,0.000000000,0.000000000,0.993278000,0.000000000,0.000000000,0.048448000,0.000000000,0.000000000,0.236448000,0.000000000,0.000000000,-0.046912000,0.000000000,0.000000000,1720619243.428717375,,,,,,,,,,,
1720619243.441500,0.030602000,0.000000000,0.000000000,-1.209516000,0.000000000,0.000000000,0.993278000,0.000000000,0.000000000,0.048448000,0.000000000,0.000000000,0.236448000,0.000000000,0.000000000,-0.046912000,0.000000000,0.000000000,1720619243.429717541,,,,,,,,,,,
1720619243.445424,0.030602000,0.000000000,0.000000000,-1.209516000,0.000000000,0.000000000,0.993278000,0.000000000,0.000000000,0.048512000,0.000000000,0.000000000,0.236320000,0.000000000,0.000000000,-0.046720000,0.000000000,0.000000000,1720619243.433717489,,,,,,,,,,,
1720619243.445444,,,,,,,,,,,,,,,,,,,,1720619243.428717375,-1.186824000,3.141592654,0.000000015,0.829037542,-0.000000022,-0.000000054,0.559192949,1.395152983,0.001110973,1.481517837
1720619243.452622,0.030602000,0.000000000,0.000000000,-1.209516000,0.000000000,0.000000000,0.993278000,0.000000000,0.000000000,0.048512000,0.000000000,0.000000000,0.236544000,0.000000000,0.000000000,-0.046368000,0.000000000,0.000000000,1720619243.440717459,,,,,,,,,,,
1720619243.456021,0.030602000,0.000000000,0.000000000,-1.209516000,0.000000000,0.000000000,0.993278000,0.000000000,0.000000000,0.048512000,0.000000000,0.000000000,0.235808000,0.000000000,0.000000000,-0.048096000,0.000000000,0.000000000,1720619243.443717480,,,,,,,,,,,
1720619243.465614,0.030602000,0.000000000,0.000000000,-1.208977000,0.000000000,0.000000000,0.993278000,0.000000000,0.000000000,0.048512000,0.000000000,0.000000000,0.236800000,0.000000000,0.000000000,-0.047776000,0.000000000,0.000000000,1720619243.453717470,,,,,,,,,,,
1720619243.476229,0.030602000,0.000000000,0.000000000,-1.208977000,0.000000000,0.000000000,0.993278000,0.000000000,0.000000000,0.048512000,0.000000000,0.000000000,0.236448000,0.000000000,0.000000000,-0.046240000,0.000000000,0.009134350,1720619243.463717461,,,,,,,,,,,
1720619243.476357,0.030602000,0.000000000,0.000000000,-1.208977000,0.000000000,0.000000000,0.993278000,0.000000000,0.000000000,0.048512000,0.000000000,0.000000000,0.236448000,0.000000000,0.000000000,-0.046240000,0.000000000,0.009134350,1720619243.464717388,,,,,,,,,,,
1720619243.477664,0.030602000,0.000000000,0.000000000,-1.208977000,0.000000000,0.000000000,0.993278000,0.000000000,0.000000000,0.048512000,0.000000000,0.000000000,0.236448000,0.000000000,0.000000000,-0.046240000,0.000000000,0.009134350,1720619243.465717316,,,,,,,,,,,
1720619243.478446,0.030602000,0.000000000,0.000000000,-1.208977000,0.000000000,0.000000000,0.993278000,0.000000000,0.000000000,0.048512000,0.000000000,0.000000000,0.236448000,0.000000000,0.000000000,-0.046240000,0.000000000,0.009134350,1720619243.466717482,,,,,,,,,,,
1720619243.480655,0.030602000,0.000000000,0.000000000,-1.208977000,0.000000000,0.000000000,0.993278000,0.000000000,0.000000000,0.048512000,0.000000000,0.000000000,0.236384000,0.000000000,0.000000000,-0.047360000,0.000000000,0.000000000,1720619243.468717337,,,,,,,,,,,
1720619243.488343,0.030602000,0.000000000,0.000000000,-1.208977000,0.000000000,0.000000000,0.993278000,0.000000000,0.000000000,0.048512000,0.000000000,0.000000000,0.236320000,0.000000000,0.000000000,-0.047104000,0.000000000,0.000000000,1720619243.472717524,,,,,,,,,,,
1720619243.492534,0.030602000,0.000000000,0.000000000,-1.208977000,0.000000000,0.000000000,0.993278000,0.000000000,0.000000000,0.048576000,0.000000000,0.000000000,0.236384000,0.000000000,0.000000000,-0.046912000,0.000000000,0.000000000,1720619243.491368771,,,,,,,,,,,
1720619243.493407,0.030602000,0.000000000,0.000000000,-1.208977000,0.000000000,0.000000000,0.993278000,0.000000000,0.000000000,0.048576000,0.000000000,0.000000000,0.236384000,0.000000000,0.000000000,-0.046912000,0.000000000,0.000000000,1720619243.492368698,,,,,,,,,,,
1720619243.495472,,,,,,,,,,,,,,,,,,,,1720619243.491368771,-1.186824000,3.141592654,0.000000015,0.829037542,-0.000000022,-0.000000054,0.559192949,1.395152983,0.001110973,1.481517837
1720619243.495852,0.030602000,0.000000000,0.000000000,-1.208977000,0.000000000,0.000000000,0.993278000,0.000000000,0.000000000,0.048576000,0.000000000,0.000000000,0.236000000,0.000000000,0.000000000,-0.046912000,0.000000000,0.000000000,1720619243.494368792,,,,,,,,,,,
1720619243.505566,0.030602000,0.000000000,0.000000000,-1.209516000,0.000000000,0.000000000,0.993278000,0.000000000,0.000000000,0.048576000,0.000000000,0.000000000,0.235936000,0.000000000,0.000000000,-0.046656000,0.000000000,0.000000000,1720619243.504368782,,,,,,,,,,,
1720619243.516227,0.030602000,0.000000000,0.000000000,-1.207899000,0.000000000,0.000000000,0.993278000,0.000000000,0.000000000,0.048576000,0.000000000,0.000000000,0.236128000,0.000000000,0.000000000,-0.046912000,0.000000000,0.000000000,1720619243.514368773,,,,,,,,,,,
1720619243.516250,0.030602000,0.000000000,0.000000000,-1.207899000,0.000000000,0.000000000,0.993278000,0.000000000,0.000000000,0.048576000,0.000000000,0.000000000,0.236128000,0.000000000,0.000000000,-0.046912000,0.000000000,0.000000000,1720619243.515368700,,,,,,,,,,,
1720619243.517743,0.030602000,0.000000000,0.000000000,-1.207899000,0.000000000,0.000000000,0.993278000,0.000000000,0.000000000,0.048576000,0.000000000,0.000000000,0.236128000,0.000000000,0.000000000,-0.046912000,0.000000000,0.000000000,1720619243.516368628,,,,,,,,,,,
1720619243.518434,0.030602000,0.000000000,0.000000000,-1.207899000,0.000000000,0.000000000,0.993278000,0.000000000,0.000000000,0.048576000,0.000000000,0.000000000,0.236128000,0.000000000,0.000000000,-0.046912000,0.000000000,0.000000000,1720619243.517368793,,,,,,,,,,,
1720619243.520800,0.030602000,0.000000000,0.000000000,-1.207899000,0.000000000,0.000000000,0.993278000,0.000000000,0.000000000,0.048576000,0.000000000,0.000000000,0.235680000,0.000000000,0.000000000,-0.047232000,0.000000000,0.000000000,1720619243.519368649,,,,,,,,,,,
1720619243.526626,0.030602000,0.000000000,0.000000000,-1.207899000,0.000000000,0.000000000,0.993278000,0.000000000,0.000000000,0.048576000,0.000000000,0.000000000,0.236736000,0.000000000,0.000000000,-0.046496000,0.000000000,0.000000000,1720619243.523368597,,,,,,,,,,,
1720619243.536916,0.030602000,0.000000000,0.000000000,-1.207899000,0.000000000,0.000000000,0.993278000,0.000000000,0.000000000,0.048576000,0.000000000,0.000000000,0.236192000,0.000000000,0.000000000,-0.046848000,0.000000000,0.000000000,1720619243.535368681,,,,,,,,,,,
1720619243.543045,0.030602000,0.000000000,0.000000000,-1.211672000,0.000000000,0.000000000,0.993278000,0.000000000,0.000000000,0.048512000,0.000000000,0.000000000,0.235456000,0.000000000,0.000000000,-0.046432000,0.000000000,0.000000000,1720619243.541368723,,,,,,,,,,,
1720619243.544662,0.030602000,0.000000000,0.000000000,-1.209516000,0.000000000,0.000000000,0.993278000,0.000000000,0.000000000,0.048512000,0.000000000,0.000000000,0.236128000,0.000000000,0.000000000,-0.047424000,0.000000000,0.000000000,1720619243.543368578,,,,,,,,,,,
1720619243.545594,,,,,,,,,,,,,,,,,,,,1720619243.541368723,-1.186824000,3.141592654,0.000000015,0.829037542,-0.000000022,-0.000000054,0.559192949,1.395152983,0.001110973,1.481517837
1720619243.548675,0.030602000,0.000000000,0.000000000,-1.209516000,0.000000000,0.000000000,0.993278000,0.000000000,0.000000000,0.048512000,0.000000000,0.000000000,0.236384000,0.000000000,0.000000000,-0.046720000,0.000000000,0.000000000,1720619243.547368765,,,,,,,,,,,
1720619243.556867,0.030602000,0.000000000,0.000000000,-1.212211000,0.000000000,0.000000000,0.993278000,0.000000000,0.000000000,0.048512000,0.000000000,0.000000000,0.236320000,0.000000000,0.000000000,-0.046784000,0.000000000,0.000000000,1720619243.555368662,,,,,,,,,,,
1720619243.560789,0.030602000,0.000000000,0.000000000,-1.210594000,0.000000000,0.000000000,0.993278000,0.000000000,0.000000000,0.048512000,0.000000000,0.000000000,0.235456000,0.000000000,0.000000000,-0.046848000,0.000000000,0.000000000,1720619243.559368610,,,,,,,,,,,
1720619243.568985,0.030602000,0.000000000,0.000000000,-1.209516000,0.000000000,0.000000000,0.993278000,0.000000000,0.000000000,0.048512000,0.000000000,0.000000000,0.235936000,0.000000000,0.000000000,-0.046304000,0.000000000,0.000000000,1720619243.567368746,,,,,,,,,,,
1720619243.572892,0.030602000,0.000000000,0.000000000,-1.208977000,0.000000000,0.000000000,0.993278000,0.000000000,0.000000000,0.048640000,0.000000000,0.000000000,0.235872000,0.000000000,0.000000000,-0.047584000,0.000000000,0.000000000,1720619243.571368694,,,,,,,,,,,
1720619243.581265,0.030602000,0.000000000,0.000000000,-1.208977000,0.000000000,0.000000000,0.993278000,0.000000000,0.000000000,0.048576000,0.000000000,0.000000000,0.235264000,0.000000000,0.000000000,-0.048096000,0.000038380,0.009134350,1720619243.579368591,,,,,,,,,,,
1720619243.586113,0.030602000,0.000000000,0.000000000,-1.208977000,0.000000000,0.000000000,0.993278000,0.000000000,0.000000000,0.048640000,0.000000000,0.000000000,0.235936000,0.000000000,0.000000000,-0.045984000,0.000000000,0.009134350,1720619243.584368706,,,,,,,,,,,
1720619243.592834,0.030602000,0.000000000,0.000000000,-1.206282000,0.000000000,0.000000000,0.993278000,0.000000000,0.000000000,0.048640000,0.000000000,0.000000000,0.236256000,0.000000000,0.000000000,-0.046048000,0.000000000,0.009134350,1720619243.591368675,,,,,,,,,,,
1720619243.594735,0.030602000,0.000000000,0.000000000,-1.206282000,0.000000000,0.000000000,0.993278000,0.000000000,0.000000000,0.048640000,0.000000000,0.000000000,0.236256000,0.000000000,0.000000000,-0.046048000,0.000000000,0.009134350,1720619243.593368769,,,,,,,,,,,
1720619243.595494,,,,,,,,,,,,,,,,,,,,1720619243.591368675,-1.186824000,3.141592654,0.000000015,0.829037542,-0.000000022,-0.000000054,0.559192949,1.395152983,0.001110973,1.481517837
1720619243.597667,0.030602000,0.000000000,0.000000000,-1.192268000,0.000000000,0.000000000,0.993278000,0.000000000,0.000000000,0.048640000,0.000000000,0.000000000,0.236384000,0.000000000,0.000000000,-0.047360000,0.000038380,0.009134350,1720619243.596368790,,,,,,,,,,,
1720619243.609686,0.030602000,0.000000000,0.000000000,-1.214906000,0.000000000,0.000000000,0.993278000,0.000000000,0.000000000,0.048640000,0.000000000,0.000000000,0.235872000,0.000000000,0.000000000,-0.046240000,0.000000000,0.000000000,1720619243.608368635,,,,,,,,,,,
1720619243.616786,0.030602000,0.000000000,0.000000000,-1.236466000,0.000000000,0.000000000,0.993278000,0.000000000,0.000000000,0.048640000,0.000000000,0.000000000,0.236128000,0.000000000,0.000000000,-0.046368000,0.000000000,0.009134350,1720619243.615368605,,,,,,,,,,,
1720619243.617837,0.030602000,0.000000000,0.000000000,-1.236466000,0.000000000,0.000000000,0.993278000,0.000000000,0.000000000,0.048640000,0.000000000,0.000000000,0.236128000,0.000000000,0.000000000,-0.046368000,0.000000000,0.009134350,1720619243.616368771,,,,,,,,,,,
1720619243.621853,0.030602000,0.000000000,0.000000000,-1.210594000,0.000000000,0.000000000,0.993278000,0.000000000,0.000000000,0.048640000,0.000000000,0.000000000,0.236320000,0.000000000,0.000000000,-0.047424000,0.000000000,0.000000000,1720619243.620368719,,,,,,,,,,,
1720619243.629015,0.030602000,0.000000000,0.000000000,-1.218679000,0.000000000,0.000000000,0.993278000,0.000000000,0.000000000,0.048640000,0.000000000,0.000000000,0.235808000,0.000000000,0.000000000,-0.047232000,0.000000000,0.000000000,1720619243.627368689,,,,,,,,,,,
1720619243.629936,0.030602000,0.000000000,0.000000000,-1.218679000,0.000000000,0.000000000,0.993278000,0.000000000,0.000000000,0.048640000,0.000000000,0.000000000,0.235808000,0.000000000,0.000000000,-0.047232000,0.000000000,0.000000000,1720619243.628368616,,,,,,,,,,,
1720619243.632152,0.030602000,0.000000000,0.000000000,-1.205204000,0.000000000,0.000000000,0.993278000,0.000000000,0.000000000,0.048576000,0.000000000,0.000000000,0.236192000,0.000000000,0.000000000,-0.046656000,0.000000000,0.000000000,1720619243.630368710,,,,,,,,,,,
1720619243.632999,0.030602000,0.000000000,0.000000000,-1.205204000,0.000000000,0.000000000,0.993278000,0.000000000,0.000000000,0.048576000,0.000000000,0.000000000,0.236192000,0.000000000,0.000000000,-0.046656000,0.000000000,0.000000000,1720619243.631368637,,,,,,,,,,,
1720619243.634065,0.030602000,0.000000000,0.000000000,-1.205204000,0.000000000,0.000000000,0.993278000,0.000000000,0.000000000,0.048576000,0.000000000,0.000000000,0.236192000,0.000000000,0.000000000,-0.046656000,0.000000000,0.000000000,1720619243.632368803,,,,,,,,,,,
1720619243.634854,0.030602000,0.000000000,0.000000000,-1.205204000,0.000000000,0.000000000,0.993278000,0.000000000,0.000000000,0.048576000,0.000000000,0.000000000,0.236192000,0.000000000,0.000000000,-0.046656000,0.000000000,0.000000000,1720619243.633368731,,,,,,,,,,,
1720619243.640914,0.030602000,0.000000000,0.000000000,-1.178793000,0.000000000,0.000000000,0.993278000,0.000000000,0.000000000,0.048576000,0.000000000,0.000000000,0.236064000,0.000000000,0.000000000,-0.046048000,0.000000000,0.000000000,1720619243.639368773,,,,,,,,,,,
1720619243.647736,0.030602000,0.000000000,0.000000000,-1.208977000,0.000000000,0.000000000,0.993278000,0.000000000,0.000000000,0.048576000,0.000000000,0.000000000,0.235872000,0.000000000,0.000000000,-0.047360000,0.000000000,0.000000000,1720619243.645368576,,,,,,,,,,,
1720619243.655693,,,,,,,,,,,,,,,,,,,,1720619243.645368576,-1.186824000,3.141592654,0.000000015,0.829037542,-0.000000022,-0.000000054,0.559192949,1.395152983,0.001110973,1.481517837
1720619243.657307,0.030602000,0.000000000,0.000000000,-1.208977000,0.000000000,0.000000000,0.993278000,0.000000000,0.000000000,0.048576000,0.000000000,0.000000000,0.236448000,0.000000000,0.000000000,-0.046112000,0.000000000,0.009134350,1720619243.655368805,,,,,,,,,,,
1720619243.657900,0.030602000,0.000000000,0.000000000,-1.208977000,0.000000000,0.000000000,0.993278000,0.000000000,0.000000000,0.048576000,0.000000000,0.000000000,0.236448000,0.000000000,0.000000000,-0.046112000,0.000000000,0.009134350,1720619243.656368732,,,,,,,,,,,
1720619243.658832,0.030602000,0.000000000,0.000000000,-1.208977000,0.000000000,0.000000000,0.993278000,0.000000000,0.000000000,0.048576000,0.000000000,0.000000000,0.236448000,0.000000000,0.000000000,-0.046112000,0.000000000,0.009134350,1720619243.657368660,,,,,,,,,,,
1720619243.661536,0.030602000,0.000000000,0.000000000,-1.208977000,0.000000000,0.000000000,0.993278000,0.000000000,0.000000000,0.048576000,0.000000000,0.000000000,0.236064000,0.000000000,0.000000000,-0.047904000,0.000038380,0.009134350,1720619243.659368753,,,,,,,,,,,
1720619243.666529,0.030602000,0.000000000,0.000000000,-1.208977000,0.000000000,0.000000000,0.993278000,0.000000000,0.000000000,0.048576000,0.000000000,0.000000000,0.236192000,0.000000000,0.000000000,-0.045984000,0.000000000,0.009134350,1720619243.664368629,,,,,,,,,,,
1720619243.673229,0.030602000,0.000000000,0.000000000,-1.208977000,0.000000000,0.000000000,0.993278000,0.000000000,0.000000000,0.048576000,0.000000000,0.000000000,0.236800000,0.000000000,0.000000000,-0.046848000,0.000000000,0.009134350,1720619243.671368599,,,,,,,,,,,
1720619243.675639,0.030602000,0.000000000,0.000000000,-1.208977000,0.000000000,0.000000000,0.993278000,0.000000000,0.000000000,0.048576000,0.000000000,0.000000000,0.236800000,0.000000000,0.000000000,-0.046848000,0.000000000,0.009134350,1720619243.673368692,,,,,,,,,,,
1720619243.685064,0.030602000,0.000000000,0.000000000,-1.210594000,0.000000000,0.000000000,0.993278000,0.000000000,0.000000000,0.048576000,0.000000000,0.000000000,0.236448000,0.000000000,0.000000000,-0.045728000,0.000000000,0.000000000,1720619243.683368683,,,,,,,,,,,
1720619243.688675,0.030602000,0.000000000,0.000000000,-1.210594000,0.000000000,0.000000000,0.993278000,0.000000000,0.000000000,0.048576000,0.000000000,0.000000000,0.236448000,0.000000000,0.000000000,-0.045728000,0.000000000,0.000000000,1720619243.684368610,,,,,,,,,,,
1720619243.697003,0.030602000,0.000000000,0.000000000,-1.215984000,0.000000000,0.000000000,0.993278000,0.000000000,0.000000000,0.048576000,0.000000000,0.000000000,0.236608000,0.000000000,0.000000000,-0.046848000,0.000000000,0.000000000,1720619243.695368767,,,,,,,,,,,
1720619243.698000,0.030602000,0.000000000,0.000000000,-1.215984000,0.000000000,0.000000000,0.993278000,0.000000000,0.000000000,0.048576000,0.000000000,0.000000000,0.236608000,0.000000000,0.000000000,-0.046848000,0.000000000,0.000000000,1720619243.696368694,,,,,,,,,,,
1720619243.699978,0.030602000,0.000000000,0.000000000,-1.185800000,0.000000000,0.000000000,0.993278000,0.000000000,0.000000000,0.048640000,0.000000000,0.000000000,0.236064000,0.000000000,0.000000000,-0.046848000,0.000000000,0.000000000,1720619243.697368622,,,,,,,,,,,
1720619243.705419,,,,,,,,,,,,,,,,,,,,1720619243.695368767,-1.186824000,3.141592654,0.000000015,0.829037542,-0.000000022,-0.000000054,0.559192949,1.395152983,0.001110973,1.481517837
1720619243.709062,0.030602000,0.000000000,0.000000000,-1.211672000,0.000000000,0.000000000,0.993278000,0.000000000,0.000000000,0.048576000,0.000000000,0.000000000,0.235872000,0.000000000,0.000000000,-0.047104000,0.000000000,0.000000000,1720619243.707368612,,,,,,,,,,,
1720619243.709962,0.030602000,0.000000000,0.000000000,-1.211672000,0.000000000,0.000000000,0.993278000,0.000000000,0.000000000,0.048576000,0.000000000,0.000000000,0.235872000,0.000000000,0.000000000,-0.047104000,0.000000000,0.000000000,1720619243.708368778,,,,,,,,,,,
1720619243.712208,0.030602000,0.000000000,0.000000000,-1.209516000,0.000000000,0.000000000,0.993278000,0.000000000,0.000000000,0.048576000,0.000000000,0.000000000,0.236320000,0.000000000,0.000000000,-0.046848000,0.000000000,0.000000000,1720619243.709368706,,,,,,,,,,,
1720619243.721243,0.030602000,0.000000000,0.000000000,-1.208977000,0.000000000,0.000000000,0.993278000,0.000000000,0.000000000,0.048576000,0.000000000,0.000000000,0.235936000,0.000000000,0.000000000,-0.047232000,0.000000000,0.000000000,1720619243.719368696,,,,,,,,,,,
1720619243.722337,0.030602000,0.000000000,0.000000000,-1.208977000,0.000000000,0.000000000,0.993278000,0.000000000,0.000000000,0.048576000,0.000000000,0.000000000,0.235936000,0.000000000,0.000000000,-0.047232000,0.000000000,0.000000000,1720619243.720368624,,,,,,,,,,,
1720619243.723842,0.030602000,0.000000000,0.000000000,-1.184183000,0.000000000,0.000000000,0.993278000,0.000000000,0.000000000,0.048576000,0.000000000,0.000000000,0.236544000,0.000000000,0.000000000,-0.047296000,0.000000000,0.000000000,1720619243.722368717,,,,,,,,,,,
1720619243.733311,0.030602000,0.000000000,0.000000000,-1.186878000,0.000000000,0.000000000,0.993278000,0.000000000,0.000000000,0.048576000,0.000000000,0.000000000,0.235520000,0.000000000,0.000000000,-0.047296000,0.000000000,0.000000000,1720619243.731368780,,,,,,,,,,,
1720619243.734058,0.030602000,0.000000000,0.000000000,-1.186878000,0.000000000,0.000000000,0.993278000,0.000000000,0.000000000,0.048576000,0.000000000,0.000000000,0.235520000,0.000000000,0.000000000,-0.047296000,0.000000000,0.000000000,1720619243.732368708,,,,,,,,,,,
1720619243.736577,0.030602000,0.000000000,0.000000000,-1.238083000,0.000000000,0.000000000,0.993278000,0.000000000,0.000000000,0.048512000,0.000000000,0.000000000,0.235808000,0.000000000,0.000000000,-0.046304000,0.000000000,0.000000000,1720619243.734368801,,,,,,,,,,,
1720619243.745250,0.030602000,0.000000000,0.000000000,-1.206282000,0.000000000,0.000000000,0.993278000,0.000000000,0.000000000,0.048576000,0.000000000,0.000000000,0.236736000,0.000000000,0.000000000,-0.046592000,0.000000000,0.000000000,1720619243.743368626,,,,,,,,,,,
1720619243.746679,0.030602000,0.000000000,0.000000000,-1.206282000,0.000000000,0.000000000,0.993278000,0.000000000,0.000000000,0.048576000,0.000000000,0.000000000,0.236736000,0.000000000,0.000000000,-0.046592000,0.000000000,0.000000000,1720619243.744368792,,,,,,,,,,,
1720619243.749250,0.030602000,0.000000000,0.000000000,-1.206282000,0.000000000,0.000000000,0.993278000,0.000000000,0.000000000,0.048576000,0.000000000,0.000000000,0.235520000,0.000000000,0.000000000,-0.047296000,0.000000000,0.000000000,1720619243.747368813,,,,,,,,,,,
1720619243.749921,0.030602000,0.000000000,0.000000000,-1.206282000,0.000000000,0.000000000,0.993278000,0.000000000,0.000000000,0.048576000,0.000000000,0.000000000,0.235520000,0.000000000,0.000000000,-0.047296000,0.000000000,0.000000000,1720619243.748368740,,,,,,,,,,,
1720619243.755467,,,,,,,,,,,,,,,,,,,,1720619243.747368813,-1.186824000,3.141592654,0.000000015,0.829037542,-0.000000022,-0.000000054,0.559192949,1.395152983,0.001110973,1.481517837
1720619243.757905,0.030602000,0.000000000,0.000000000,-1.206282000,0.000000000,0.000000000,0.993278000,0.000000000,0.000000000,0.048576000,0.000000000,0.000000000,0.235936000,0.000000000,0.000000000,-0.046592000,0.000000000,0.000000000,1720619243.752368689,,,,,,,,,,,
1720619243.761278,0.030602000,0.000000000,0.000000000,-1.228920000,0.000000000,0.000000000,0.993278000,0.000000000,0.000000000,0.048512000,0.000000000,0.000000000,0.236256000,0.000000000,0.000000000,-0.046432000,0.000000000,0.000000000,1720619243.759368658,,,,,,,,,,,
1720619243.762656,0.030602000,0.000000000,0.000000000,-1.228920000,0.000000000,0.000000000,0.993278000,0.000000000,0.000000000,0.048512000,0.000000000,0.000000000,0.236256000,0.000000000,0.000000000,-0.046432000,0.000000000,0.000000000,1720619243.760368586,,,,,,,,,,,
1720619243.764211,0.030602000,0.000000000,0.000000000,-1.215984000,0.000000000,0.000000000,0.993278000,0.000000000,0.000000000,0.048576000,0.000000000,0.000000000,0.236128000,0.000000000,0.000000000,-0.048032000,0.000038380,0.009134350,1720619243.762368679,,,,,,,,,,,
1720619243.774076,0.030602000,0.000000000,0.000000000,-1.197119000,0.000000000,0.000000000,0.993278000,0.000000000,0.000000000,0.048576000,0.000000000,0.000000000,0.236192000,0.000000000,0.000000000,-0.045728000,0.000000000,0.009134350,1720619243.767368793,,,,,,,,,,,
1720619243.776544,0.030602000,0.000000000,0.000000000,-1.201970000,0.000000000,0.000000000,0.993278000,0.000000000,0.000000000,0.048576000,0.000000000,0.000000000,0.236128000,0.000000000,0.000000000,-0.046048000,0.000000000,0.009134350,1720619243.774368763,,,,,,,,,,,
1720619243.788997,0.030602000,0.000000000,0.000000000,-1.202509000,0.000000000,0.000000000,0.993278000,0.000000000,0.000000000,0.048512000,0.000000000,0.000000000,0.236064000,0.000000000,0.000000000,-0.046592000,0.000000000,0.000000000,1720619243.785368681,,,,,,,,,,,
1720619243.796522,0.030602000,0.000000000,0.000000000,-1.227303000,0.000000000,0.000000000,0.993278000,0.000000000,0.000000000,0.048512000,0.000000000,0.000000000,0.236320000,0.000000000,0.000000000,-0.047296000,0.000000000,0.000000000,1720619243.794368744,,,,,,,,,,,
1720619243.805141,0.030602000,0.000000000,0.000000000,-1.203587000,0.000000000,0.000000000,0.993278000,0.000000000,0.000000000,0.048512000,0.000000000,0.000000000,0.235520000,0.000000000,0.000000000,-0.046784000,0.000000000,0.000000000,1720619243.803368807,,,,,,,,,,,
1720619243.806402,0.030602000,0.000000000,0.000000000,-1.203587000,0.000000000,0.000000000,0.993278000,0.000000000,0.000000000,0.048512000,0.000000000,0.000000000,0.235520000,0.000000000,0.000000000,-0.046784000,0.000000000,0.000000000,1720619243.804368734,,,,,,,,,,,
1720619243.807751,0.030602000,0.000000000,0.000000000,-1.206282000,0.000000000,0.000000000,0.993278000,0.000000000,0.000000000,0.048576000,0.000000000,0.000000000,0.236384000,0.000000000,0.000000000,-0.047040000,0.000000000,0.000000000,1720619243.806368589,,,,,,,,,,,
1720619243.815598,,,,,,,,,,,,,,,,,,,,1720619243.803368807,-1.186824000,3.141592654,0.000000015,0.829037542,-0.000000022,-0.000000054,0.559192949,1.395152983,0.001110973,1.481517837
1720619243.817318,0.030602000,0.000000000,0.000000000,-1.206282000,0.000000000,0.000000000,0.993278000,0.000000000,0.000000000,0.048576000,0.000000000,0.000000000,0.236128000,0.000000000,0.000000000,-0.047296000,0.000000000,0.000000000,1720619243.815368652,,,,,,,,,,,
1720619243.818094,0.030602000,0.000000000,0.000000000,-1.206282000,0.000000000,0.000000000,0.993278000,0.000000000,0.000000000,0.048576000,0.000000000,0.000000000,0.236128000,0.000000000,0.000000000,-0.047296000,0.000000000,0.000000000,1720619243.816368580,,,,,,,,,,,
1720619243.819793,0.030602000,0.000000000,0.000000000,-1.206282000,0.000000000,0.000000000,0.993278000,0.000000000,0.000000000,0.048576000,0.000000000,0.000000000,0.235680000,0.000000000,0.000000000,-0.046784000,0.000000000,0.000000000,1720619243.818368673,,,,,,,,,,,
1720619243.829347,0.030602000,0.000000000,0.000000000,-1.206282000,0.000000000,0.000000000,0.993278000,0.000000000,0.000000000,0.048576000,0.000000000,0.000000000,0.236608000,0.000000000,0.000000000,-0.047520000,0.000000000,0.000000000,1720619243.827368736,,,,,,,,,,,
1720619243.829818,0.030602000,0.000000000,0.000000000,-1.206282000,0.000000000,0.000000000,0.993278000,0.000000000,0.000000000,0.048576000,0.000000000,0.000000000,0.236608000,0.000000000,0.000000000,-0.047520000,0.000000000,0.000000000,1720619243.828368664,,,,,,,,,,,
1720619243.831995,0.030602000,0.000000000,0.000000000,-1.206282000,0.000000000,0.000000000,0.993278000,0.000000000,0.000000000,0.048576000,0.000000000,0.000000000,0.235808000,0.000000000,0.000000000,-0.046976000,0.000000000,0.000000000,1720619243.830368757,,,,,,,,,,,
1720619243.841234,0.030602000,0.000000000,0.000000000,-1.206282000,0.000000000,0.000000000,0.993278000,0.000000000,0.000000000,0.048576000,0.000000000,0.000000000,0.235936000,0.000000000,0.000000000,-0.047232000,0.000000000,0.000000000,1720619243.839368582,,,,,,,,,,,
1720619243.842314,0.030602000,0.000000000,0.000000000,-1.206282000,0.000000000,0.000000000,0.993278000,0.000000000,0.000000000,0.048576000,0.000000000,0.000000000,0.235936000,0.000000000,0.000000000,-0.047232000,0.000000000,0.000000000,1720619243.840368748,,,,,,,,,,,
1720619243.843894,0.030602000,0.000000000,0.000000000,-1.207360000,0.000000000,0.000000000,0.993278000,0.000000000,0.000000000,0.048576000,0.000000000,0.000000000,0.236064000,0.000000000,0.000000000,-0.046432000,0.000000000,0.000000000,1720619243.842368603,,,,,,,,,,,
1720619243.853887,0.030602000,0.000000000,0.000000000,-1.217062000,0.000000000,0.000000000,0.993278000,0.000000000,0.000000000,0.048576000,0.000000000,0.000000000,0.235520000,0.000000000,0.000000000,-0.047040000,0.000000000,0.000000000,1720619243.851368666,,,,,,,,,,,
1720619243.854092,0.030602000,0.000000000,0.000000000,-1.217062000,0.000000000,0.000000000,0.993278000,0.000000000,0.000000000,0.048576000,0.000000000,0.000000000,0.235520000,0.000000000,0.000000000,-0.047040000,0.000000000,0.000000000,1720619243.852368593,,,,,,,,,,,
1720619243.856148,0.030602000,0.000000000,0.000000000,-1.207899000,0.000000000,0.000000000,0.993278000,0.000000000,0.000000000,0.048576000,0.000000000,0.000000000,0.236064000,0.000000000,0.000000000,-0.047232000,0.000000000,0.000000000,1720619243.854368687,,,,,,,,,,,
1720619243.865384,0.030602000,0.000000000,0.000000000,-1.207899000,0.000000000,0.000000000,0.993278000,0.000000000,0.000000000,0.048576000,0.000000000,0.000000000,0.235872000,0.000000000,0.000000000,-0.047168000,0.000000000,0.000000000,1720619243.863368750,,,,,,,,,,,
1720619243.865405,,,,,,,,,,,,,,,,,,,,1720619243.854368687,-1.186824000,3.141592654,0.000000015,0.829037542,-0.000000022,-0.000000054,0.559192949,1.395152983,0.001110973,1.481517837
1720619243.866501,0.030602000,0.000000000,0.000000000,-1.207899000,0.000000000,0.000000000,0.993278000,0.000000000,0.000000000,0.048576000,0.000000000,0.000000000,0.235872000,0.000000000,0.000000000,-0.047168000,0.000000000,0.000000000,1720619243.864368677,,,,,,,,,,,
1720619243.868306,0.030602000,0.000000000,0.000000000,-1.207899000,0.000000000,0.000000000,0.993278000,0.000000000,0.000000000,0.048576000,0.000000000,0.000000000,0.237120000,0.000000000,0.000000000,-0.047104000,0.000000000,0.000000000,1720619243.866368771,,,,,,,,,,,
1720619243.870441,0.030602000,0.000000000,0.000000000,-1.207899000,0.000000000,0.000000000,0.993278000,0.000000000,0.000000000,0.048576000,0.000000000,0.000000000,0.237120000,0.000000000,0.000000000,-0.047104000,0.000000000,0.000000000,1720619243.868368626,,,,,,,,,,,
1720619243.875901,0.030602000,0.000000000,0.000000000,-1.207360000,0.000000000,0.000000000,0.993278000,0.000000000,0.000000000,0.048448000,0.000000000,0.000000000,0.235520000,0.000000000,0.000000000,-0.047424000,0.000000000,0.000000000,1720619243.873368740,,,,,,,,,,,
