zakjeens/yaskawa_debug_materials/t9/joints.csv
__time,/joint_states/group_1/joint_1/effort,/joint_states/group_1/joint_1/position,/joint_states/group_1/joint_1/velocity,/joint_states/group_1/joint_2/effort,/joint_states/group_1/joint_2/position,/joint_states/group_1/joint_2/velocity,/joint_states/group_1/joint_3/effort,/joint_states/group_1/joint_3/position,/joint_states/group_1/joint_3/velocity,/joint_states/group_1/joint_4/effort,/joint_states/group_1/joint_4/position,/joint_states/group_1/joint_4/velocity,/joint_states/group_1/joint_5/effort,/joint_states/group_1/joint_5/position,/joint_states/group_1/joint_5/velocity,/joint_states/group_1/joint_6/effort,/joint_states/group_1/joint_6/position,/joint_states/group_1/joint_6/velocity,/joint_states/header/stamp,/world_to_torch/header/header/stamp,/world_to_torch/transform/rotation/pitch,/world_to_torch/transform/rotation/roll,/world_to_torch/transform/rotation/w,/world_to_torch/transform/rotation/x,/world_to_torch/transform/rotation/y,/world_to_torch/transform/rotation/yaw,/world_to_torch/transform/rotation/z,/world_to_torch/transform/translation/x,/world_to_torch/transform/translation/y,/world_to_torch/transform/translation/z
1720619991.679358,,,,,,,,,,,,,,,,,,,,1720619991.668511391,-1.186824000,3.141592654,0.000000015,0.829037542,-0.000000022,-0.000000054,0.559192949,1.395152983,0.001110973,1.481517837
1720619991.739505,,,,,,,,,,,,,,,,,,,,1720619991.727511406,-1.186824000,3.141592654,0.000000015,0.829037542,-0.000000022,-0.000000054,0.559192949,1.395152983,0.001110973,1.481517837
1720619991.789441,,,,,,,,,,,,,,,,,,,,1720619991.778511286,-1.186824000,3.141592654,0.000000015,0.829037542,-0.000000022,-0.000000054,0.559192949,1.395152983,0.001110973,1.481517837
1720619991.849445,,,,,,,,,,,,,,,,,,,,1720619991.833511353,-1.186824000,3.141592654,0.000000015,0.829037542,-0.000000022,-0.000000054,0.559192949,1.395152983,0.001110973,1.481517837
1720619991.899386,,,,,,,,,,,,,,,,,,,,1720619991.883511305,-1.186824000,3.141592654,0.000000015,0.829037542,-0.000000022,-0.000000054,0.559192949,1.395152983,0.001110973,1.481517837
1720619991.949566,,,,,,,,,,,,,,,,,,,,1720619991.934511423,-1.186824000,3.141592654,0.000000015,0.829037542,-0.000000022,-0.000000054,0.559192949,1.395152983,0.001110973,1.481517837
1720619991.999461,,,,,,,,,,,,,,,,,,,,1720619991.986511469,-1.186824000,3.141592654,0.000000015,0.829037542,-0.000000022,-0.000000054,0.559192949,1.395152983,0.001110973,1.481517837
1720619992.049420,,,,,,,,,,,,,,,,,,,,1720619992.042511463,-1.186824000,3.141592654,0.000000015,0.829037542,-0.000000022,-0.000000054,0.559192949,1.395152983,0.001110973,1.481517837
1720619992.109869,,,,,,,,,,,,,,,,,,,,1720619992.093511343,-1.186824000,3.141592654,0.000000015,0.829037542,-0.000000022,-0.000000054,0.559192949,1.395152983,0.001110973,1.481517837
1720619992.159461,,,,,,,,,,,,,,,,,,,,1720619992.146511316,-1.186824000,3.141592654,0.000000015,0.829037542,-0.000000022,-0.000000054,0.559192949,1.395152983,0.001110973,1.481517837
1720619992.209663,,,,,,,,,,,,,,,,,,,,1720619992.201511383,-1.186824000,3.141592654,0.000000015,0.829037542,-0.000000022,-0.000000054,0.559192949,1.395152983,0.001110973,1.481517837
1720619992.269533,,,,,,,,,,,,,,,,,,,,1720619992.254511356,-1.186824000,3.141592654,0.000000015,0.829037542,-0.000000022,-0.000000054,0.559192949,1.395152983,0.001110973,1.481517837
1720619992.319659,,,,,,,,,,,,,,,,,,,,1720619992.305511475,-1.186824000,3.141592654,0.000000015,0.829037542,-0.000000022,-0.000000054,0.559192949,1.395152983,0.001110973,1.481517837
1720619992.369375,,,,,,,,,,,,,,,,,,,,1720619992.357511282,-1.186824000,3.141592654,0.000000015,0.829037542,-0.000000022,-0.000000054,0.559192949,1.395152983,0.001110973,1.481517837
1720619992.429471,,,,,,,,,,,,,,,,,,,,1720619992.413511276,-1.186824000,3.141592654,0.000000015,0.829037542,-0.000000022,-0.000000054,0.559192949,1.395152983,0.001110973,1.481517837
1720619992.479556,,,,,,,,,,,,,,,,,,,,1720619992.465511322,-1.186824000,3.141592654,0.000000015,0.829037542,-0.000000022,-0.000000054,0.559192949,1.395152983,0.001110973,1.481517837
1720619992.529584,,,,,,,,,,,,,,,,,,,,1720619992.518511295,-1.186824000,3.141592654,0.000000015,0.829037542,-0.000000022,-0.000000054,0.559192949,1.395152983,0.001110973,1.481517837
1720619992.556830,0.030030000,0.000000000,0.000000000,-1.221374000,0.000000000,0.000000000,0.994136000,0.000000000,0.000000000,0.047840000,0.000000000,0.000000000,0.235456000,0.000000000,0.000000000,-0.049312000,0.000000000,0.000000000,1720619992.550511360,,,,,,,,,,,
1720619992.560830,0.030030000,0.000000000,0.000000000,-1.221374000,0.000000000,0.000000000,0.994136000,0.000000000,0.000000000,0.047840000,0.000000000,0.000000000,0.235808000,0.000000000,0.000000000,-0.049024000,0.000000000,0.000000000,1720619992.554511309,,,,,,,,,,,
1720619992.568176,0.030030000,0.000000000,0.000000000,-1.225686000,0.000000000,0.000000000,0.994136000,0.000000000,0.000000000,0.047776000,0.000000000,0.000000000,0.236128000,0.000000000,0.000000000,-0.048224000,0.000000000,0.009134350,1720619992.561511278,,,,,,,,,,,
1720619992.569479,0.030030000,0.000000000,0.000000000,-1.225686000,0.000000000,0.000000000,0.994136000,0.000000000,0.000000000,0.047776000,0.000000000,0.000000000,0.236128000,0.000000000,0.000000000,-0.048224000,0.000000000,0.009134350,1720619992.562511444,,,,,,,,,,,
1720619992.572873,0.030030000,0.000000000,0.000000000,-1.224608000,0.000000000,0.000000000,0.994136000,0.000000000,0.000000000,0.047776000,0.000000000,0.000000000,0.235680000,0.000000000,0.000000000,-0.049760000,0.000000000,0.000000000,1720619992.566511393,,,,,,,,,,,
1720619992.580204,0.030030000,0.000000000,0.000000000,-1.224608000,0.000000000,0.000000000,0.994136000,0.000000000,0.000000000,0.047840000,0.000000000,0.000000000,0.236128000,0.000000000,0.000000000,-0.048704000,0.000000000,0.000000000,1720619992.573511362,,,,,,,,,,,
1720619992.581170,0.030030000,0.000000000,0.000000000,-1.224608000,0.000000000,0.000000000,0.994136000,0.000000000,0.000000000,0.047840000,0.000000000,0.000000000,0.236128000,0.000000000,0.000000000,-0.048704000,0.000000000,0.000000000,1720619992.574511290,,,,,,,,,,,
1720619992.585304,0.030030000,0.000000000,0.000000000,-1.224069000,0.000000000,0.000000000,0.994136000,0.000000000,0.000000000,0.047840000,0.000000000,0.000000000,0.236448000,0.000000000,0.000000000,-0.050016000,0.000000000,0.000000000,1720619992.578511477,,,,,,,,,,,
1720619992.589324,,,,,,,,,,,,,,,,,,,,1720619992.573511362,-1.186824000,3.141592654,0.000000015,0.829037542,-0.000000022,-0.000000054,0.559192949,1.395152983,0.001110973,1.481517837
1720619992.592624,0.030030000,0.000000000,0.000000000,-1.221913000,0.000000000,0.000000000,0.994136000,0.000000000,0.000000000,0.047840000,0.000000000,0.000000000,0.236256000,0.000000000,0.000000000,-0.049440000,0.000000000,0.000000000,1720619992.585511446,,,,,,,,,,,
1720619992.593267,0.030030000,0.000000000,0.000000000,-1.221913000,0.000000000,0.000000000,0.994136000,0.000000000,0.000000000,0.047840000,0.000000000,0.000000000,0.236256000,0.000000000,0.000000000,-0.049440000,0.000000000,0.000000000,1720619992.586511374,,,,,,,,,,,
1720619992.597196,0.030030000,0.000000000,0.000000000,-1.249402000,0.000000000,0.000000000,0.994136000,0.000000000,0.000000000,0.047840000,0.000000000,0.000000000,0.236064000,0.000000000,0.000000000,-0.049376000,0.000000000,0.000000000,1720619992.590511322,,,,,,,,,,,
1720619992.604410,0.030030000,0.000000000,0.000000000,-1.248324000,0.000000000,0.000000000,0.994136000,0.000000000,0.000000000,0.047840000,0.000000000,0.000000000,0.236192000,0.000000000,0.000000000,-0.049376000,0.000000000,0.000000000,1720619992.597511292,,,,,,,,,,,
1720619992.605415,0.030030000,0.000000000,0.000000000,-1.248324000,0.000000000,0.000000000,0.994136000,0.000000000,0.000000000,0.047840000,0.000000000,0.000000000,0.236192000,0.000000000,0.000000000,-0.049376000,0.000000000,0.000000000,1720619992.598511457,,,,,,,,,,,
1720619992.607094,0.030030000,0.000000000,0.000000000,-1.219218000,0.000000000,0.000000000,0.994136000,0.000000000,0.000000000,0.048160000,0.000000000,0.000000000,0.236544000,0.000000000,0.000000000,-0.049312000,0.000000000,0.000000000,1720619992.600511312,,,,,,,,,,,
1720619992.611289,0.030030000,0.000000000,0.000000000,-1.206282000,0.000000000,0.000000000,0.994136000,0.000000000,0.000000000,0.048096000,0.000000000,0.000000000,0.235680000,0.000000000,0.000000000,-0.048576000,0.000000000,0.000000000,1720619992.604511499,,,,,,,,,,,
1720619992.619703,0.030030000,0.000000000,0.000000000,-1.217062000,0.000000000,0.000000000,0.994136000,0.000000000,0.000000000,0.047776000,0.000000000,0.000000000,0.236192000,0.000000000,0.000000000,-0.048576000,0.000000000,0.000000000,1720619992.612511396,,,,,,,,,,,
1720619992.631140,0.030030000,0.000000000,0.000000000,-1.224608000,0.000000000,0.000000000,0.994136000,0.000000000,0.000000000,0.047776000,0.000000000,0.000000000,0.236544000,0.000000000,0.000000000,-0.048896000,0.000000000,0.009134350,1720619992.624511480,,,,,,,,,,,
1720619992.639447,,,,,,,,,,,,,,,,,,,,1720619992.624511480,-1.186824000,3.141592654,0.000000015,0.829037542,-0.000000022,-0.000000054,0.559192949,1.395152983,0.001110973,1.481517837
1720619992.639624,0.030030000,0.000000000,0.000000000,-1.246707000,0.000000000,0.000000000,0.994136000,0.000000000,0.000000000,0.047424000,0.000000000,0.000000000,0.236064000,0.000000000,0.000000000,-0.049088000,0.000000000,0.000000000,1720619992.632511377,,,,,,,,,,,
1720619992.648737,0.030030000,0.000000000,0.000000000,-1.217062000,0.000000000,0.000000000,0.994136000,0.000000000,0.000000000,0.047776000,0.000000000,0.000000000,0.235744000,0.000000000,0.000000000,-0.048576000,0.000000000,0.000000000,1720619992.641511440,,,,,,,,,,,
1720619992.649794,0.030030000,0.000000000,0.000000000,-1.217062000,0.000000000,0.000000000,0.994136000,0.000000000,0.000000000,0.047776000,0.000000000,0.000000000,0.235744000,0.000000000,0.000000000,-0.048576000,0.000000000,0.000000000,1720619992.642511368,,,,,,,,,,,
1720619992.651163,0.030030000,0.000000000,0.000000000,-1.260721000,0.000000000,0.000000000,0.994136000,0.000000000,0.000000000,0.047776000,0.000000000,0.000000000,0.236800000,0.000000000,0.000000000,-0.049952000,0.000000000,0.000000000,1720619992.644511461,,,,,,,,,,,
1720619992.660712,0.030030000,0.000000000,0.000000000,-1.224069000,0.000000000,0.000000000,0.994136000,0.000000000,0.000000000,0.047712000,0.000000000,0.000000000,0.236256000,0.000000000,0.000000000,-0.050880000,0.000038380,0.009134350,1720619992.653511286,,,,,,,,,,,
1720619992.661400,0.030030000,0.000000000,0.000000000,-1.224069000,0.000000000,0.000000000,0.994136000,0.000000000,0.000000000,0.047712000,0.000000000,0.000000000,0.236256000,0.000000000,0.000000000,-0.050880000,0.000038380,0.009134350,1720619992.654511452,,,,,,,,,,,
1720619992.663175,0.030030000,0.000000000,0.000000000,-1.224069000,0.000000000,0.000000000,0.994136000,0.000000000,0.000000000,0.047712000,0.000000000,0.000000000,0.236320000,0.000000000,0.000000000,-0.048096000,0.000000000,0.009134350,1720619992.656511307,,,,,,,,,,,
1720619992.672881,0.030030000,0.000000000,0.000000000,-1.222991000,0.000000000,0.000000000,0.994136000,0.000000000,0.000000000,0.047360000,0.000000000,0.000000000,0.236320000,0.000000000,0.000000000,-0.048224000,0.000000000,0.009134350,1720619992.665511370,,,,,,,,,,,
1720619992.673219,0.030030000,0.000000000,0.000000000,-1.222991000,0.000000000,0.000000000,0.994136000,0.000000000,0.000000000,0.047360000,0.000000000,0.000000000,0.236320000,0.000000000,0.000000000,-0.048224000,0.000000000,0.009134350,1720619992.666511297,,,,,,,,,,,
1720619992.676378,0.030030000,0.000000000,0.000000000,-1.228381000,0.000000000,0.000000000,0.994136000,0.000000000,0.000000000,0.047776000,0.000000000,0.000000000,0.236192000,0.000000000,0.000000000,-0.049888000,0.000000000,0.000000000,1720619992.669511318,,,,,,,,,,,
1720619992.684570,0.030030000,0.000000000,0.000000000,-1.221913000,0.000000000,0.000000000,0.994136000,0.000000000,0.000000000,0.047840000,0.000000000,0.000000000,0.236128000,0.000000000,0.000000000,-0.048704000,0.000000000,0.000000000,1720619992.677511454,,,,,,,,,,,
1720619992.685575,0.030030000,0.000000000,0.000000000,-1.221913000,0.000000000,0.000000000,0.994136000,0.000000000,0.000000000,0.047840000,0.000000000,0.000000000,0.236128000,0.000000000,0.000000000,-0.048704000,0.000000000,0.000000000,1720619992.678511381,,,,,,,,,,,
1720619992.688306,0.030030000,0.000000000,0.000000000,-1.221913000,0.000000000,0.000000000,0.994136000,0.000000000,0.000000000,0.047776000,0.000000000,0.000000000,0.236608000,0.000000000,0.000000000,-0.049696000,0.000000000,0.000000000,1720619992.681511402,,,,,,,,,,,
1720619992.689341,,,,,,,,,,,,,,,,,,,,1720619992.677511454,-1.186824000,3.141592654,0.000000015,0.829037542,-0.000000022,-0.000000054,0.559192949,1.395152983,0.001110973,1.481517837
1720619992.696863,0.030030000,0.000000000,0.000000000,-1.222991000,0.000000000,0.000000000,0.994136000,0.000000000,0.000000000,0.047776000,0.000000000,0.000000000,0.235456000,0.000000000,0.000000000,-0.049696000,0.000000000,0.000000000,1720619992.689511299,,,,,,,,,,,
1720619992.697401,0.030030000,0.000000000,0.000000000,-1.222991000,0.000000000,0.000000000,0.994136000,0.000000000,0.000000000,0.047776000,0.000000000,0.000000000,0.235456000,0.000000000,0.000000000,-0.049696000,0.000000000,0.000000000,1720619992.690511465,,,,,,,,,,,
1720619992.699807,0.030030000,0.000000000,0.000000000,-1.222991000,0.000000000,0.000000000,0.994136000,0.000000000,0.000000000,0.047712000,0.000000000,0.000000000,0.236000000,0.000000000,0.000000000,-0.049152000,0.000000000,0.000000000,1720619992.692511320,,,,,,,,,,,
1720619992.708702,0.030030000,0.000000000,0.000000000,-1.222991000,0.000000000,0.000000000,0.994136000,0.000000000,0.000000000,0.047712000,0.000000000,0.000000000,0.236128000,0.000000000,0.000000000,-0.049440000,0.000000000,0.000000000,1720619992.701511383,,,,,,,,,,,
1720619992.710927,0.030030000,0.000000000,0.000000000,-1.222991000,0.000000000,0.000000000,0.994136000,0.000000000,0.000000000,0.047712000,0.000000000,0.000000000,0.236128000,0.000000000,0.000000000,-0.049440000,0.000000000,0.000000000,1720619992.702511311,,,,,,,,,,,
1720619992.721537,0.030030000,0.000000000,0.000000000,-1.214367000,0.000000000,0.000000000,0.994136000,0.000000000,0.000000000,0.047712000,0.000000000,0.000000000,0.236384000,0.000000000,0.000000000,-0.049376000,0.000000000,0.000000000,1720619992.714511395,,,,,,,,,,,
1720619992.730952,0.030030000,0.000000000,0.000000000,-1.220296000,0.000000000,0.000000000,0.994136000,0.000000000,0.000000000,0.047776000,0.000000000,0.000000000,0.236544000,0.000000000,0.000000000,-0.049504000,0.000000000,0.000000000,1720619992.723511457,,,,,,,,,,,
1720619992.740471,0.030030000,0.000000000,0.000000000,-1.220296000,0.000000000,0.000000000,0.994136000,0.000000000,0.000000000,0.047840000,0.000000000,0.000000000,0.235808000,0.000000000,0.000000000,-0.049024000,0.000000000,0.000000000,1720619992.733511448,,,,,,,,,,,
1720619992.749428,,,,,,,,,,,,,,,,,,,,1720619992.733511448,-1.186824000,3.141592654,0.000000015,0.829037542,-0.000000022,-0.000000054,0.559192949,1.395152983,0.001110973,1.481517837
1720619992.752449,0.030030000,0.000000000,0.000000000,-1.221913000,0.000000000,0.000000000,0.994136000,0.000000000,0.000000000,0.048096000,0.000000000,0.000000000,0.236320000,0.000000000,0.000000000,-0.049088000,0.000000000,0.000000000,1720619992.745511293,,,,,,,,,,,
1720619992.761784,0.030030000,0.000000000,0.000000000,-1.222991000,0.000000000,0.000000000,0.994136000,0.000000000,0.000000000,0.047776000,0.000000000,0.000000000,0.236672000,0.000000000,0.000000000,-0.049504000,0.000000000,0.000000000,1720619992.754511356,,,,,,,,,,,
1720619992.771138,0.030030000,0.000000000,0.000000000,-1.222991000,0.000000000,0.000000000,0.994136000,0.000000000,0.000000000,0.047840000,0.000000000,0.000000000,0.235264000,0.000000000,0.000000000,-0.048704000,0.000000000,0.000000000,1720619992.763511419,,,,,,,,,,,
1720619992.783518,0.030030000,0.000000000,0.000000000,-1.222991000,0.000000000,0.000000000,0.994136000,0.000000000,0.000000000,0.047840000,0.000000000,0.000000000,0.236128000,0.000000000,0.000000000,-0.050080000,0.000000000,0.000000000,1720619992.776511431,,,,,,,,,,,
1720619992.791206,0.030030000,0.000000000,0.000000000,-1.226764000,0.000000000,0.000000000,0.994136000,0.000000000,0.000000000,0.047840000,0.000000000,0.000000000,0.236128000,0.000000000,0.000000000,-0.049888000,0.000000000,0.000000000,1720619992.783511400,,,,,,,,,,,
1720619992.799575,,,,,,,,,,,,,,,,,,,,1720619992.783511400,-1.186824000,3.141592654,0.000000015,0.829037542,-0.000000022,-0.000000054,0.559192949,1.395152983,0.001110973,1.481517837
1720619992.800752,0.030030000,0.000000000,0.000000000,-1.224069000,0.000000000,0.000000000,0.994136000,0.000000000,0.000000000,0.047840000,0.000000000,0.000000000,0.235456000,0.000000000,0.000000000,-0.050016000,0.000000000,0.000000000,1720619992.793511391,,,,,,,,,,,
1720619992.813769,0.030030000,0.000000000,0.000000000,-1.232693000,0.000000000,0.000000000,0.994136000,0.000000000,0.000000000,0.047520000,0.000000000,0.000000000,0.235808000,0.000000000,0.000000000,-0.048896000,0.000000000,0.000000000,1720619992.806511402,,,,,,,,,,,
1720619992.820867,0.030030000,0.000000000,0.000000000,-1.228381000,0.000000000,0.000000000,0.994136000,0.000000000,0.000000000,0.047840000,0.000000000,0.000000000,0.235744000,0.000000000,0.000000000,-0.049504000,0.000000000,0.000000000,1720619992.813511372,,,,,,,,,,,
1720619992.821773,0.030030000,0.000000000,0.000000000,-1.228381000,0.000000000,0.000000000,0.994136000,0.000000000,0.000000000,0.047840000,0.000000000,0.000000000,0.235744000,0.000000000,0.000000000,-0.049504000,0.000000000,0.000000000,1720619992.814511299,,,,,,,,,,,
1720619992.827615,0.030030000,0.000000000,0.000000000,-1.224069000,0.000000000,0.000000000,0.994136000,0.000000000,0.000000000,0.047776000,0.000000000,0.000000000,0.236256000,0.000000000,0.000000000,-0.049568000,0.000000000,0.000000000,1720619992.820511341,,,,,,,,,,,
1720619992.833937,0.030030000,0.000000000,0.000000000,-1.224069000,0.000000000,0.000000000,0.994136000,0.000000000,0.000000000,0.047776000,0.000000000,0.000000000,0.236064000,0.000000000,0.000000000,-0.048576000,0.000000000,0.000000000,1720619992.826511383,,,,,,,,,,,
1720619992.836140,0.030030000,0.000000000,0.000000000,-1.224069000,0.000000000,0.000000000,0.994136000,0.000000000,0.000000000,0.048096000,0.000000000,0.000000000,0.236000000,0.000000000,0.000000000,-0.049632000,0.000000000,0.000000000,1720619992.828511477,,,,,,,,,,,
1720619992.840263,0.030030000,0.000000000,0.000000000,-1.224069000,0.000000000,0.000000000,0.994136000,0.000000000,0.000000000,0.047776000,0.000000000,0.000000000,0.235872000,0.000000000,0.000000000,-0.048896000,0.000000000,0.000000000,1720619992.832511425,,,,,,,,,,,
1720619992.847864,0.030030000,0.000000000,0.000000000,-1.222991000,0.000000000,0.000000000,0.994136000,0.000000000,0.000000000,0.047840000,0.000000000,0.000000000,0.236192000,0.000000000,0.000000000,-0.049568000,0.000000000,0.000000000,1720619992.840511322,,,,,,,,,,,
1720619992.849330,,,,,,,,,,,,,,,,,,,,1720619992.840511322,-1.186824000,3.141592654,0.000000015,0.829037542,-0.000000022,-0.000000054,0.559192949,1.395152983,0.001110973,1.481517837
1720619992.851711,0.030030000,0.000000000,0.000000000,-1.222991000,0.000000000,0.000000000,0.994136000,0.000000000,0.000000000,0.047776000,0.000000000,0.000000000,0.236256000,0.000000000,0.000000000,-0.049024000,0.000000000,0.000000000,1720619992.844511271,,,,,,,,,,,
1720619992.859933,0.030030000,0.000000000,0.000000000,-1.222991000,0.000000000,0.000000000,0.994136000,0.000000000,0.000000000,0.047776000,0.000000000,0.000000000,0.236192000,0.000000000,0.000000000,-0.049888000,0.000000000,0.000000000,1720619992.852511406,,,,,,,,,,,
1720619992.864704,0.030030000,0.000000000,0.000000000,-1.222991000,0.000000000,0.000000000,0.994136000,0.000000000,0.000000000,0.047776000,0.000000000,0.000000000,0.235584000,0.000000000,0.000000000,-0.049024000,0.000000000,0.000000000,1720619992.857511282,,,,,,,,,,,
1720619992.872842,0.030030000,0.000000000,0.000000000,-1.222991000,0.000000000,0.000000000,0.994136000,0.000000000,0.000000000,0.047776000,0.000000000,0.000000000,0.236672000,0.000000000,0.000000000,-0.049312000,0.000000000,0.000000000,1720619992.865511417,,,,,,,,,,,
1720619992.876854,0.030030000,0.000000000,0.000000000,-1.250480000,0.000000000,0.000000000,0.994136000,0.000000000,0.000000000,0.047712000,0.000000000,0.000000000,0.235680000,0.000000000,0.000000000,-0.049568000,0.000000000,0.000000000,1720619992.869511366,,,,,,,,,,,
1720619992.883842,0.030030000,0.000000000,0.000000000,-1.209516000,0.000000000,0.000000000,0.994136000,0.000000000,0.000000000,0.047712000,0.000000000,0.000000000,0.236128000,0.000000000,0.000000000,-0.049216000,0.000000000,0.000000000,1720619992.876511335,,,,,,,,,,,
1720619992.884813,0.030030000,0.000000000,0.000000000,-1.209516000,0.000000000,0.000000000,0.994136000,0.000000000,0.000000000,0.047712000,0.000000000,0.000000000,0.236128000,0.000000000,0.000000000,-0.049216000,0.000000000,0.000000000,1720619992.877511501,,,,,,,,,,,
1720619992.888627,0.030030000,0.000000000,0.000000000,-1.227303000,0.000000000,0.000000000,0.994136000,0.000000000,0.000000000,0.047712000,0.000000000,0.000000000,0.236128000,0.000000000,0.000000000,-0.049760000,0.000000000,0.000000000,1720619992.881511450,,,,,,,,,,,
1720619992.896536,0.030030000,0.000000000,0.000000000,-1.224608000,0.000000000,0.000000000,0.994136000,0.000000000,0.000000000,0.047776000,0.000000000,0.000000000,0.235872000,0.000000000,0.000000000,-0.050176000,0.000000000,0.000000000,1720619992.888511419,,,,,,,,,,,
1720619992.896831,0.030030000,0.000000000,0.000000000,-1.224608000,0.000000000,0.000000000,0.994136000,0.000000000,0.000000000,0.047776000,0.000000000,0.000000000,0.235872000,0.000000000,0.000000000,-0.050176000,0.000000000,0.000000000,1720619992.889511347,,,,,,,,,,,
1720619992.900846,0.030030000,0.000000000,0.000000000,-1.224069000,0.000000000,0.000000000,0.994136000,0.000000000,0.000000000,0.047712000,0.000000000,0.000000000,0.235936000,0.000000000,0.000000000,-0.048512000,0.000000000,0.000000000,1720619992.893511295,,,,,,,,,,,
1720619992.908030,0.030030000,0.000000000,0.000000000,-1.221374000,0.000000000,0.000000000,0.994136000,0.000000000,0.000000000,0.047712000,0.000000000,0.000000000,0.236000000,0.000000000,0.000000000,-0.048032000,0.000000000,0.009134350,1720619992.900511265,,,,,,,,,,,
1720619992.908967,0.030030000,0.000000000,0.000000000,-1.221374000,0.000000000,0.000000000,0.994136000,0.000000000,0.000000000,0.047712000,0.000000000,0.000000000,0.236000000,0.000000000,0.000000000,-0.048032000,0.000000000,0.009134350,1720619992.901511431,,,,,,,,,,,
1720619992.909602,,,,,,,,,,,,,,,,,,,,1720619992.893511295,-1.186824000,3.141592654,0.000000015,0.829037542,-0.000000022,-0.000000054,0.559192949,1.395152983,0.001110973,1.481517837
1720619992.912821,0.030030000,0.000000000,0.000000000,-1.247785000,0.000000000,0.000000000,0.994136000,0.000000000,0.000000000,0.047712000,0.000000000,0.000000000,0.236128000,0.000000000,0.000000000,-0.050944000,0.000038380,0.009134350,1720619992.905511379,,,,,,,,,,,
1720619992.919911,0.030030000,0.000000000,0.000000000,-1.213289000,0.000000000,0.000000000,0.994136000,0.000000000,0.000000000,0.047712000,0.000000000,0.000000000,0.236192000,0.000000000,0.000000000,-0.049952000,0.000000000,0.000000000,1720619992.912511349,,,,,,,,,,,
1720619992.920929,0.030030000,0.000000000,0.000000000,-1.213289000,0.000000000,0.000000000,0.994136000,0.000000000,0.000000000,0.047712000,0.000000000,0.000000000,0.236192000,0.000000000,0.000000000,-0.049952000,0.000000000,0.000000000,1720619992.913511276,,,,,,,,,,,
1720619992.925369,0.030030000,0.000000000,0.000000000,-1.220296000,0.000000000,0.000000000,0.994136000,0.000000000,0.000000000,0.047712000,0.000000000,0.000000000,0.236544000,0.000000000,0.000000000,-0.048832000,0.000000000,0.000000000,1720619992.917511463,,,,,,,,,,,
1720619992.932144,0.026026000,0.000000000,0.000000000,-1.221374000,0.000000000,0.000000000,0.994136000,0.000000000,0.000000000,0.047776000,0.000000000,0.000000000,0.236256000,0.000000000,0.000000000,-0.048512000,0.000000000,0.000000000,1720619992.924511433,,,,,,,,,,,
1720619992.932770,0.026026000,0.000000000,0.000000000,-1.221374000,0.000000000,0.000000000,0.994136000,0.000000000,0.000000000,0.047776000,0.000000000,0.000000000,0.236256000,0.000000000,0.000000000,-0.048512000,0.000000000,0.000000000,1720619992.925511360,,,,,,,,,,,
1720619992.936687,0.029172000,0.000000000,0.000000000,-1.221913000,0.000000000,0.000000000,0.994136000,0.000000000,0.000000000,0.047776000,0.000000000,0.000000000,0.236672000,0.000000000,0.000000000,-0.050624000,0.000038380,0.009134350,1720619992.929511309,,,,,,,,,,,
1720619992.943896,0.030030000,0.000000000,0.000000000,-1.228381000,0.000000000,0.000000000,0.994136000,0.000000000,0.000000000,0.047776000,0.000000000,0.000000000,0.235872000,0.000000000,0.000000000,-0.050560000,0.000038380,0.009134350,1720619992.936511278,,,,,,,,,,,
1720619992.945508,0.030030000,0.000000000,0.000000000,-1.228381000,0.000000000,0.000000000,0.994136000,0.000000000,0.000000000,0.047776000,0.000000000,0.000000000,0.235872000,0.000000000,0.000000000,-0.050560000,0.000038380,0.009134350,1720619992.937511444,,,,,,,,,,,
1720619992.948645,0.030602000,0.000000000,0.000000000,-1.225686000,0.000000000,0.000000000,0.994136000,0.000000000,0.000000000,0.047776000,0.000000000,0.000000000,0.236192000,0.000000000,0.000000000,-0.048224000,0.000000000,0.009134350,1720619992.941511393,,,,,,,,,,,
1720619992.957211,0.030602000,0.000000000,0.000000000,-1.225686000,0.000000000,0.000000000,0.994136000,0.000000000,0.000000000,0.047776000,0.000000000,0.000000000,0.235808000,0.000000000,0.000000000,-0.048640000,0.000000000,0.009134350,1720619992.949511290,,,,,,,,,,,
1720619992.959482,,,,,,,,,,,,,,,,,,,,1720619992.949511290,-1.186824000,3.141592654,0.000000015,0.829037542,-0.000000022,-0.000000054,0.559192949,1.395152983,0.001110973,1.481517837
1720619992.960756,0.030602000,0.000000000,0.000000000,-1.225686000,0.000000000,0.000000000,0.994136000,0.000000000,0.000000000,0.047776000,0.000000000,0.000000000,0.236256000,0.000000000,0.000000000,-0.049632000,0.000000000,0.000000000,1720619992.953511477,,,,,,,,,,,
1720619992.968096,0.030030000,0.000000000,0.000000000,-1.232693000,0.000000000,0.000000000,0.994136000,0.000000000,0.000000000,0.047776000,0.000000000,0.000000000,0.235936000,0.000000000,0.000000000,-0.050560000,0.000038380,0.009134350,1720619992.960511446,,,,,,,,,,,
1720619992.970158,0.030030000,0.000000000,0.000000000,-1.232693000,0.000000000,0.000000000,0.994136000,0.000000000,0.000000000,0.047776000,0.000000000,0.000000000,0.235936000,0.000000000,0.000000000,-0.050560000,0.000038380,0.009134350,1720619992.962511301,,,,,,,,,,,
1720619992.973937,0.030030000,0.000000000,0.000000000,-1.224069000,0.000000000,0.000000000,0.994136000,0.000000000,0.000000000,0.047776000,0.000000000,0.000000000,0.235584000,0.000000000,0.000000000,-0.048512000,0.000000000,0.009134350,1720619992.966511488,,,,,,,,,,,
1720619992.983097,0.030030000,0.000000000,0.000000000,-1.224069000,0.000000000,0.000000000,0.994136000,0.000000000,0.000000000,0.047776000,0.000000000,0.000000000,0.236064000,0.000000000,0.000000000,-0.048704000,0.000000000,0.009134350,1720619992.974511385,,,,,,,,,,,
1720619992.992289,0.030030000,0.000000000,0.000000000,-1.224069000,0.000000000,0.000000000,0.994136000,0.000000000,0.000000000,0.047776000,0.000000000,0.000000000,0.235744000,0.000000000,0.000000000,-0.049024000,0.000000000,0.000000000,1720619992.984511375,,,,,,,,,,,
1720619992.992987,0.030030000,0.000000000,0.000000000,-1.224069000,0.000000000,0.000000000,0.994136000,0.000000000,0.000000000,0.047776000,0.000000000,0.000000000,0.235744000,0.000000000,0.000000000,-0.049024000,0.000000000,0.000000000,1720619992.985511303,,,,,,,,,,,
1720619992.993906,0.030030000,0.000000000,0.000000000,-1.224069000,0.000000000,0.000000000,0.994136000,0.000000000,0.000000000,0.047776000,0.000000000,0.000000000,0.235744000,0.000000000,0.000000000,-0.049024000,0.000000000,0.000000000,1720619992.986511469,,,,,,,,,,,
1720619992.996496,0.030030000,0.000000000,0.000000000,-1.222991000,0.000000000,0.000000000,0.994136000,0.000000000,0.000000000,0.048096000,0.000000000,0.000000000,0.236128000,0.000000000,0.000000000,-0.049216000,0.000000000,0.000000000,1720619992.988511324,,,,,,,,,,,
1720619992.997830,0.030030000,0.000000000,0.000000000,-1.222991000,0.000000000,0.000000000,0.994136000,0.000000000,0.000000000,0.048096000,0.000000000,0.000000000,0.236128000,0.000000000,0.000000000,-0.049216000,0.000000000,0.000000000,1720619992.990511417,,,,,,,,,,,
1720619993.000071,0.030030000,0.000000000,0.000000000,-1.224069000,0.000000000,0.000000000,0.994136000,0.000000000,0.000000000,0.047776000,0.000000000,0.000000000,0.236320000,0.000000000,0.000000000,-0.049024000,0.000000000,0.000000000,1720619992.992511272,,,,,,,,,,,
1720619993.003929,0.030030000,0.000000000,0.000000000,-1.214367000,0.000000000,0.000000000,0.994136000,0.000000000,0.000000000,0.047712000,0.000000000,0.000000000,0.236192000,0.000000000,0.000000000,-0.049760000,0.000000000,0.000000000,1720619992.996511459,,,,,,,,,,,
1720619993.016348,0.030030000,0.000000000,0.000000000,-1.218679000,0.000000000,0.000000000,0.994136000,0.000000000,0.000000000,0.047712000,0.000000000,0.000000000,0.236384000,0.000000000,0.000000000,-0.049312000,0.000000000,0.000000000,1720619993.008511305,,,,,,,,,,,
1720619993.019489,,,,,,,,,,,,,,,,,,,,1720619993.008511305,-1.186824000,3.141592654,0.000000015,0.829037542,-0.000000022,-0.000000054,0.559192949,1.395152983,0.001110973,1.481517837
1720619993.023293,0.030030000,0.000000000,0.000000000,-1.218679000,0.000000000,0.000000000,0.994136000,0.000000000,0.000000000,0.047712000,0.000000000,0.000000000,0.235584000,0.000000000,0.000000000,-0.049024000,0.000000000,0.000000000,1720619993.015511274,,,,,,,,,,,
1720619993.036408,0.030030000,0.000000000,0.000000000,-1.222991000,0.000000000,0.000000000,0.994136000,0.000000000,0.000000000,0.047712000,0.000000000,0.000000000,0.236320000,0.000000000,0.000000000,-0.049824000,0.000000000,0.000000000,1720619993.028511286,,,,,,,,,,,
1720619993.043115,0.030030000,0.000000000,0.000000000,-1.224608000,0.000000000,0.000000000,0.994136000,0.000000000,0.000000000,0.047712000,0.000000000,0.000000000,0.235808000,0.000000000,0.000000000,-0.049696000,0.000000000,0.000000000,1720619993.035511494,,,,,,,,,,,
1720619993.052411,0.030030000,0.000000000,0.000000000,-1.227303000,0.000000000,0.000000000,0.994136000,0.000000000,0.000000000,0.047712000,0.000000000,0.000000000,0.236128000,0.000000000,0.000000000,-0.049440000,0.000000000,0.000000000,1720619993.044511318,,,,,,,,,,,
1720619993.052953,0.030030000,0.000000000,0.000000000,-1.227303000,0.000000000,0.000000000,0.994136000,0.000000000,0.000000000,0.047712000,0.000000000,0.000000000,0.236128000,0.000000000,0.000000000,-0.049440000,0.000000000,0.000000000,1720619993.045511484,,,,,,,,,,,
1720619993.054962,0.030030000,0.000000000,0.000000000,-1.227303000,0.000000000,0.000000000,0.994136000,0.000000000,0.000000000,0.047712000,0.000000000,0.000000000,0.236128000,0.000000000,0.000000000,-0.049440000,0.000000000,0.000000000,1720619993.046511412,,,,,,,,,,,
1720619993.066135,0.030030000,0.000000000,0.000000000,-1.224608000,0.000000000,0.000000000,0.994136000,0.000000000,0.000000000,0.047712000,0.000000000,0.000000000,0.236192000,0.000000000,0.000000000,-0.048768000,0.000000000,0.000000000,1720619993.058511496,,,,,,,,,,,
1720619993.069586,,,,,,,,,,,,,,,,,,,,1720619993.058511496,-1.186824000,3.141592654,0.000000015,0.829037542,-0.000000022,-0.000000054,0.559192949,1.395152983,0.001110973,1.481517837
1720619993.075610,0.030030000,0.000000000,0.000000000,-1.224608000,0.000000000,0.000000000,0.994136000,0.000000000,0.000000000,0.047712000,0.000000000,0.000000000,0.236320000,0.000000000,0.000000000,-0.048768000,0.000000000,0.000000000,1720619993.067511320,,,,,,,,,,,
1720619993.084549,0.030030000,0.000000000,0.000000000,-1.224608000,0.000000000,0.000000000,0.994136000,0.000000000,0.000000000,0.047712000,0.000000000,0.000000000,0.236736000,0.000000000,0.000000000,-0.048640000,0.000000000,0.000000000,1720619993.076511383,,,,,,,,,,,
1720619993.085737,0.030030000,0.000000000,0.000000000,-1.224608000,0.000000000,0.000000000,0.994136000,0.000000000,0.000000000,0.047712000,0.000000000,0.000000000,0.236736000,0.000000000,0.000000000,-0.048640000,0.000000000,0.000000000,1720619993.077511311,,,,,,,,,,,
1720619993.087279,0.030030000,0.000000000,0.000000000,-1.224608000,0.000000000,0.000000000,0.994136000,0.000000000,0.000000000,0.047712000,0.000000000,0.000000000,0.236736000,0.000000000,0.000000000,-0.048640000,0.000000000,0.000000000,1720619993.078511477,,,,,,,,,,,
1720619993.096600,0.030030000,0.000000000,0.000000000,-1.220296000,0.000000000,0.000000000,0.994136000,0.000000000,0.000000000,0.047712000,0.000000000,0.000000000,0.236736000,0.000000000,0.000000000,-0.049952000,0.000000000,0.000000000,1720619993.088511467,,,,,,,,,,,
1720619993.097644,0.030030000,0.000000000,0.000000000,-1.220296000,0.000000000,0.000000000,0.994136000,0.000000000,0.000000000,0.047712000,0.000000000,0.000000000,0.236736000,0.000000000,0.000000000,-0.049952000,0.000000000,0.000000000,1720619993.089511395,,,,,,,,,,,
1720619993.099192,0.030030000,0.000000000,0.000000000,-1.246168000,0.000000000,0.000000000,0.994136000,0.000000000,0.000000000,0.047712000,0.000000000,0.000000000,0.236064000,0.000000000,0.000000000,-0.049024000,0.000000000,0.000000000,1720619993.091511488,,,,,,,,,,,
1720619993.108815,0.030030000,0.000000000,0.000000000,-1.208977000,0.000000000,0.000000000,0.994136000,0.000000000,0.000000000,0.047840000,0.000000000,0.000000000,0.236672000,0.000000000,0.000000000,-0.049376000,0.000000000,0.000000000,1720619993.100511312,,,,,,,,,,,
1720619993.109177,0.030030000,0.000000000,0.000000000,-1.208977000,0.000000000,0.000000000,0.994136000,0.000000000,0.000000000,0.047840000,0.000000000,0.000000000,0.236672000,0.000000000,0.000000000,-0.049376000,0.000000000,0.000000000,1720619993.101511478,,,,,,,,,,,
1720619993.111060,0.030030000,0.000000000,0.000000000,-1.224069000,0.000000000,0.000000000,0.994136000,0.000000000,0.000000000,0.047840000,0.000000000,0.000000000,0.236320000,0.000000000,0.000000000,-0.049312000,0.000000000,0.000000000,1720619993.103511333,,,,,,,,,,,
1720619993.120688,0.030030000,0.000000000,0.000000000,-1.221374000,0.000000000,0.000000000,0.994136000,0.000000000,0.000000000,0.047776000,0.000000000,0.000000000,0.236192000,0.000000000,0.000000000,-0.049376000,0.000000000,0.000000000,1720619993.112511396,,,,,,,,,,,
1720619993.121220,0.030030000,0.000000000,0.000000000,-1.221374000,0.000000000,0.000000000,0.994136000,0.000000000,0.000000000,0.047776000,0.000000000,0.000000000,0.236192000,0.000000000,0.000000000,-0.049376000,0.000000000,0.000000000,1720619993.113511324,,,,,,,,,,,
1720619993.124208,0.030030000,0.000000000,0.000000000,-1.228920000,0.000000000,0.000000000,0.994136000,0.000000000,0.000000000,0.047776000,0.000000000,0.000000000,0.236672000,0.000000000,0.000000000,-0.049376000,0.000000000,0.000000000,1720619993.116511345,,,,,,,,,,,
1720619993.129602,,,,,,,,,,,,,,,,,,,,1720619993.112511396,-1.186824000,3.141592654,0.000000015,0.829037542,-0.000000022,-0.000000054,0.559192949,1.395152983,0.001110973,1.481517837
1720619993.132861,0.030030000,0.000000000,0.000000000,-1.225686000,0.000000000,0.000000000,0.994136000,0.000000000,0.000000000,0.047840000,0.000000000,0.000000000,0.235744000,0.000000000,0.000000000,-0.050816000,0.000038380,0.009134350,1720619993.124511480,,,,,,,,,,,
1720619993.133162,0.030030000,0.000000000,0.000000000,-1.225686000,0.000000000,0.000000000,0.994136000,0.000000000,0.000000000,0.047840000,0.000000000,0.000000000,0.235744000,0.000000000,0.000000000,-0.050816000,0.000038380,0.009134350,1720619993.125511408,,,,,,,,,,,
1720619993.136023,0.030030000,0.000000000,0.000000000,-1.221913000,0.000000000,0.000000000,0.994136000,0.000000000,0.000000000,0.047840000,0.000000000,0.000000000,0.236064000,0.000000000,0.000000000,-0.048032000,0.000000000,0.009134350,1720619993.126511335,,,,,,,,,,,
1720619993.147594,0.030030000,0.000000000,0.000000000,-1.246168000,0.000000000,0.000000000,0.994136000,0.000000000,0.000000000,0.047840000,0.000000000,0.000000000,0.235936000,0.000000000,0.000000000,-0.049760000,0.000000000,0.000000000,1720619993.139511347,,,,,,,,,,,
1720619993.156559,0.030030000,0.000000000,0.000000000,-1.226764000,0.000000000,0.000000000,0.994136000,0.000000000,0.000000000,0.047840000,0.000000000,0.000000000,0.236992000,0.000000000,0.000000000,-0.049760000,0.000000000,0.000000000,1720619993.148511410,,,,,,,,,,,
1720619993.164599,0.030030000,0.000000000,0.000000000,-1.224608000,0.000000000,0.000000000,0.994136000,0.000000000,0.000000000,0.047840000,0.000000000,0.000000000,0.236320000,0.000000000,0.000000000,-0.049440000,0.000000000,0.000000000,1720619993.156511307,,,,,,,,,,,
1720619993.166090,0.030030000,0.000000000,0.000000000,-1.224608000,0.000000000,0.000000000,0.994136000,0.000000000,0.000000000,0.047840000,0.000000000,0.000000000,0.236320000,0.000000000,0.000000000,-0.049440000,0.000000000,0.000000000,1720619993.157511473,,,,,,,,,,,
1720619993.167677,0.030030000,0.000000000,0.000000000,-1.224069000,0.000000000,0.000000000,0.994136000,0.000000000,0.000000000,0.047840000,0.000000000,0.000000000,0.236544000,0.000000000,0.000000000,-0.049504000,0.000000000,0.000000000,1720619993.159511328,,,,,,,,,,,
1720619993.176574,0.030030000,0.000000000,0.000000000,-1.221913000,0.000000000,0.000000000,0.994136000,0.000000000,0.000000000,0.047840000,0.000000000,0.000000000,0.235744000,0.000000000,0.000000000,-0.049632000,0.000038380,0.009134350,1720619993.168511391,,,,,,,,,,,
1720619993.177777,0.030030000,0.000000000,0.000000000,-1.221913000,0.000000000,0.000000000,0.994136000,0.000000000,0.000000000,0.047840000,0.000000000,0.000000000,0.235744000,0.000000000,0.000000000,-0.049632000,0.000038380,0.009134350,1720619993.169511318,,,,,,,,,,,
1720619993.179156,0.030030000,0.000000000,0.000000000,-1.221913000,0.000000000,0.000000000,0.994136000,0.000000000,0.000000000,0.047840000,0.000000000,0.000000000,0.236192000,0.000000000,0.000000000,-0.048832000,0.000000000,0.009134350,1720619993.171511412,,,,,,,,,,,
1720619993.179376,,,,,,,,,,,,,,,,,,,,1720619993.168511391,-1.186823998,3.141490200,0.000015924,0.829037542,0.000010709,0.000094939,0.559192948,1.395152983,0.001108959,1.481517794
1720619993.188634,0.029172000,0.000000000,0.000000000,-1.221913000,0.000000000,0.000000000,0.994136000,0.000000000,0.000000000,0.047840000,0.000000000,0.000000000,0.235936000,0.000000000,0.000000000,-0.049568000,0.000000000,0.000000000,1720619993.180511475,,,,,,,,,,,
1720619993.189307,0.029172000,0.000000000,0.000000000,-1.221913000,0.000000000,0.000000000,0.994136000,0.000000000,0.000000000,0.047840000,0.000000000,0.000000000,0.235936000,0.000000000,0.000000000,-0.049568000,0.000000000,0.000000000,1720619993.181511402,,,,,,,,,,,
1720619993.191194,0.029172000,0.000000000,0.000000000,-1.221913000,0.000000000,0.000000000,0.994136000,0.000000000,0.000000000,0.047840000,0.000000000,0.000000000,0.236448000,0.000000000,0.000000000,-0.048896000,0.000000000,0.000000000,1720619993.183511496,,,,,,,,,,,
1720619993.200654,0.029172000,0.000000000,0.000000000,-1.222991000,0.000000000,0.000000000,0.994136000,0.000000000,0.000000000,0.047840000,0.000000000,0.000000000,0.236320000,0.000000000,0.000000000,-0.049088000,0.000000000,0.000000000,1720619993.192511320,,,,,,,,,,,
1720619993.201243,0.029172000,0.000000000,0.000000000,-1.222991000,0.000000000,0.000000000,0.994136000,0.000000000,0.000000000,0.047840000,0.000000000,0.000000000,0.236320000,0.000000000,0.000000000,-0.049088000,0.000000000,0.000000000,1720619993.193511486,,,,,,,,,,,
1720619993.203223,0.029172000,0.000000000,0.000000000,-1.222991000,0.000000000,0.000000000,0.994136000,0.000000000,0.000000000,0.047776000,0.000000000,0.000000000,0.236192000,0.000000000,0.000000000,-0.048896000,0.000000000,0.000000000,1720619993.195511341,,,,,,,,,,,
1720619993.212919,0.029744000,0.000000000,0.000000000,-1.222991000,0.000000000,0.000000000,0.994136000,0.000000000,0.000000000,0.047424000,0.000000000,0.000000000,0.236192000,0.000000000,0.000000000,-0.048960000,0.000000000,0.000000000,1720619993.204511404,,,,,,,,,,,
1720619993.213238,0.029744000,0.000000000,0.000000000,-1.222991000,0.000000000,0.000000000,0.994136000,0.000000000,0.000000000,0.047424000,0.000000000,0.000000000,0.236192000,0.000000000,0.000000000,-0.048960000,0.000000000,0.000000000,1720619993.205511332,,,,,,,,,,,
1720619993.215811,0.030030000,0.000000000,0.000000000,-1.220296000,0.000000000,0.000000000,0.994136000,0.000000000,0.000000000,0.047840000,0.000000000,0.000000000,0.235680000,0.000000000,0.000000000,-0.050016000,0.000038380,0.009134350,1720619993.207511425,,,,,,,,,,,
1720619993.224731,0.030030000,0.000000000,0.000000000,-1.200892000,0.000000000,0.000000000,0.994136000,0.000000000,0.000000000,0.047840000,0.000000000,0.000000000,0.236128000,0.000000000,0.000000000,-0.049952000,0.000000000,0.000000000,1720619993.216511488,,,,,,,,,,,
1720619993.226136,0.030030000,0.000000000,0.000000000,-1.200892000,0.000000000,0.000000000,0.994136000,0.000000000,0.000000000,0.047840000,0.000000000,0.000000000,0.236128000,0.000000000,0.000000000,-0.049952000,0.000000000,0.000000000,1720619993.217511415,,,,,,,,,,,
1720619993.237963,0.030030000,0.000000000,0.000000000,-1.221913000,0.000000000,0.000000000,0.994136000,0.000000000,0.000000000,0.047840000,0.000000000,0.000000000,0.236544000,0.000000000,0.000000000,-0.048448000,0.000000000,0.009134350,1720619993.227511406,,,,,,,,,,,
1720619993.239473,,,,,,,,,,,,,,,,,,,,1720619993.227511406,-1.186824000,3.141592654,0.000000015,0.829037542,-0.000000022,-0.000000054,0.559192949,1.395152983,0.001110973,1.481517837
1720619993.247797,0.029744000,0.000000000,0.000000000,-1.224608000,0.000000000,0.000000000,0.994136000,0.000000000,0.000000000,0.047840000,0.000000000,0.000000000,0.235744000,0.000000000,0.000000000,-0.049824000,0.000038380,0.009134350,1720619993.239511490,,,,,,,,,,,
1720619993.261677,0.030030000,0.000000000,0.000000000,-1.237005000,0.000000000,0.000000000,0.994136000,0.000000000,0.000000000,0.047840000,0.000000000,0.000000000,0.236192000,0.000000000,0.000000000,-0.048896000,0.000000000,0.000000000,1720619993.249511480,,,,,,,,,,,
1720619993.268223,0.030030000,0.000000000,0.000000000,-1.222991000,0.000000000,0.000000000,0.994136000,0.000000000,0.000000000,0.047776000,0.000000000,0.000000000,0.235264000,0.000000000,0.000000000,-0.049440000,0.000000000,0.000000000,1720619993.259511471,,,,,,,,,,,
1720619993.278055,0.030030000,0.000000000,0.000000000,-1.225686000,0.000000000,0.000000000,0.994136000,0.000000000,0.000000000,0.047776000,0.000000000,0.000000000,0.236192000,0.000000000,0.000000000,-0.049376000,0.000000000,0.000000000,1720619993.269511461,,,,,,,,,,,
1720619993.287209,0.030030000,0.000000000,0.000000000,-1.213289000,0.000000000,0.000000000,0.994136000,0.000000000,0.000000000,0.047712000,0.000000000,0.000000000,0.235808000,0.000000000,0.000000000,-0.049376000,0.000000000,0.000000000,1720619993.278511286,,,,,,,,,,,
1720619993.289514,,,,,,,,,,,,,,,,,,,,1720619993.278511286,-1.186824000,3.141592654,0.000000015,0.829037542,-0.000000022,-0.000000054,0.559192949,1.395152983,0.001110973,1.481517837
1720619993.299815,0.030030000,0.000000000,0.000000000,-1.214906000,0.000000000,0.000000000,0.994136000,0.000000000,0.000000000,0.047776000,0.000000000,0.000000000,0.236128000,0.000000000,0.000000000,-0.049632000,0.000000000,0.000000000,1720619993.291511297,,,,,,,,,,,
1720619993.305873,0.030030000,0.000000000,0.000000000,-1.227303000,0.000000000,0.000000000,0.994136000,0.000000000,0.000000000,0.047776000,0.000000000,0.000000000,0.236128000,0.000000000,0.000000000,-0.049024000,0.000000000,0.000000000,1720619993.297511339,,,,,,,,,,,
1720619993.308800,0.030030000,0.000000000,0.000000000,-1.221913000,0.000000000,0.000000000,0.994136000,0.000000000,0.000000000,0.047776000,0.000000000,0.000000000,0.235808000,0.000000000,0.000000000,-0.049312000,0.000000000,0.000000000,1720619993.300511360,,,,,,,,,,,
1720619993.312670,0.030030000,0.000000000,0.000000000,-1.221913000,0.000000000,0.000000000,0.994136000,0.000000000,0.000000000,0.047840000,0.000000000,0.000000000,0.236320000,0.000000000,0.000000000,-0.049824000,0.000000000,0.000000000,1720619993.304511309,,,,,,,,,,,
1720619993.324953,0.030030000,0.000000000,0.000000000,-1.221913000,0.000000000,0.000000000,0.994136000,0.000000000,0.000000000,0.047776000,0.000000000,0.000000000,0.236672000,0.000000000,0.000000000,-0.048640000,0.000000000,0.000000000,1720619993.316511393,,,,,,,,,,,
1720619993.332074,0.030030000,0.000000000,0.000000000,-1.222991000,0.000000000,0.000000000,0.994136000,0.000000000,0.000000000,0.047776000,0.000000000,0.000000000,0.236064000,0.000000000,0.000000000,-0.049024000,0.000000000,0.009134350,1720619993.323511362,,,,,,,,,,,
1720619993.332758,0.030030000,0.000000000,0.000000000,-1.222991000,0.000000000,0.000000000,0.994136000,0.000000000,0.000000000,0.047776000,0.000000000,0.000000000,0.236064000,0.000000000,0.000000000,-0.049024000,0.000000000,0.009134350,1720619993.324511290,,,,,,,,,,,
1720619993.344880,0.030030000,0.000000000,0.000000000,-1.225686000,0.000000000,0.000000000,0.994136000,0.000000000,0.000000000,0.047776000,0.000000000,0.000000000,0.235936000,0.000000000,0.000000000,-0.049504000,0.000000000,0.000000000,1720619993.332511425,,,,,,,,,,,
1720619993.345905,0.030030000,0.000000000,0.000000000,-1.224069000,0.000000000,0.000000000,0.994136000,0.000000000,0.000000000,0.047776000,0.000000000,0.000000000,0.235520000,0.000000000,0.000000000,-0.049216000,0.000000000,0.000000000,1720619993.337511301,,,,,,,,,,,
1720619993.349383,,,,,,,,,,,,,,,,,,,,1720619993.332511425,-1.186824000,3.141592654,0.000000015,0.829037542,-0.000000022,-0.000000054,0.559192949,1.395152983,0.001110973,1.481517837
1720619993.355959,0.030030000,0.000000000,0.000000000,-1.224069000,0.000000000,0.000000000,0.994136000,0.000000000,0.000000000,0.047840000,0.000000000,0.000000000,0.236064000,0.000000000,0.000000000,-0.049312000,0.000000000,0.000000000,1720619993.339511395,,,,,,,,,,,
1720619993.360913,0.030030000,0.000000000,0.000000000,-1.222991000,0.000000000,0.000000000,0.994136000,0.000000000,0.000000000,0.047776000,0.000000000,0.000000000,0.235328000,0.000000000,0.000000000,-0.049888000,0.000000000,0.000000000,1720619993.352511406,,,,,,,,,,,
1720619993.371322,0.029172000,0.000000000,0.000000000,-1.219218000,0.000000000,0.000000000,0.994136000,0.000000000,0.000000000,0.047776000,0.000000000,0.000000000,0.236192000,0.000000000,0.000000000,-0.049504000,0.000000000,0.000000000,1720619993.359511375,,,,,,,,,,,
1720619993.379364,0.029744000,0.000000000,0.000000000,-1.221374000,0.000000000,0.000000000,0.994136000,0.000000000,0.000000000,0.047776000,0.000000000,0.000000000,0.235328000,0.000000000,0.000000000,-0.049376000,0.000000000,0.000000000,1720619993.370511293,,,,,,,,,,,
1720619993.391958,0.029744000,0.000000000,0.000000000,-1.221913000,0.000000000,0.000000000,0.994136000,0.000000000,0.000000000,0.047776000,0.000000000,0.000000000,0.235584000,0.000000000,0.000000000,-0.049152000,0.000000000,0.000000000,1720619993.383511305,,,,,,,,,,,
1720619993.399341,0.029744000,0.000000000,0.000000000,-1.221913000,0.000000000,0.000000000,0.994136000,0.000000000,0.000000000,0.047776000,0.000000000,0.000000000,0.236128000,0.000000000,0.000000000,-0.049088000,0.000000000,0.000000000,1720619993.390511274,,,,,,,,,,,
1720619993.399379,,,,,,,,,,,,,,,,,,,,1720619993.383511305,-1.186824000,3.141592654,0.000000015,0.829037542,-0.000000022,-0.000000054,0.559192949,1.395152983,0.001110973,1.481517837
1720619993.411976,0.029744000,0.000000000,0.000000000,-1.226764000,0.000000000,0.000000000,0.994136000,0.000000000,0.000000000,0.047776000,0.000000000,0.000000000,0.236320000,0.000000000,0.000000000,-0.049632000,0.000000000,0.000000000,1720619993.403511286,,,,,,,,,,,
1720619993.419226,0.029744000,0.000000000,0.000000000,-1.224608000,0.000000000,0.000000000,0.994136000,0.000000000,0.000000000,0.047776000,0.000000000,0.000000000,0.236128000,0.000000000,0.000000000,-0.049824000,0.000000000,0.000000000,1720619993.410511494,,,,,,,,,,,
1720619993.428706,0.029744000,0.000000000,0.000000000,-1.224069000,0.000000000,0.000000000,0.994136000,0.000000000,0.000000000,0.047712000,0.000000000,0.000000000,0.236128000,0.000000000,0.000000000,-0.049312000,0.000000000,0.000000000,1720619993.420511484,,,,,,,,,,,
1720619993.441946,0.029744000,0.000000000,0.000000000,-1.222991000,0.000000000,0.000000000,0.994136000,0.000000000,0.000000000,0.047712000,0.000000000,0.000000000,0.236128000,0.000000000,0.000000000,-0.050080000,0.000038380,0.009134350,1720619993.433511496,,,,,,,,,,,
1720619993.449207,0.029744000,0.000000000,0.000000000,-1.228381000,0.000000000,0.000000000,0.994136000,0.000000000,0.000000000,0.047776000,0.000000000,0.000000000,0.236320000,0.000000000,0.000000000,-0.049952000,0.000000000,0.000000000,1720619993.440511465,,,,,,,,,,,
1720619993.449277,,,,,,,,,,,,,,,,,,,,1720619993.433511496,-1.186823998,3.141490200,0.000015924,0.829037542,0.000010709,0.000094939,0.559192948,1.395152983,0.001108959,1.481517794
1720619993.449734,0.029744000,0.000000000,0.000000000,-1.228381000,0.000000000,0.000000000,0.994136000,0.000000000,0.000000000,0.047776000,0.000000000,0.000000000,0.236320000,0.000000000,0.000000000,-0.049952000,0.000000000,0.000000000,1720619993.441511393,,,,,,,,,,,
1720619993.456779,0.029744000,0.000000000,0.000000000,-1.219218000,0.000000000,0.000000000,0.994136000,0.000000000,0.000000000,0.047776000,0.000000000,0.000000000,0.236000000,0.000000000,0.000000000,-0.049216000,0.000000000,0.000000000,1720619993.448511362,,,,,,,,,,,
1720619993.463945,0.029744000,0.000000000,0.000000000,-1.219218000,0.000000000,0.000000000,0.994136000,0.000000000,0.000000000,0.047840000,0.000000000,0.000000000,0.235872000,0.000000000,0.000000000,-0.049152000,0.000000000,0.000000000,1720619993.455511332,,,,,,,,,,,
1720619993.465059,0.029744000,0.000000000,0.000000000,-1.219218000,0.000000000,0.000000000,0.994136000,0.000000000,0.000000000,0.047840000,0.000000000,0.000000000,0.235872000,0.000000000,0.000000000,-0.049152000,0.000000000,0.000000000,1720619993.456511497,,,,,,,,,,,
1720619993.468767,0.029744000,0.000000000,0.000000000,-1.222991000,0.000000000,0.000000000,0.994136000,0.000000000,0.000000000,0.047840000,0.000000000,0.000000000,0.236192000,0.000000000,0.000000000,-0.049216000,0.000000000,0.000000000,1720619993.460511446,,,,,,,,,,,
1720619993.476279,0.029744000,0.000000000,0.000000000,-1.222991000,0.000000000,0.000000000,0.994136000,0.000000000,0.000000000,0.048096000,0.000000000,0.000000000,0.236128000,0.000000000,0.000000000,-0.049024000,0.000000000,0.009134350,1720619993.467511415,,,,,,,,,,,
1720619993.477005,0.029744000,0.000000000,0.000000000,-1.222991000,0.000000000,0.000000000,0.994136000,0.000000000,0.000000000,0.048096000,0.000000000,0.000000000,0.236128000,0.000000000,0.000000000,-0.049024000,0.000000000,0.009134350,1720619993.468511343,,,,,,,,,,,
1720619993.481948,0.029744000,0.000000000,0.000000000,-1.227303000,0.000000000,0.000000000,0.994136000,0.000000000,0.000000000,0.047840000,0.000000000,0.000000000,0.236064000,0.000000000,0.000000000,-0.049504000,0.000000000,0.000000000,1720619993.473511457,,,,,,,,,,,
1720619993.489408,0.029744000,0.000000000,0.000000000,-1.224608000,0.000000000,0.000000000,0.994136000,0.000000000,0.000000000,0.047776000,0.000000000,0.000000000,0.236192000,0.000000000,0.000000000,-0.049376000,0.000000000,0.000000000,1720619993.480511427,,,,,,,,,,,
1720619993.490121,0.029744000,0.000000000,0.000000000,-1.224608000,0.000000000,0.000000000,0.994136000,0.000000000,0.000000000,0.047776000,0.000000000,0.000000000,0.236192000,0.000000000,0.000000000,-0.049376000,0.000000000,0.000000000,1720619993.481511354,,,,,,,,,,,
1720619993.495832,0.029744000,0.000000000,0.000000000,-1.224608000,0.000000000,0.000000000,0.994136000,0.000000000,0.000000000,0.047776000,0.000000000,0.000000000,0.236128000,0.000000000,0.000000000,-0.049696000,0.000000000,0.000000000,1720619993.487511396,,,,,,,,,,,
1720619993.499370,,,,,,,,,,,,,,,,,,,,1720619993.487511396,-1.186824000,3.141592654,0.000000015,0.829037542,-0.000000022,-0.000000054,0.559192949,1.395152983,0.001110973,1.481517837
1720619993.503855,0.029744000,0.000000000,0.000000000,-1.224608000,0.000000000,0.000000000,0.994136000,0.000000000,0.000000000,0.047712000,0.000000000,0.000000000,0.236128000,0.000000000,0.000000000,-0.049152000,0.000000000,0.000000000,1720619993.493511438,,,,,,,,,,,
1720619993.512276,0.029744000,0.000000000,0.000000000,-1.247785000,0.000000000,0.000000000,0.994136000,0.000000000,0.000000000,0.047776000,0.000000000,0.000000000,0.235936000,0.000000000,0.000000000,-0.049152000,0.000000000,0.000000000,1720619993.503511429,,,,,,,,,,,
1720619993.516101,0.029744000,0.000000000,0.000000000,-1.247785000,0.000000000,0.000000000,0.994136000,0.000000000,0.000000000,0.047776000,0.000000000,0.000000000,0.235936000,0.000000000,0.000000000,-0.049152000,0.000000000,0.000000000,1720619993.504511356,,,,,,,,,,,
1720619993.524210,0.029744000,0.000000000,0.000000000,-1.217601000,0.000000000,0.000000000,0.994136000,0.000000000,0.000000000,0.047776000,0.000000000,0.000000000,0.236544000,0.000000000,0.000000000,-0.049088000,0.000000000,0.000000000,1720619993.515511274,,,,,,,,,,,
1720619993.525069,0.029744000,0.000000000,0.000000000,-1.217601000,0.000000000,0.000000000,0.994136000,0.000000000,0.000000000,0.047776000,0.000000000,0.000000000,0.236544000,0.000000000,0.000000000,-0.049088000,0.000000000,0.000000000,1720619993.516511440,,,,,,,,,,,
1720619993.527093,0.029744000,0.000000000,0.000000000,-1.217601000,0.000000000,0.000000000,0.994136000,0.000000000,0.000000000,0.047776000,0.000000000,0.000000000,0.236544000,0.000000000,0.000000000,-0.049088000,0.000000000,0.000000000,1720619993.517511368,,,,,,,,,,,
1720619993.536047,0.029744000,0.000000000,0.000000000,-1.215984000,0.000000000,0.000000000,0.994136000,0.000000000,0.000000000,0.047776000,0.000000000,0.000000000,0.235808000,0.000000000,0.000000000,-0.048096000,0.000000000,0.000000000,1720619993.527511358,,,,,,,,,,,
1720619993.536955,0.029744000,0.000000000,0.000000000,-1.215984000,0.000000000,0.000000000,0.994136000,0.000000000,0.000000000,0.047776000,0.000000000,0.000000000,0.235808000,0.000000000,0.000000000,-0.048096000,0.000000000,0.000000000,1720619993.528511286,,,,,,,,,,,
1720619993.538803,0.029744000,0.000000000,0.000000000,-1.218679000,0.000000000,0.000000000,0.994136000,0.000000000,0.000000000,0.047776000,0.000000000,0.000000000,0.235264000,0.000000000,0.000000000,-0.050496000,0.000000000,0.000000000,1720619993.530511379,,,,,,,,,,,
1720619993.548626,0.029744000,0.000000000,0.000000000,-1.222991000,0.000000000,0.000000000,0.994136000,0.000000000,0.000000000,0.047776000,0.000000000,0.000000000,0.236256000,0.000000000,0.000000000,-0.050016000,0.000000000,0.000000000,1720619993.539511442,,,,,,,,,,,
1720619993.549427,,,,,,,,,,,,,,,,,,,,1720619993.539511442,-1.186824000,3.141592654,0.000000015,0.829037542,-0.000000022,-0.000000054,0.559192949,1.395152983,0.001110973,1.481517837
1720619993.549438,0.029744000,0.000000000,0.000000000,-1.222991000,0.000000000,0.000000000,0.994136000,0.000000000,0.000000000,0.047776000,0.000000000,0.000000000,0.236256000,0.000000000,0.000000000,-0.050016000,0.000000000,0.000000000,1720619993.540511370,,,,,,,,,,,
1720619993.550121,0.029744000,0.000000000,0.000000000,-1.222991000,0.000000000,0.000000000,0.994136000,0.000000000,0.000000000,0.047776000,0.000000000,0.000000000,0.236256000,0.000000000,0.000000000,-0.050016000,0.000000000,0.000000000,1720619993.541511297,,,,,,,,,,,
1720619993.551929,0.029744000,0.000000000,0.000000000,-1.224069000,0.000000000,0.000000000,0.994136000,0.000000000,0.000000000,0.047840000,0.000000000,0.000000000,0.235808000,0.000000000,0.000000000,-0.049440000,0.000000000,0.000000000,1720619993.543511391,,,,,,,,,,,
1720619993.553712,0.029744000,0.000000000,0.000000000,-1.224069000,0.000000000,0.000000000,0.994136000,0.000000000,0.000000000,0.047840000,0.000000000,0.000000000,0.235808000,0.000000000,0.000000000,-0.049440000,0.000000000,0.000000000,1720619993.544511318,,,,,,,,,,,
1720619993.564484,0.029744000,0.000000000,0.000000000,-1.225686000,0.000000000,0.000000000,0.994136000,0.000000000,0.000000000,0.047840000,0.000000000,0.000000000,0.236128000,0.000000000,0.000000000,-0.048576000,0.000000000,0.000000000,1720619993.555511475,,,,,,,,,,,
1720619993.565070,0.029744000,0.000000000,0.000000000,-1.225686000,0.000000000,0.000000000,0.994136000,0.000000000,0.000000000,0.047840000,0.000000000,0.000000000,0.236128000,0.000000000,0.000000000,-0.048576000,0.000000000,0.000000000,1720619993.556511402,,,,,,,,,,,
1720619993.567154,0.029744000,0.000000000,0.000000000,-1.192268000,0.000000000,0.000000000,0.994136000,0.000000000,0.000000000,0.047840000,0.000000000,0.000000000,0.236672000,0.000000000,0.000000000,-0.049376000,0.000000000,0.000000000,1720619993.557511330,,,,,,,,,,,
1720619993.576569,0.029744000,0.000000000,0.000000000,-1.194963000,0.000000000,0.000000000,0.994136000,0.000000000,0.000000000,0.047840000,0.000000000,0.000000000,0.236736000,0.000000000,0.000000000,-0.048224000,0.000000000,0.000000000,1720619993.567511320,,,,,,,,,,,
1720619993.577056,0.029744000,0.000000000,0.000000000,-1.194963000,0.000000000,0.000000000,0.994136000,0.000000000,0.000000000,0.047840000,0.000000000,0.000000000,0.236736000,0.000000000,0.000000000,-0.048224000,0.000000000,0.000000000,1720619993.568511486,,,,,,,,,,,
1720619993.579463,0.029744000,0.000000000,0.000000000,-1.211672000,0.000000000,0.000000000,0.994136000,0.000000000,0.000000000,0.047840000,0.000000000,0.000000000,0.236192000,0.000000000,0.000000000,-0.050368000,0.000000000,0.000000000,1720619993.570511341,,,,,,,,,,,
1720619993.588469,0.029744000,0.000000000,0.000000000,-1.214906000,0.000000000,0.000000000,0.994136000,0.000000000,0.000000000,0.047840000,0.000000000,0.000000000,0.236128000,0.000000000,0.000000000,-0.050560000,0.000038380,0.009134350,1720619993.579511404,,,,,,,,,,,
1720619993.589487,0.029744000,0.000000000,0.000000000,-1.214906000,0.000000000,0.000000000,0.994136000,0.000000000,0.000000000,0.047840000,0.000000000,0.000000000,0.236128000,0.000000000,0.000000000,-0.050560000,0.000038380,0.009134350,1720619993.580511332,,,,,,,,,,,
1720619993.591134,0.029744000,0.000000000,0.000000000,-1.224608000,0.000000000,0.000000000,0.994136000,0.000000000,0.000000000,0.047840000,0.000000000,0.000000000,0.236128000,0.000000000,0.000000000,-0.048704000,0.000000000,0.009134350,1720619993.581511497,,,,,,,,,,,
1720619993.600455,0.029744000,0.000000000,0.000000000,-1.224069000,0.000000000,0.000000000,0.994136000,0.000000000,0.000000000,0.047840000,0.000000000,0.000000000,0.236320000,0.000000000,0.000000000,-0.049824000,0.000000000,0.000000000,1720619993.591511488,,,,,,,,,,,
1720619993.601326,0.029744000,0.000000000,0.000000000,-1.224069000,0.000000000,0.000000000,0.994136000,0.000000000,0.000000000,0.047840000,0.000000000,0.000000000,0.236320000,0.000000000,0.000000000,-0.049824000,0.000000000,0.000000000,1720619993.592511415,,,,,,,,,,,
1720619993.603482,0.029744000,0.000000000,0.000000000,-1.224069000,0.000000000,0.000000000,0.994136000,0.000000000,0.000000000,0.047840000,0.000000000,0.000000000,0.236320000,0.000000000,0.000000000,-0.049824000,0.000000000,0.000000000,1720619993.593511343,,,,,,,,,,,
1720619993.609713,,,,,,,,,,,,,,,,,,,,1720619993.591511488,-1.186824000,3.141592654,0.000000015,0.829037542,-0.000000022,-0.000000054,0.559192949,1.395152983,0.001110973,1.481517837
1720619993.612470,0.029744000,0.000000000,0.000000000,-1.222991000,0.000000000,0.000000000,0.994136000,0.000000000,0.000000000,0.047840000,0.000000000,0.000000000,0.236384000,0.000000000,0.000000000,-0.048096000,0.000000000,0.009134350,1720619993.603511333,,,,,,,,,,,
1720619993.613357,0.029744000,0.000000000,0.000000000,-1.222991000,0.000000000,0.000000000,0.994136000,0.000000000,0.000000000,0.047840000,0.000000000,0.000000000,0.236384000,0.000000000,0.000000000,-0.048096000,0.000000000,0.009134350,1720619993.604511499,,,,,,,,,,,
1720619993.616445,0.029744000,0.000000000,0.000000000,-1.222991000,0.000000000,0.000000000,0.994136000,0.000000000,0.000000000,0.047840000,0.000000000,0.000000000,0.235744000,0.000000000,0.000000000,-0.050176000,0.000000000,0.000000000,1720619993.607511282,,,,,,,,,,,
1720619993.617224,0.029744000,0.000000000,0.000000000,-1.222991000,0.000000000,0.000000000,0.994136000,0.000000000,0.000000000,0.047840000,0.000000000,0.000000000,0.235744000,0.000000000,0.000000000,-0.050176000,0.000000000,0.000000000,1720619993.608511448,,,,,,,,,,,
1720619993.623181,0.029744000,0.000000000,0.000000000,-1.222991000,0.000000000,0.000000000,0.994136000,0.000000000,0.000000000,0.047840000,0.000000000,0.000000000,0.235936000,0.000000000,0.000000000,-0.048512000,0.000000000,0.000000000,1720619993.613511324,,,,,,,,,,,
1720619993.629602,0.029744000,0.000000000,0.000000000,-1.224069000,0.000000000,0.000000000,0.994136000,0.000000000,0.000000000,0.047840000,0.000000000,0.000000000,0.236192000,0.000000000,0.000000000,-0.047776000,0.000000000,0.009134350,1720619993.620511293,,,,,,,,,,,
1720619993.636002,0.029744000,0.000000000,0.000000000,-1.224069000,0.000000000,0.000000000,0.994136000,0.000000000,0.000000000,0.047840000,0.000000000,0.000000000,0.236064000,0.000000000,0.000000000,-0.050304000,0.000000000,0.000000000,1720619993.622511387,,,,,,,,,,,
1720619993.640545,0.029744000,0.000000000,0.000000000,-1.224069000,0.000000000,0.000000000,0.994136000,0.000000000,0.000000000,0.047840000,0.000000000,0.000000000,0.236128000,0.000000000,0.000000000,-0.048960000,0.000000000,0.000000000,1720619993.631511450,,,,,,,,,,,
1720619993.641249,0.029744000,0.000000000,0.000000000,-1.224069000,0.000000000,0.000000000,0.994136000,0.000000000,0.000000000,0.047840000,0.000000000,0.000000000,0.236128000,0.000000000,0.000000000,-0.048960000,0.000000000,0.000000000,1720619993.632511377,,,,,,,,,,,
1720619993.644166,0.029744000,0.000000000,0.000000000,-1.224069000,0.000000000,0.000000000,0.994136000,0.000000000,0.000000000,0.047840000,0.000000000,0.000000000,0.236128000,0.000000000,0.000000000,-0.049216000,0.000000000,0.000000000,1720619993.633511305,,,,,,,,,,,
1720619993.652505,0.029744000,0.000000000,0.000000000,-1.224069000,0.000000000,0.000000000,0.994136000,0.000000000,0.000000000,0.047776000,0.000000000,0.000000000,0.236256000,0.000000000,0.000000000,-0.049024000,0.000000000,0.000000000,1720619993.643511295,,,,,,,,,,,
1720619993.653228,0.029744000,0.000000000,0.000000000,-1.224069000,0.000000000,0.000000000,0.994136000,0.000000000,0.000000000,0.047776000,0.000000000,0.000000000,0.236256000,0.000000000,0.000000000,-0.049024000,0.000000000,0.000000000,1720619993.644511461,,,,,,,,,,,
1720619993.656058,0.029172000,0.000000000,0.000000000,-1.224069000,0.000000000,0.000000000,0.994136000,0.000000000,0.000000000,0.047776000,0.000000000,0.000000000,0.235872000,0.000000000,0.000000000,-0.049376000,0.000000000,0.000000000,1720619993.645511389,,,,,,,,,,,
1720619993.659443,,,,,,,,,,,,,,,,,,,,1720619993.643511295,-1.186824000,3.141592654,0.000000015,0.829037542,-0.000000022,-0.000000054,0.559192949,1.395152983,0.001110973,1.481517837
1720619993.664484,0.029744000,0.000000000,0.000000000,-1.224069000,0.000000000,0.000000000,0.994136000,0.000000000,0.000000000,0.047776000,0.000000000,0.000000000,0.236448000,0.000000000,0.000000000,-0.049568000,0.000000000,0.000000000,1720619993.655511379,,,,,,,,,,,
1720619993.666074,0.029744000,0.000000000,0.000000000,-1.224069000,0.000000000,0.000000000,0.994136000,0.000000000,0.000000000,0.047776000,0.000000000,0.000000000,0.236448000,0.000000000,0.000000000,-0.049568000,0.000000000,0.000000000,1720619993.656511307,,,,,,,,,,,
1720619993.667201,0.029744000,0.000000000,0.000000000,-1.222991000,0.000000000,0.000000000,0.994136000,0.000000000,0.000000000,0.048096000,0.000000000,0.000000000,0.235936000,0.000000000,0.000000000,-0.049216000,0.000000000,0.000000000,1720619993.658511400,,,,,,,,,,,
1720619993.676744,0.030030000,0.000000000,0.000000000,-1.222991000,0.000000000,0.000000000,0.994136000,0.000000000,0.000000000,0.047776000,0.000000000,0.000000000,0.236544000,0.000000000,0.000000000,-0.049376000,0.000000000,0.000000000,1720619993.667511463,,,,,,,,,,,
1720619993.677398,0.030030000,0.000000000,0.000000000,-1.222991000,0.000000000,0.000000000,0.994136000,0.000000000,0.000000000,0.047776000,0.000000000,0.000000000,0.236544000,0.000000000,0.000000000,-0.049376000,0.000000000,0.000000000,1720619993.668511391,,,,,,,,,,,
1720619993.679635,0.030030000,0.000000000,0.000000000,-1.222991000,0.000000000,0.000000000,0.994136000,0.000000000,0.000000000,0.047776000,0.000000000,0.000000000,0.235744000,0.000000000,0.000000000,-0.049024000,0.000000000,0.000000000,1720619993.670511484,,,,,,,,,,,
1720619993.688611,0.029744000,0.000000000,0.000000000,-1.222991000,0.000000000,0.000000000,0.994136000,0.000000000,0.000000000,0.048096000,0.000000000,0.000000000,0.236384000,0.000000000,0.000000000,-0.048512000,0.000000000,0.000000000,1720619993.679511309,,,,,,,,,,,
1720619993.689712,0.029744000,0.000000000,0.000000000,-1.222991000,0.000000000,0.000000000,0.994136000,0.000000000,0.000000000,0.048096000,0.000000000,0.000000000,0.236384000,0.000000000,0.000000000,-0.048512000,0.000000000,0.000000000,1720619993.680511475,,,,,,,,,,,
1720619993.691324,0.029744000,0.000000000,0.000000000,-1.222991000,0.000000000,0.000000000,0.994136000,0.000000000,0.000000000,0.047776000,0.000000000,0.000000000,0.235872000,0.000000000,0.000000000,-0.050304000,0.000038380,0.009134350,1720619993.682511330,,,,,,,,,,,
1720619993.700766,0.029744000,0.000000000,0.000000000,-1.222991000,0.000000000,0.000000000,0.994136000,0.000000000,0.000000000,0.047776000,0.000000000,0.000000000,0.236064000,0.000000000,0.000000000,-0.049824000,0.000038380,0.009134350,1720619993.691511393,,,,,,,,,,,
1720619993.701468,0.029744000,0.000000000,0.000000000,-1.222991000,0.000000000,0.000000000,0.994136000,0.000000000,0.000000000,0.047776000,0.000000000,0.000000000,0.236064000,0.000000000,0.000000000,-0.049824000,0.000038380,0.009134350,1720619993.692511320,,,,,,,,,,,
1720619993.704253,0.029744000,0.000000000,0.000000000,-1.222991000,0.000000000,0.000000000,0.994136000,0.000000000,0.000000000,0.047776000,0.000000000,0.000000000,0.235808000,0.000000000,0.000000000,-0.048448000,0.000000000,0.009134350,1720619993.695511341,,,,,,,,,,,
1720619993.709595,,,,,,,,,,,,,,,,,,,,1720619993.695511341,-1.186824000,3.141592654,0.000000015,0.829037542,-0.000000022,-0.000000054,0.559192949,1.395152983,0.001110973,1.481517837
1720619993.712703,0.030030000,0.000000000,0.000000000,-1.222991000,0.000000000,0.000000000,0.994136000,0.000000000,0.000000000,0.047712000,0.000000000,0.000000000,0.235808000,0.000000000,0.000000000,-0.048832000,0.000000000,0.000000000,1720619993.703511477,,,,,,,,,,,
1720619993.713639,0.030030000,0.000000000,0.000000000,-1.222991000,0.000000000,0.000000000,0.994136000,0.000000000,0.000000000,0.047712000,0.000000000,0.000000000,0.235808000,0.000000000,0.000000000,-0.048832000,0.000000000,0.000000000,1720619993.704511404,,,,,,,,,,,
1720619993.716450,0.030030000,0.000000000,0.000000000,-1.222991000,0.000000000,0.000000000,0.994136000,0.000000000,0.000000000,0.047712000,0.000000000,0.000000000,0.236256000,0.000000000,0.000000000,-0.049504000,0.000000000,0.000000000,1720619993.707511425,,,,,,,,,,,
1720619993.724855,0.029744000,0.000000000,0.000000000,-1.222991000,0.000000000,0.000000000,0.994136000,0.000000000,0.000000000,0.047776000,0.000000000,0.000000000,0.235328000,0.000000000,0.000000000,-0.050016000,0.000038380,0.009134350,1720619993.715511322,,,,,,,,,,,
1720619993.725653,0.029744000,0.000000000,0.000000000,-1.222991000,0.000000000,0.000000000,0.994136000,0.000000000,0.000000000,0.047776000,0.000000000,0.000000000,0.235328000,0.000000000,0.000000000,-0.050016000,0.000038380,0.009134350,1720619993.716511488,,,,,,,,,,,
1720619993.727511,0.029744000,0.000000000,0.000000000,-1.222991000,0.000000000,0.000000000,0.994136000,0.000000000,0.000000000,0.047776000,0.000000000,0.000000000,0.236320000,0.000000000,0.000000000,-0.048768000,0.000000000,0.009134350,1720619993.718511343,,,,,,,,,,,
1720619993.729838,0.029744000,0.000000000,0.000000000,-1.222991000,0.000000000,0.000000000,0.994136000,0.000000000,0.000000000,0.047776000,0.000000000,0.000000000,0.236320000,0.000000000,0.000000000,-0.048768000,0.000000000,0.009134350,1720619993.720511436,,,,,,,,,,,
1720619993.737333,0.030030000,0.000000000,0.000000000,-1.222991000,0.000000000,0.000000000,0.994136000,0.000000000,0.000000000,0.047776000,0.000000000,0.000000000,0.236320000,0.000000000,0.000000000,-0.050016000,0.000038380,0.009134350,1720619993.724511385,,,,,,,,,,,
1720619993.740515,0.030030000,0.000000000,0.000000000,-1.213289000,0.000000000,0.000000000,0.994136000,0.000000000,0.000000000,0.047712000,0.000000000,0.000000000,0.236064000,0.000000000,0.000000000,-0.050176000,0.000038380,0.009134350,1720619993.731511354,,,,,,,,,,,
1720619993.741512,0.030030000,0.000000000,0.000000000,-1.213289000,0.000000000,0.000000000,0.994136000,0.000000000,0.000000000,0.047712000,0.000000000,0.000000000,0.236064000,0.000000000,0.000000000,-0.050176000,0.000038380,0.009134350,1720619993.732511282,,,,,,,,,,,
1720619993.745464,0.030030000,0.000000000,0.000000000,-1.221913000,0.000000000,0.000000000,0.994136000,0.000000000,0.000000000,0.047712000,0.000000000,0.000000000,0.236320000,0.000000000,0.000000000,-0.048032000,0.000000000,0.009134350,1720619993.736511469,,,,,,,,,,,
1720619993.752500,0.029744000,0.000000000,0.000000000,-1.221913000,0.000000000,0.000000000,0.994136000,0.000000000,0.000000000,0.047712000,0.000000000,0.000000000,0.236544000,0.000000000,0.000000000,-0.048576000,0.000000000,0.000000000,1720619993.743511438,,,,,,,,,,,
1720619993.755213,0.029744000,0.000000000,0.000000000,-1.221913000,0.000000000,0.000000000,0.994136000,0.000000000,0.000000000,0.047712000,0.000000000,0.000000000,0.236128000,0.000000000,0.000000000,-0.050496000,0.000038380,0.009134350,1720619993.745511293,,,,,,,,,,,
1720619993.759499,,,,,,,,,,,,,,,,,,,,1720619993.745511293,-1.186823998,3.141490200,0.000015924,0.829037542,0.000010709,0.000094939,0.559192948,1.395152983,0.001108959,1.481517794
1720619993.764707,0.030030000,0.000000000,0.000000000,-1.221913000,0.000000000,0.000000000,0.994136000,0.000000000,0.000000000,0.047776000,0.000000000,0.000000000,0.236064000,0.000000000,0.000000000,-0.050368000,0.000038380,0.009134350,1720619993.755511284,,,,,,,,,,,
1720619993.765570,0.030030000,0.000000000,0.000000000,-1.221913000,0.000000000,0.000000000,0.994136000,0.000000000,0.000000000,0.047776000,0.000000000,0.000000000,0.236064000,0.000000000,0.000000000,-0.050368000,0.000038380,0.009134350,1720619993.756511450,,,,,,,,,,,
1720619993.767059,0.030030000,0.000000000,0.000000000,-1.221913000,0.000000000,0.000000000,0.994136000,0.000000000,0.000000000,0.047776000,0.000000000,0.000000000,0.236448000,0.000000000,0.000000000,-0.048448000,0.000000000,0.009134350,1720619993.757511377,,,,,,,,,,,
1720619993.768225,0.030030000,0.000000000,0.000000000,-1.221913000,0.000000000,0.000000000,0.994136000,0.000000000,0.000000000,0.047776000,0.000000000,0.000000000,0.236448000,0.000000000,0.000000000,-0.048448000,0.000000000,0.009134350,1720619993.759511471,,,,,,,,,,,
1720619993.779152,0.029744000,0.000000000,0.000000000,-1.221913000,0.000000000,0.000000000,0.994136000,0.000000000,0.000000000,0.047776000,0.000000000,0.000000000,0.235680000,0.000000000,0.000000000,-0.049632000,0.000000000,0.000000000,1720619993.769511461,,,,,,,,,,,
1720619993.788395,0.029744000,0.000000000,0.000000000,-1.231615000,0.000000000,0.000000000,0.994136000,0.000000000,0.000000000,0.047776000,0.000000000,0.000000000,0.236192000,0.000000000,0.000000000,-0.049696000,0.000000000,0.000000000,1720619993.779511452,,,,,,,,,,,
1720619993.799285,0.030030000,0.000000000,0.000000000,-1.225686000,0.000000000,0.000000000,0.994136000,0.000000000,0.000000000,0.047712000,0.000000000,0.000000000,0.236192000,0.000000000,0.000000000,-0.047968000,0.000000000,0.009134350,1720619993.789511442,,,,,,,,,,,
1720619993.811705,0.030030000,0.000000000,0.000000000,-1.227303000,0.000000000,0.000000000,0.994136000,0.000000000,0.000000000,0.047776000,0.000000000,0.000000000,0.236064000,0.000000000,0.000000000,-0.049312000,0.000000000,0.000000000,1720619993.802511454,,,,,,,,,,,
1720619993.819398,,,,,,,,,,,,,,,,,,,,1720619993.802511454,-1.186824000,3.141592654,0.000000015,0.829037542,-0.000000022,-0.000000054,0.559192949,1.395152983,0.001110973,1.481517837
1720619993.824684,0.030030000,0.000000000,0.000000000,-1.222991000,0.000000000,0.000000000,0.994136000,0.000000000,0.000000000,0.047712000,0.000000000,0.000000000,0.236128000,0.000000000,0.000000000,-0.048960000,0.000000000,0.000000000,1720619993.809511423,,,,,,,,,,,
1720619993.832664,0.030030000,0.000000000,0.000000000,-1.215984000,0.000000000,0.000000000,0.994136000,0.000000000,0.000000000,0.047712000,0.000000000,0.000000000,0.235808000,0.000000000,0.000000000,-0.049696000,0.000000000,0.000000000,1720619993.823511362,,,,,,,,,,,
1720619993.840108,0.030030000,0.000000000,0.000000000,-1.218679000,0.000000000,0.000000000,0.994136000,0.000000000,0.000000000,0.047776000,0.000000000,0.000000000,0.236448000,0.000000000,0.000000000,-0.049504000,0.000000000,0.000000000,1720619993.830511332,,,,,,,,,,,
1720619993.840640,0.030030000,0.000000000,0.000000000,-1.218679000,0.000000000,0.000000000,0.994136000,0.000000000,0.000000000,0.047776000,0.000000000,0.000000000,0.236448000,0.000000000,0.000000000,-0.049504000,0.000000000,0.000000000,1720619993.831511497,,,,,,,,,,,
1720619993.844547,0.030030000,0.000000000,0.000000000,-1.221374000,0.000000000,0.000000000,0.994136000,0.000000000,0.000000000,0.047776000,0.000000000,0.000000000,0.236192000,0.000000000,0.000000000,-0.049760000,0.000000000,0.000000000,1720619993.835511446,,,,,,,,,,,
1720619993.851984,0.030030000,0.000000000,0.000000000,-1.221374000,0.000000000,0.000000000,0.994136000,0.000000000,0.000000000,0.047776000,0.000000000,0.000000000,0.236608000,0.000000000,0.000000000,-0.049376000,0.000000000,0.000000000,1720619993.842511415,,,,,,,,,,,
1720619993.852574,0.030030000,0.000000000,0.000000000,-1.221374000,0.000000000,0.000000000,0.994136000,0.000000000,0.000000000,0.047776000,0.000000000,0.000000000,0.236608000,0.000000000,0.000000000,-0.049376000,0.000000000,0.000000000,1720619993.843511343,,,,,,,,,,,
1720619993.856605,0.030030000,0.000000000,0.000000000,-1.221374000,0.000000000,0.000000000,0.994136000,0.000000000,0.000000000,0.047776000,0.000000000,0.000000000,0.235680000,0.000000000,0.000000000,-0.048960000,0.000000000,0.000000000,1720619993.847511292,,,,,,,,,,,
1720619993.863889,0.030030000,0.000000000,0.000000000,-1.221374000,0.000000000,0.000000000,0.994136000,0.000000000,0.000000000,0.047776000,0.000000000,0.000000000,0.236384000,0.000000000,0.000000000,-0.048960000,0.000000000,0.000000000,1720619993.854511499,,,,,,,,,,,
1720619993.864856,0.030030000,0.000000000,0.000000000,-1.221374000,0.000000000,0.000000000,0.994136000,0.000000000,0.000000000,0.047776000,0.000000000,0.000000000,0.236384000,0.000000000,0.000000000,-0.048960000,0.000000000,0.000000000,1720619993.855511427,,,,,,,,,,,
1720619993.868618,0.030030000,0.000000000,0.000000000,-1.214906000,0.000000000,0.000000000,0.994136000,0.000000000,0.000000000,0.047776000,0.000000000,0.000000000,0.235744000,0.000000000,0.000000000,-0.049632000,0.000000000,0.000000000,1720619993.859511375,,,,,,,,,,,
1720619993.869346,,,,,,,,,,,,,,,,,,,,1720619993.854511499,-1.186824000,3.141592654,0.000000015,0.829037542,-0.000000022,-0.000000054,0.559192949,1.395152983,0.001110973,1.481517837
1720619993.875971,0.030030000,0.000000000,0.000000000,-1.208977000,0.000000000,0.000000000,0.994136000,0.000000000,0.000000000,0.047840000,0.000000000,0.000000000,0.236608000,0.000000000,0.000000000,-0.049632000,0.000000000,0.000000000,1720619993.866511345,,,,,,,,,,,
1720619993.876915,0.030030000,0.000000000,0.000000000,-1.208977000,0.000000000,0.000000000,0.994136000,0.000000000,0.000000000,0.047840000,0.000000000,0.000000000,0.236608000,0.000000000,0.000000000,-0.049632000,0.000000000,0.000000000,1720619993.867511272,,,,,,,,,,,
1720619993.881839,0.030030000,0.000000000,0.000000000,-1.231615000,0.000000000,0.000000000,0.994136000,0.000000000,0.000000000,0.048096000,0.000000000,0.000000000,0.236064000,0.000000000,0.000000000,-0.048832000,0.000000000,0.000000000,1720619993.872511387,,,,,,,,,,,
1720619993.889133,0.030030000,0.000000000,0.000000000,-1.227303000,0.000000000,0.000000000,0.994136000,0.000000000,0.000000000,0.047776000,0.000000000,0.000000000,0.235808000,0.000000000,0.000000000,-0.049376000,0.000000000,0.000000000,1720619993.879511356,,,,,,,,,,,
1720619993.891332,0.030030000,0.000000000,0.000000000,-1.227303000,0.000000000,0.000000000,0.994136000,0.000000000,0.000000000,0.047776000,0.000000000,0.000000000,0.236000000,0.000000000,0.000000000,-0.048896000,0.000000000,0.000000000,1720619993.881511450,,,,,,,,,,,
1720619993.900685,0.030030000,0.000000000,0.000000000,-1.225686000,0.000000000,0.000000000,0.994136000,0.000000000,0.000000000,0.047840000,0.000000000,0.000000000,0.236384000,0.000000000,0.000000000,-0.049216000,0.000000000,0.000000000,1720619993.890511274,,,,,,,,,,,
1720619993.900765,0.030030000,0.000000000,0.000000000,-1.225686000,0.000000000,0.000000000,0.994136000,0.000000000,0.000000000,0.047840000,0.000000000,0.000000000,0.236384000,0.000000000,0.000000000,-0.049216000,0.000000000,0.000000000,1720619993.891511440,,,,,,,,,,,
1720619993.902071,0.030030000,0.000000000,0.000000000,-1.225686000,0.000000000,0.000000000,0.994136000,0.000000000,0.000000000,0.047840000,0.000000000,0.000000000,0.236384000,0.000000000,0.000000000,-0.049216000,0.000000000,0.000000000,1720619993.892511368,,,,,,,,,,,
1720619993.903850,0.030030000,0.000000000,0.000000000,-1.224069000,0.000000000,0.000000000,0.994136000,0.000000000,0.000000000,0.047840000,0.000000000,0.000000000,0.235200000,0.000000000,0.000000000,-0.049376000,0.000000000,0.000000000,1720619993.894511461,,,,,,,,,,,
1720619993.912600,0.030030000,0.000000000,0.000000000,-1.222991000,0.000000000,0.000000000,0.994136000,0.000000000,0.000000000,0.047776000,0.000000000,0.000000000,0.235936000,0.000000000,0.000000000,-0.049760000,0.000000000,0.000000000,1720619993.898511410,,,,,,,,,,,
1720619993.915926,0.030030000,0.000000000,0.000000000,-1.221913000,0.000000000,0.000000000,0.994136000,0.000000000,0.000000000,0.047840000,0.000000000,0.000000000,0.235744000,0.000000000,0.000000000,-0.050080000,0.000000000,0.000000000,1720619993.906511307,,,,,,,,,,,
1720619993.919592,,,,,,,,,,,,,,,,,,,,1720619993.906511307,-1.186824000,3.141592654,0.000000015,0.829037542,-0.000000022,-0.000000054,0.559192949,1.395152983,0.001110973,1.481517837
1720619993.920952,0.030030000,0.000000000,0.000000000,-1.221913000,0.000000000,0.000000000,0.994136000,0.000000000,0.000000000,0.047840000,0.000000000,0.000000000,0.235584000,0.000000000,0.000000000,-0.048640000,0.000000000,0.000000000,1720619993.911511421,,,,,,,,,,,
1720619993.927922,0.030030000,0.000000000,0.000000000,-1.221913000,0.000000000,0.000000000,0.994136000,0.000000000,0.000000000,0.047840000,0.000000000,0.000000000,0.236544000,0.000000000,0.000000000,-0.048384000,0.000000000,0.000000000,1720619993.918511391,,,,,,,,,,,
1720619993.931898,0.030030000,0.000000000,0.000000000,-1.224608000,0.000000000,0.000000000,0.994136000,0.000000000,0.000000000,0.047840000,0.000000000,0.000000000,0.236544000,0.000000000,0.000000000,-0.050432000,0.000038380,0.009134350,1720619993.922511339,,,,,,,,,,,
1720619993.940569,0.030030000,0.000000000,0.000000000,-1.224069000,0.000000000,0.000000000,0.994136000,0.000000000,0.000000000,0.047840000,0.000000000,0.000000000,0.236448000,0.000000000,0.000000000,-0.051360000,0.000038380,0.009134350,1720619993.930511475,,,,,,,,,,,
1720619993.944697,0.030030000,0.000000000,0.000000000,-1.224069000,0.000000000,0.000000000,0.994136000,0.000000000,0.000000000,0.047840000,0.000000000,0.000000000,0.236128000,0.000000000,0.000000000,-0.047840000,0.000000000,0.009134350,1720619993.935511351,,,,,,,,,,,
1720619993.952214,0.030030000,0.000000000,0.000000000,-1.224069000,0.000000000,0.000000000,0.994136000,0.000000000,0.000000000,0.047840000,0.000000000,0.000000000,0.236128000,0.000000000,0.000000000,-0.048224000,0.000000000,0.009134350,1720619993.942511320,,,,,,,,,,,
1720619993.953894,0.030030000,0.000000000,0.000000000,-1.224069000,0.000000000,0.000000000,0.994136000,0.000000000,0.000000000,0.047840000,0.000000000,0.000000000,0.236128000,0.000000000,0.000000000,-0.048224000,0.000000000,0.009134350,1720619993.944511414,,,,,,,,,,,
1720619993.957858,0.030030000,0.000000000,0.000000000,-1.225686000,0.000000000,0.000000000,0.994136000,0.000000000,0.000000000,0.047840000,0.000000000,0.000000000,0.236128000,0.000000000,0.000000000,-0.050016000,0.000038380,0.009134350,1720619993.948511362,,,,,,,,,,,
1720619993.966107,0.030030000,0.000000000,0.000000000,-1.256409000,0.000000000,0.000000000,0.994136000,0.000000000,0.000000000,0.047840000,0.000000000,0.000000000,0.235680000,0.000000000,0.000000000,-0.049952000,0.000000000,0.000000000,1720619993.956511497,,,,,,,,,,,
1720619993.969419,,,,,,,,,,,,,,,,,,,,1720619993.956511497,-1.186824000,3.141592654,0.000000015,0.829037542,-0.000000022,-0.000000054,0.559192949,1.395152983,0.001110973,1.481517837
1720619993.977005,0.030030000,0.000000000,0.000000000,-1.249402000,0.000000000,0.000000000,0.994136000,0.000000000,0.000000000,0.047840000,0.000000000,0.000000000,0.236800000,0.000000000,0.000000000,-0.049504000,0.000000000,0.000000000,1720619993.962511301,,,,,,,,,,,
1720619993.977909,0.030030000,0.000000000,0.000000000,-1.234310000,0.000000000,0.000000000,0.994136000,0.000000000,0.000000000,0.047840000,0.000000000,0.000000000,0.236448000,0.000000000,0.000000000,-0.049088000,0.000000000,0.000000000,1720619993.968511343,,,,,,,,,,,
1720619993.980440,0.030030000,0.000000000,0.000000000,-1.212211000,0.000000000,0.000000000,0.994136000,0.000000000,0.000000000,0.047840000,0.000000000,0.000000000,0.236192000,0.000000000,0.000000000,-0.049504000,0.000000000,0.000000000,1720619993.970511436,,,,,,,,,,,
1720619993.984811,0.030030000,0.000000000,0.000000000,-1.220296000,0.000000000,0.000000000,0.994136000,0.000000000,0.000000000,0.047840000,0.000000000,0.000000000,0.236192000,0.000000000,0.000000000,-0.049504000,0.000000000,0.000000000,1720619993.975511312,,,,,,,,,,,
1720619993.992339,0.030030000,0.000000000,0.000000000,-1.220296000,0.000000000,0.000000000,0.994136000,0.000000000,0.000000000,0.047840000,0.000000000,0.000000000,0.236128000,0.000000000,0.000000000,-0.049632000,0.000000000,0.000000000,1720619993.982511282,,,,,,,,,,,
1720619993.992871,0.030030000,0.000000000,0.000000000,-1.220296000,0.000000000,0.000000000,0.994136000,0.000000000,0.000000000,0.047840000,0.000000000,0.000000000,0.236128000,0.000000000,0.000000000,-0.049632000,0.000000000,0.000000000,1720619993.983511448,,,,,,,,,,,
1720619993.996745,0.030030000,0.000000000,0.000000000,-1.220296000,0.000000000,0.000000000,0.994136000,0.000000000,0.000000000,0.047840000,0.000000000,0.000000000,0.236192000,0.000000000,0.000000000,-0.048832000,0.000000000,0.000000000,1720619993.987511396,,,,,,,,,,,
1720619994.004030,0.030030000,0.000000000,0.000000000,-1.233771000,0.000000000,0.000000000,0.994136000,0.000000000,0.000000000,0.047776000,0.000000000,0.000000000,0.236128000,0.000000000,0.000000000,-0.049024000,0.000000000,0.000000000,1720619993.994511366,,,,,,,,,,,
1720619994.005025,0.030030000,0.000000000,0.000000000,-1.233771000,0.000000000,0.000000000,0.994136000,0.000000000,0.000000000,0.047776000,0.000000000,0.000000000,0.236128000,0.000000000,0.000000000,-0.049024000,0.000000000,0.000000000,1720619993.995511293,,,,,,,,,,,
1720619994.008775,0.030030000,0.000000000,0.000000000,-1.226764000,0.000000000,0.000000000,0.994136000,0.000000000,0.000000000,0.047776000,0.000000000,0.000000000,0.235520000,0.000000000,0.000000000,-0.049696000,0.000000000,0.000000000,1720619993.999511480,,,,,,,,,,,
1720619994.016020,0.030030000,0.000000000,0.000000000,-1.226764000,0.000000000,0.000000000,0.994136000,0.000000000,0.000000000,0.047840000,0.000000000,0.000000000,0.236000000,0.000000000,0.000000000,-0.049696000,0.000000000,0.000000000,1720619994.006511450,,,,,,,,,,,
1720619994.016736,0.030030000,0.000000000,0.000000000,-1.226764000,0.000000000,0.000000000,0.994136000,0.000000000,0.000000000,0.047840000,0.000000000,0.000000000,0.236000000,0.000000000,0.000000000,-0.049696000,0.000000000,0.000000000,1720619994.007511377,,,,,,,,,,,
1720619994.019411,,,,,,,,,,,,,,,,,,,,1720619994.006511450,-1.186824000,3.141592654,0.000000015,0.829037542,-0.000000022,-0.000000054,0.559192949,1.395152983,0.001110973,1.481517837
1720619994.021469,0.030030000,0.000000000,0.000000000,-1.226764000,0.000000000,0.000000000,0.994136000,0.000000000,0.000000000,0.047776000,0.000000000,0.000000000,0.236192000,0.000000000,0.000000000,-0.049152000,0.000000000,0.000000000,1720619994.011511326,,,,,,,,,,,
1720619994.028147,0.030030000,0.000000000,0.000000000,-1.226764000,0.000000000,0.000000000,0.994136000,0.000000000,0.000000000,0.047776000,0.000000000,0.000000000,0.235808000,0.000000000,0.000000000,-0.049152000,0.000000000,0.000000000,1720619994.018511295,,,,,,,,,,,
1720619994.029005,0.030030000,0.000000000,0.000000000,-1.226764000,0.000000000,0.000000000,0.994136000,0.000000000,0.000000000,0.047776000,0.000000000,0.000000000,0.235808000,0.000000000,0.000000000,-0.049152000,0.000000000,0.000000000,1720619994.019511461,,,,,,,,,,,
1720619994.034081,0.030030000,0.000000000,0.000000000,-1.225686000,0.000000000,0.000000000,0.994136000,0.000000000,0.000000000,0.047776000,0.000000000,0.000000000,0.235808000,0.000000000,0.000000000,-0.050080000,0.000000000,0.000000000,1720619994.024511337,,,,,,,,,,,
1720619994.041701,0.030030000,0.000000000,0.000000000,-1.247785000,0.000000000,0.000000000,0.994136000,0.000000000,0.000000000,0.047712000,0.000000000,0.000000000,0.236192000,0.000000000,0.000000000,-0.049824000,0.000000000,0.000000000,1720619994.031511307,,,,,,,,,,,
1720619994.042120,0.030030000,0.000000000,0.000000000,-1.247785000,0.000000000,0.000000000,0.994136000,0.000000000,0.000000000,0.047712000,0.000000000,0.000000000,0.236192000,0.000000000,0.000000000,-0.049824000,0.000000000,0.000000000,1720619994.032511473,,,,,,,,,,,
1720619994.047944,0.030030000,0.000000000,0.000000000,-1.219218000,0.000000000,0.000000000,0.994136000,0.000000000,0.000000000,0.047712000,0.000000000,0.000000000,0.236544000,0.000000000,0.000000000,-0.049696000,0.000000000,0.000000000,1720619994.038511276,,,,,,,,,,,
1720619994.055030,0.030030000,0.000000000,0.000000000,-1.219218000,0.000000000,0.000000000,0.994136000,0.000000000,0.000000000,0.047712000,0.000000000,0.000000000,0.236448000,0.000000000,0.000000000,-0.049568000,0.000000000,0.000000000,1720619994.045511484,,,,,,,,,,,
1720619994.064482,0.030030000,0.000000000,0.000000000,-1.221374000,0.000000000,0.000000000,0.994136000,0.000000000,0.000000000,0.047776000,0.000000000,0.000000000,0.235808000,0.000000000,0.000000000,-0.050016000,0.000000000,0.000000000,1720619994.054511309,,,,,,,,,,,
1720619994.065208,0.030030000,0.000000000,0.000000000,-1.221374000,0.000000000,0.000000000,0.994136000,0.000000000,0.000000000,0.047776000,0.000000000,0.000000000,0.235808000,0.000000000,0.000000000,-0.050016000,0.000000000,0.000000000,1720619994.055511475,,,,,,,,,,,
1720619994.066200,0.030030000,0.000000000,0.000000000,-1.221374000,0.000000000,0.000000000,0.994136000,0.000000000,0.000000000,0.047776000,0.000000000,0.000000000,0.235808000,0.000000000,0.000000000,-0.050016000,0.000000000,0.000000000,1720619994.056511402,,,,,,,,,,,
1720619994.069524,,,,,,,,,,,,,,,,,,,,1720619994.056511402,-1.186824000,3.141592654,0.000000015,0.829037542,-0.000000022,-0.000000054,0.559192949,1.395152983,0.001110973,1.481517837
1720619994.076455,0.030030000,0.000000000,0.000000000,-1.227303000,0.000000000,0.000000000,0.994136000,0.000000000,0.000000000,0.047776000,0.000000000,0.000000000,0.236448000,0.000000000,0.000000000,-0.048768000,0.000000000,0.000000000,1720619994.066511393,,,,,,,,,,,
1720619994.076995,0.030030000,0.000000000,0.000000000,-1.227303000,0.000000000,0.000000000,0.994136000,0.000000000,0.000000000,0.047776000,0.000000000,0.000000000,0.236448000,0.000000000,0.000000000,-0.048768000,0.000000000,0.000000000,1720619994.067511320,,,,,,,,,,,
1720619994.077977,0.030030000,0.000000000,0.000000000,-1.227303000,0.000000000,0.000000000,0.994136000,0.000000000,0.000000000,0.047776000,0.000000000,0.000000000,0.236448000,0.000000000,0.000000000,-0.048768000,0.000000000,0.000000000,1720619994.068511486,,,,,,,,,,,
1720619994.080057,0.030030000,0.000000000,0.000000000,-1.232693000,0.000000000,0.000000000,0.994136000,0.000000000,0.000000000,0.047776000,0.000000000,0.000000000,0.236128000,0.000000000,0.000000000,-0.049760000,0.000000000,0.000000000,1720619994.070511341,,,,,,,,,,,
1720619994.085089,0.030030000,0.000000000,0.000000000,-1.199814000,0.000000000,0.000000000,0.994136000,0.000000000,0.000000000,0.047776000,0.000000000,0.000000000,0.235936000,0.000000000,0.000000000,-0.048384000,0.000000000,0.000000000,1720619994.075511456,,,,,,,,,,,
1720619994.092542,0.030030000,0.000000000,0.000000000,-1.228381000,0.000000000,0.000000000,0.994136000,0.000000000,0.000000000,0.047776000,0.000000000,0.000000000,0.235680000,0.000000000,0.000000000,-0.048704000,0.000000000,0.000000000,1720619994.082511425,,,,,,,,,,,
1720619994.093129,0.030030000,0.000000000,0.000000000,-1.228381000,0.000000000,0.000000000,0.994136000,0.000000000,0.000000000,0.047776000,0.000000000,0.000000000,0.235680000,0.000000000,0.000000000,-0.048704000,0.000000000,0.000000000,1720619994.083511353,,,,,,,,,,,
1720619994.096961,0.030030000,0.000000000,0.000000000,-1.229998000,0.000000000,0.000000000,0.994136000,0.000000000,0.000000000,0.047776000,0.000000000,0.000000000,0.235936000,0.000000000,0.000000000,-0.049632000,0.000000000,0.000000000,1720619994.087511301,,,,,,,,,,,
1720619994.105230,0.030030000,0.000000000,0.000000000,-1.225686000,0.000000000,0.000000000,0.994136000,0.000000000,0.000000000,0.047776000,0.000000000,0.000000000,0.236192000,0.000000000,0.000000000,-0.048832000,0.000000000,0.000000000,1720619994.095511436,,,,,,,,,,,
1720619994.109086,0.030030000,0.000000000,0.000000000,-1.224608000,0.000000000,0.000000000,0.994136000,0.000000000,0.000000000,0.047776000,0.000000000,0.000000000,0.236128000,0.000000000,0.000000000,-0.049088000,0.000000000,0.000000000,1720619994.099511385,,,,,,,,,,,
1720619994.116393,0.030030000,0.000000000,0.000000000,-1.224069000,0.000000000,0.000000000,0.994136000,0.000000000,0.000000000,0.047776000,0.000000000,0.000000000,0.236448000,0.000000000,0.000000000,-0.049024000,0.000000000,0.000000000,1720619994.106511354,,,,,,,,,,,
1720619994.117207,0.030030000,0.000000000,0.000000000,-1.224069000,0.000000000,0.000000000,0.994136000,0.000000000,0.000000000,0.047776000,0.000000000,0.000000000,0.236448000,0.000000000,0.000000000,-0.049024000,0.000000000,0.000000000,1720619994.107511282,,,,,,,,,,,
1720619994.119383,,,,,,,,,,,,,,,,,,,,1720619994.106511354,-1.186824000,3.141592654,0.000000015,0.829037542,-0.000000022,-0.000000054,0.559192949,1.395152983,0.001110973,1.481517837
1720619994.121870,0.030030000,0.000000000,0.000000000,-1.222991000,0.000000000,0.000000000,0.994136000,0.000000000,0.000000000,0.047776000,0.000000000,0.000000000,0.235936000,0.000000000,0.000000000,-0.049152000,0.000000000,0.000000000,1720619994.111511469,,,,,,,,,,,
1720619994.128396,0.030030000,0.000000000,0.000000000,-1.246168000,0.000000000,0.000000000,0.994136000,0.000000000,0.000000000,0.047776000,0.000000000,0.000000000,0.235808000,0.000000000,0.000000000,-0.049024000,0.000000000,0.000000000,1720619994.118511438,,,,,,,,,,,
1720619994.129303,0.030030000,0.000000000,0.000000000,-1.246168000,0.000000000,0.000000000,0.994136000,0.000000000,0.000000000,0.047776000,0.000000000,0.000000000,0.235808000,0.000000000,0.000000000,-0.049024000,0.000000000,0.000000000,1720619994.119511366,,,,,,,,,,,
1720619994.133129,0.030030000,0.000000000,0.000000000,-1.219218000,0.000000000,0.000000000,0.994136000,0.000000000,0.000000000,0.047776000,0.000000000,0.000000000,0.236608000,0.000000000,0.000000000,-0.049312000,0.000000000,0.000000000,1720619994.123511314,,,,,,,,,,,
1720619994.140287,0.030030000,0.000000000,0.000000000,-1.220296000,0.000000000,0.000000000,0.994136000,0.000000000,0.000000000,0.047776000,0.000000000,0.000000000,0.236608000,0.000000000,0.000000000,-0.048896000,0.000000000,0.000000000,1720619994.130511284,,,,,,,,,,,
1720619994.148069,0.030030000,0.000000000,0.000000000,-1.220296000,0.000000000,0.000000000,0.994136000,0.000000000,0.000000000,0.047776000,0.000000000,0.000000000,0.235680000,0.000000000,0.000000000,-0.049888000,0.000038380,0.009134350,1720619994.134511471,,,,,,,,,,,
1720619994.152490,0.030030000,0.000000000,0.000000000,-1.221374000,0.000000000,0.000000000,0.994136000,0.000000000,0.000000000,0.047776000,0.000000000,0.000000000,0.236192000,0.000000000,0.000000000,-0.050752000,0.000038380,0.009134350,1720619994.142511368,,,,,,,,,,,
1720619994.164541,0.030030000,0.000000000,0.000000000,-1.222991000,0.000000000,0.000000000,0.994136000,0.000000000,0.000000000,0.047840000,0.000000000,0.000000000,0.236128000,0.000000000,0.000000000,-0.049440000,0.000000000,0.000000000,1720619994.154511452,,,,,,,,,,,
1720619994.171946,0.030030000,0.000000000,0.000000000,-1.222991000,0.000000000,0.000000000,0.994136000,0.000000000,0.000000000,0.047840000,0.000000000,0.000000000,0.236256000,0.000000000,0.000000000,-0.050176000,0.000038380,0.009134350,1720619994.161511421,,,,,,,,,,,
1720619994.173223,0.030030000,0.000000000,0.000000000,-1.222991000,0.000000000,0.000000000,0.994136000,0.000000000,0.000000000,0.047840000,0.000000000,0.000000000,0.236256000,0.000000000,0.000000000,-0.050176000,0.000038380,0.009134350,1720619994.163511276,,,,,,,,,,,
1720619994.177066,0.030030000,0.000000000,0.000000000,-1.222991000,0.000000000,0.000000000,0.994136000,0.000000000,0.000000000,0.047840000,0.000000000,0.000000000,0.236128000,0.000000000,0.000000000,-0.048640000,0.000000000,0.009134350,1720619994.167511463,,,,,,,,,,,
1720619994.179438,,,,,,,,,,,,,,,,,,,,1720619994.161511421,-1.186823998,3.141490200,0.000015924,0.829037542,0.000010709,0.000094939,0.559192948,1.395152983,0.001108959,1.481517794
1720619994.184753,0.030030000,0.000000000,0.000000000,-1.221374000,0.000000000,0.000000000,0.994136000,0.000000000,0.000000000,0.047776000,0.000000000,0.000000000,0.236128000,0.000000000,0.000000000,-0.049152000,0.000000000,0.000000000,1720619994.174511433,,,,,,,,,,,
1720619994.185282,0.030030000,0.000000000,0.000000000,-1.221374000,0.000000000,0.000000000,0.994136000,0.000000000,0.000000000,0.047776000,0.000000000,0.000000000,0.236128000,0.000000000,0.000000000,-0.049152000,0.000000000,0.000000000,1720619994.175511360,,,,,,,,,,,
1720619994.189186,0.030030000,0.000000000,0.000000000,-1.221374000,0.000000000,0.000000000,0.994136000,0.000000000,0.000000000,0.047776000,0.000000000,0.000000000,0.236128000,0.000000000,0.000000000,-0.049504000,0.000000000,0.000000000,1720619994.179511309,,,,,,,,,,,
1720619994.201624,0.030030000,0.000000000,0.000000000,-1.221374000,0.000000000,0.000000000,0.994136000,0.000000000,0.000000000,0.047840000,0.000000000,0.000000000,0.236544000,0.000000000,0.000000000,-0.048384000,0.000000000,0.000000000,1720619994.191511393,,,,,,,,,,,
1720619994.208817,0.030030000,0.000000000,0.000000000,-1.221374000,0.000000000,0.000000000,0.994136000,0.000000000,0.000000000,0.047840000,0.000000000,0.000000000,0.236128000,0.000000000,0.000000000,-0.049088000,0.000000000,0.000000000,1720619994.198511362,,,,,,,,,,,
1720619994.209277,0.030030000,0.000000000,0.000000000,-1.221374000,0.000000000,0.000000000,0.994136000,0.000000000,0.000000000,0.047840000,0.000000000,0.000000000,0.236128000,0.000000000,0.000000000,-0.049088000,0.000000000,0.000000000,1720619994.199511290,,,,,,,,,,,
1720619994.213756,0.030030000,0.000000000,0.000000000,-1.221374000,0.000000000,0.000000000,0.994136000,0.000000000,0.000000000,0.047840000,0.000000000,0.000000000,0.235680000,0.000000000,0.000000000,-0.049440000,0.000000000,0.000000000,1720619994.203511477,,,,,,,,,,,
1720619994.220706,0.030030000,0.000000000,0.000000000,-1.221374000,0.000000000,0.000000000,0.994136000,0.000000000,0.000000000,0.047840000,0.000000000,0.000000000,0.235584000,0.000000000,0.000000000,-0.049152000,0.000000000,0.000000000,1720619994.210511446,,,,,,,,,,,
1720619994.221736,0.030030000,0.000000000,0.000000000,-1.221374000,0.000000000,0.000000000,0.994136000,0.000000000,0.000000000,0.047840000,0.000000000,0.000000000,0.235584000,0.000000000,0.000000000,-0.049152000,0.000000000,0.000000000,1720619994.211511374,,,,,,,,,,,
1720619994.225338,0.030030000,0.000000000,0.000000000,-1.221913000,0.000000000,0.000000000,0.994136000,0.000000000,0.000000000,0.047840000,0.000000000,0.000000000,0.236608000,0.000000000,0.000000000,-0.049152000,0.000000000,0.000000000,1720619994.215511322,,,,,,,,,,,
1720619994.229462,,,,,,,,,,,,,,,,,,,,1720619994.211511374,-1.186824000,3.141592654,0.000000015,0.829037542,-0.000000022,-0.000000054,0.559192949,1.395152983,0.001110973,1.481517837
1720619994.232686,0.030030000,0.000000000,0.000000000,-1.221913000,0.000000000,0.000000000,0.994136000,0.000000000,0.000000000,0.047840000,0.000000000,0.000000000,0.235520000,0.000000000,0.000000000,-0.049632000,0.000000000,0.000000000,1720619994.222511292,,,,,,,,,,,
1720619994.234148,0.030030000,0.000000000,0.000000000,-1.221913000,0.000000000,0.000000000,0.994136000,0.000000000,0.000000000,0.047840000,0.000000000,0.000000000,0.235520000,0.000000000,0.000000000,-0.049632000,0.000000000,0.000000000,1720619994.223511457,,,,,,,,,,,
1720619994.239400,0.030030000,0.000000000,0.000000000,-1.221913000,0.000000000,0.000000000,0.994136000,0.000000000,0.000000000,0.048096000,0.000000000,0.000000000,0.236448000,0.000000000,0.000000000,-0.048768000,0.000000000,0.000000000,1720619994.229511499,,,,,,,,,,,
1720619994.245694,0.030030000,0.000000000,0.000000000,-1.221913000,0.000000000,0.000000000,0.994136000,0.000000000,0.000000000,0.047840000,0.000000000,0.000000000,0.236192000,0.000000000,0.000000000,-0.049760000,0.000000000,0.000000000,1720619994.235511303,,,,,,,,,,,
1720619994.248428,0.030030000,0.000000000,0.000000000,-1.221913000,0.000000000,0.000000000,0.994136000,0.000000000,0.000000000,0.047776000,0.000000000,0.000000000,0.236192000,0.000000000,0.000000000,-0.048768000,0.000000000,0.000000000,1720619994.238511324,,,,,,,,,,,
1720619994.256764,0.030030000,0.000000000,0.000000000,-1.221913000,0.000000000,0.000000000,0.994136000,0.000000000,0.000000000,0.047776000,0.000000000,0.000000000,0.236128000,0.000000000,0.000000000,-0.049216000,0.000000000,0.000000000,1720619994.246511459,,,,,,,,,,,
1720619994.257569,0.030030000,0.000000000,0.000000000,-1.221913000,0.000000000,0.000000000,0.994136000,0.000000000,0.000000000,0.047776000,0.000000000,0.000000000,0.236128000,0.000000000,0.000000000,-0.049216000,0.000000000,0.000000000,1720619994.247511387,,,,,,,,,,,
1720619994.259063,0.030030000,0.000000000,0.000000000,-1.221913000,0.000000000,0.000000000,0.994136000,0.000000000,0.000000000,0.047840000,0.000000000,0.000000000,0.236384000,0.000000000,0.000000000,-0.048832000,0.000000000,0.000000000,1720619994.248511314,,,,,,,,,,,
