zakjeens/yaskawa_debug_materials/t18/joints.csv
__time,/joint_states/group_1/joint_1/effort,/joint_states/group_1/joint_1/position,/joint_states/group_1/joint_1/velocity,/joint_states/group_1/joint_2/effort,/joint_states/group_1/joint_2/position,/joint_states/group_1/joint_2/velocity,/joint_states/group_1/joint_3/effort,/joint_states/group_1/joint_3/position,/joint_states/group_1/joint_3/velocity,/joint_states/group_1/joint_4/effort,/joint_states/group_1/joint_4/position,/joint_states/group_1/joint_4/velocity,/joint_states/group_1/joint_5/effort,/joint_states/group_1/joint_5/position,/joint_states/group_1/joint_5/velocity,/joint_states/group_1/joint_6/effort,/joint_states/group_1/joint_6/position,/joint_states/group_1/joint_6/velocity,/joint_states/header/stamp,/world_to_torch/header/header/stamp,/world_to_torch/transform/rotation/pitch,/world_to_torch/transform/rotation/roll,/world_to_torch/transform/rotation/w,/world_to_torch/transform/rotation/x,/world_to_torch/transform/rotation/y,/world_to_torch/transform/rotation/yaw,/world_to_torch/transform/rotation/z,/world_to_torch/transform/translation/x,/world_to_torch/transform/translation/y,/world_to_torch/transform/translation/z
1720621642.797346,0.029172000,0.000000000,0.000000000,-1.195502000,0.000000000,0.000000000,1.009580000,0.000000000,0.000000000,0.043776000,0.000000000,0.000000000,0.237248000,0.000000000,0.000000000,-0.042784000,0.000000000,0.000000000,1720621642.782944202,,,,,,,,,,,
1720621642.802205,0.029172000,0.000000000,0.000000000,-1.194963000,0.000000000,0.000000000,1.009580000,0.000000000,0.000000000,0.043840000,0.000000000,0.000000000,0.237184000,0.000000000,0.000000000,-0.042592000,0.000000000,0.000000000,1720621642.791944265,,,,,,,,,,,
1720621642.813550,0.029172000,0.000000000,0.000000000,-1.194963000,0.000000000,0.000000000,1.009580000,0.000000000,0.000000000,0.044192000,0.000000000,0.000000000,0.237472000,0.000000000,0.000000000,-0.043648000,0.000000000,0.000000000,1720621642.802944422,,,,,,,,,,,
1720621642.821993,0.029172000,0.000000000,0.000000000,-1.172864000,0.000000000,0.000000000,1.009580000,0.000000000,0.000000000,0.043776000,0.000000000,0.000000000,0.237184000,0.000000000,0.000000000,-0.044384000,0.000000000,0.000000000,1720621642.810944319,,,,,,,,,,,
1720621642.825540,0.029172000,0.000000000,0.000000000,-1.196580000,0.000000000,0.000000000,1.009580000,0.000000000,0.000000000,0.044256000,0.000000000,0.000000000,0.237312000,0.000000000,0.000000000,-0.041120000,0.000000000,0.000000000,1720621642.814944267,,,,,,,,,,,
1720621642.839793,0.029172000,0.000000000,0.000000000,-1.196580000,0.000000000,0.000000000,1.009580000,0.000000000,0.000000000,0.043840000,0.000000000,0.000000000,0.237312000,0.000000000,0.000000000,-0.043456000,0.000000000,0.000000000,1720621642.824944258,,,,,,,,,,,
1720621642.848348,0.029172000,0.000000000,0.000000000,-1.196580000,0.000000000,0.000000000,1.009580000,0.000000000,0.000000000,0.043712000,0.000000000,0.000000000,0.236672000,0.000000000,0.000000000,-0.042912000,0.000000000,0.000000000,1720621642.832944393,,,,,,,,,,,
1720621642.853673,0.029172000,0.000000000,0.000000000,-1.196580000,0.000000000,0.000000000,1.009580000,0.000000000,0.000000000,0.043712000,0.000000000,0.000000000,0.237248000,0.000000000,0.000000000,-0.042848000,0.000000000,0.000000000,1720621642.842944384,,,,,,,,,,,
1720621642.854303,0.029172000,0.000000000,0.000000000,-1.196580000,0.000000000,0.000000000,1.009580000,0.000000000,0.000000000,0.043712000,0.000000000,0.000000000,0.237248000,0.000000000,0.000000000,-0.042848000,0.000000000,0.000000000,1720621642.843944311,,,,,,,,,,,
1720621642.856336,0.029172000,0.000000000,0.000000000,-1.197119000,0.000000000,0.000000000,1.009580000,0.000000000,0.000000000,0.043712000,0.000000000,0.000000000,0.237376000,0.000000000,0.000000000,-0.042784000,0.000000000,0.000000000,1720621642.845944405,,,,,,,,,,,
1720621642.857868,,,,,,,,,,,,,,,,,,,,1720621642.832944393,-1.186824000,3.141592654,0.000000015,0.829037542,-0.000000022,-0.000000054,0.559192949,1.395152983,0.001110973,1.481517837
1720621642.865616,0.029172000,0.000000000,0.000000000,-1.195502000,0.000000000,0.000000000,1.009580000,0.000000000,0.000000000,0.043776000,0.000000000,0.000000000,0.236928000,0.000000000,0.000000000,-0.042400000,0.000000000,0.000000000,1720621642.850944281,,,,,,,,,,,
1720621642.868600,0.029172000,0.000000000,0.000000000,-1.195502000,0.000000000,0.000000000,1.009580000,0.000000000,0.000000000,0.043776000,0.000000000,0.000000000,0.237728000,0.000000000,0.000000000,-0.042592000,0.000000000,0.000000000,1720621642.857944250,,,,,,,,,,,
1720621642.869913,0.029172000,0.000000000,0.000000000,-1.195502000,0.000000000,0.000000000,1.009580000,0.000000000,0.000000000,0.043776000,0.000000000,0.000000000,0.237728000,0.000000000,0.000000000,-0.042592000,0.000000000,0.000000000,1720621642.858944416,,,,,,,,,,,
1720621642.874485,0.029172000,0.000000000,0.000000000,-1.195502000,0.000000000,0.000000000,1.009580000,0.000000000,0.000000000,0.043776000,0.000000000,0.000000000,0.236672000,0.000000000,0.000000000,-0.043456000,0.000000000,0.000000000,1720621642.862944365,,,,,,,,,,,
1720621642.881005,0.029172000,0.000000000,0.000000000,-1.195502000,0.000000000,0.000000000,1.009580000,0.000000000,0.000000000,0.043776000,0.000000000,0.000000000,0.237856000,0.000000000,0.000000000,-0.043584000,0.000000000,0.000000000,1720621642.869944334,,,,,,,,,,,
1720621642.881742,0.029172000,0.000000000,0.000000000,-1.195502000,0.000000000,0.000000000,1.009580000,0.000000000,0.000000000,0.043776000,0.000000000,0.000000000,0.237856000,0.000000000,0.000000000,-0.043584000,0.000000000,0.000000000,1720621642.870944262,,,,,,,,,,,
1720621642.889690,0.029172000,0.000000000,0.000000000,-1.198197000,0.000000000,0.000000000,1.009580000,0.000000000,0.000000000,0.043712000,0.000000000,0.000000000,0.236736000,0.000000000,0.000000000,-0.042784000,0.000000000,0.000000000,1720621642.878944397,,,,,,,,,,,
1720621642.897009,0.029172000,0.000000000,0.000000000,-1.195502000,0.000000000,0.000000000,1.009580000,0.000000000,0.000000000,0.043776000,0.000000000,0.000000000,0.237184000,0.000000000,0.000000000,-0.042720000,0.000000000,0.000000000,1720621642.885944366,,,,,,,,,,,
1720621642.897741,0.029172000,0.000000000,0.000000000,-1.195502000,0.000000000,0.000000000,1.009580000,0.000000000,0.000000000,0.043776000,0.000000000,0.000000000,0.237184000,0.000000000,0.000000000,-0.042720000,0.000000000,0.000000000,1720621642.886944294,,,,,,,,,,,
1720621642.897913,,,,,,,,,,,,,,,,,,,,1720621642.885944366,-1.186824000,3.141592654,0.000000015,0.829037542,-0.000000022,-0.000000054,0.559192949,1.395152983,0.001110973,1.481517837
1720621642.901574,0.029172000,0.000000000,0.000000000,-1.189573000,0.000000000,0.000000000,1.009580000,0.000000000,0.000000000,0.043776000,0.000000000,0.000000000,0.236992000,0.000000000,0.000000000,-0.042848000,0.000000000,0.000000000,1720621642.890944242,,,,,,,,,,,
1720621642.908914,0.029172000,0.000000000,0.000000000,-1.192807000,0.000000000,0.000000000,1.009580000,0.000000000,0.000000000,0.043776000,0.000000000,0.000000000,0.236992000,0.000000000,0.000000000,-0.042784000,0.000000000,0.000000000,1720621642.897944212,,,,,,,,,,,
1720621642.909814,0.029172000,0.000000000,0.000000000,-1.192807000,0.000000000,0.000000000,1.009580000,0.000000000,0.000000000,0.043776000,0.000000000,0.000000000,0.236992000,0.000000000,0.000000000,-0.042784000,0.000000000,0.000000000,1720621642.898944378,,,,,,,,,,,
1720621642.913815,0.029172000,0.000000000,0.000000000,-1.193885000,0.000000000,0.000000000,1.009580000,0.000000000,0.000000000,0.043776000,0.000000000,0.000000000,0.236608000,0.000000000,0.000000000,-0.043072000,0.000000000,0.000000000,1720621642.902944326,,,,,,,,,,,
1720621642.921288,0.029172000,0.000000000,0.000000000,-1.193885000,0.000000000,0.000000000,1.009580000,0.000000000,0.000000000,0.043776000,0.000000000,0.000000000,0.236736000,0.000000000,0.000000000,-0.042848000,0.000000000,0.000000000,1720621642.909944296,,,,,,,,,,,
1720621642.921508,0.029172000,0.000000000,0.000000000,-1.193885000,0.000000000,0.000000000,1.009580000,0.000000000,0.000000000,0.043776000,0.000000000,0.000000000,0.236736000,0.000000000,0.000000000,-0.042848000,0.000000000,0.000000000,1720621642.910944223,,,,,,,,,,,
1720621642.925651,0.029172000,0.000000000,0.000000000,-1.194963000,0.000000000,0.000000000,1.009580000,0.000000000,0.000000000,0.043776000,0.000000000,0.000000000,0.237248000,0.000000000,0.000000000,-0.043008000,0.000000000,0.000000000,1720621642.914944410,,,,,,,,,,,
1720621642.932946,0.029172000,0.000000000,0.000000000,-1.197119000,0.000000000,0.000000000,1.009580000,0.000000000,0.000000000,0.043776000,0.000000000,0.000000000,0.236928000,0.000000000,0.000000000,-0.042848000,0.000000000,0.000000000,1720621642.921944380,,,,,,,,,,,
1720621642.934011,0.029172000,0.000000000,0.000000000,-1.197119000,0.000000000,0.000000000,1.009580000,0.000000000,0.000000000,0.043776000,0.000000000,0.000000000,0.236928000,0.000000000,0.000000000,-0.042848000,0.000000000,0.000000000,1720621642.922944307,,,,,,,,,,,
1720621642.938837,0.029172000,0.000000000,0.000000000,-1.197119000,0.000000000,0.000000000,1.009580000,0.000000000,0.000000000,0.043776000,0.000000000,0.000000000,0.236736000,0.000000000,0.000000000,-0.042592000,0.000000000,0.000000000,1720621642.927944422,,,,,,,,,,,
1720621642.946035,0.029172000,0.000000000,0.000000000,-1.196580000,0.000000000,0.000000000,1.009580000,0.000000000,0.000000000,0.043392000,0.000000000,0.000000000,0.237920000,0.000000000,0.000000000,-0.042784000,0.000000000,0.000000000,1720621642.934944391,,,,,,,,,,,
1720621642.946860,0.029172000,0.000000000,0.000000000,-1.196580000,0.000000000,0.000000000,1.009580000,0.000000000,0.000000000,0.043392000,0.000000000,0.000000000,0.237920000,0.000000000,0.000000000,-0.042784000,0.000000000,0.000000000,1720621642.935944319,,,,,,,,,,,
1720621642.947933,,,,,,,,,,,,,,,,,,,,1720621642.935944319,-1.186824000,3.141592654,0.000000015,0.829037542,-0.000000022,-0.000000054,0.559192949,1.395152983,0.001110973,1.481517837
1720621642.952666,0.029172000,0.000000000,0.000000000,-1.195502000,0.000000000,0.000000000,1.009580000,0.000000000,0.000000000,0.043776000,0.000000000,0.000000000,0.237120000,0.000000000,0.000000000,-0.042592000,0.000000000,0.000000000,1720621642.941944361,,,,,,,,,,,
1720621642.958974,0.029172000,0.000000000,0.000000000,-1.194963000,0.000000000,0.000000000,1.009580000,0.000000000,0.000000000,0.043776000,0.000000000,0.000000000,0.236864000,0.000000000,0.000000000,-0.043328000,0.000000000,0.000000000,1720621642.947944403,,,,,,,,,,,
1720621642.961604,0.029172000,0.000000000,0.000000000,-1.194963000,0.000000000,0.000000000,1.009580000,0.000000000,0.000000000,0.044128000,0.000000000,0.000000000,0.236800000,0.000000000,0.000000000,-0.042336000,0.000000000,0.000000000,1720621642.949944258,,,,,,,,,,,
1720621642.965825,0.029172000,0.000000000,0.000000000,-1.194963000,0.000000000,0.000000000,1.009580000,0.000000000,0.000000000,0.043776000,0.000000000,0.000000000,0.237664000,0.000000000,0.000000000,-0.043648000,0.000000000,0.000000000,1720621642.954944372,,,,,,,,,,,
1720621642.972744,0.029172000,0.000000000,0.000000000,-1.191190000,0.000000000,0.000000000,1.009580000,0.000000000,0.000000000,0.043776000,0.000000000,0.000000000,0.237120000,0.000000000,0.000000000,-0.042656000,0.000000000,0.000000000,1720621642.961944342,,,,,,,,,,,
1720621642.973864,0.029172000,0.000000000,0.000000000,-1.191190000,0.000000000,0.000000000,1.009580000,0.000000000,0.000000000,0.043776000,0.000000000,0.000000000,0.237120000,0.000000000,0.000000000,-0.042656000,0.000000000,0.000000000,1720621642.962944269,,,,,,,,,,,
1720621642.978691,0.029172000,0.000000000,0.000000000,-1.192807000,0.000000000,0.000000000,1.009580000,0.000000000,0.000000000,0.043776000,0.000000000,0.000000000,0.237376000,0.000000000,0.000000000,-0.043264000,0.000000000,0.000000000,1720621642.967944384,,,,,,,,,,,
1720621642.986622,0.029172000,0.000000000,0.000000000,-1.193885000,0.000000000,0.000000000,1.009580000,0.000000000,0.000000000,0.043776000,0.000000000,0.000000000,0.237376000,0.000000000,0.000000000,-0.043584000,0.000000000,0.000000000,1720621642.974944353,,,,,,,,,,,
1720621642.986924,0.029172000,0.000000000,0.000000000,-1.193885000,0.000000000,0.000000000,1.009580000,0.000000000,0.000000000,0.043776000,0.000000000,0.000000000,0.237376000,0.000000000,0.000000000,-0.043584000,0.000000000,0.000000000,1720621642.975944281,,,,,,,,,,,
1720621642.997694,0.029172000,0.000000000,0.000000000,-1.194963000,0.000000000,0.000000000,1.009580000,0.000000000,0.000000000,0.043776000,0.000000000,0.000000000,0.236928000,0.000000000,0.000000000,-0.043072000,0.000000000,0.000000000,1720621642.981944323,,,,,,,,,,,
1720621642.998884,0.029172000,0.000000000,0.000000000,-1.194963000,0.000000000,0.000000000,1.009580000,0.000000000,0.000000000,0.043776000,0.000000000,0.000000000,0.236992000,0.000000000,0.000000000,-0.042656000,0.000000000,0.000000000,1720621642.987944365,,,,,,,,,,,
1720621643.001169,0.029172000,0.000000000,0.000000000,-1.195502000,0.000000000,0.000000000,1.009580000,0.000000000,0.000000000,0.043776000,0.000000000,0.000000000,0.237376000,0.000000000,0.000000000,-0.042656000,0.000000000,0.000000000,1720621642.989944220,,,,,,,,,,,
1720621643.006376,0.029172000,0.000000000,0.000000000,-1.195502000,0.000000000,0.000000000,1.009580000,0.000000000,0.000000000,0.043776000,0.000000000,0.000000000,0.237248000,0.000000000,0.000000000,-0.042912000,0.000000000,0.000000000,1720621642.994944334,,,,,,,,,,,
1720621643.007945,,,,,,,,,,,,,,,,,,,,1720621642.987944365,-1.186824000,3.141592654,0.000000015,0.829037542,-0.000000022,-0.000000054,0.559192949,1.395152983,0.001110973,1.481517837
1720621643.012765,0.029172000,0.000000000,0.000000000,-1.195502000,0.000000000,0.000000000,1.009580000,0.000000000,0.000000000,0.043776000,0.000000000,0.000000000,0.236800000,0.000000000,0.000000000,-0.042208000,0.000000000,0.000000000,1720621643.001944304,,,,,,,,,,,
1720621643.013923,0.029172000,0.000000000,0.000000000,-1.195502000,0.000000000,0.000000000,1.009580000,0.000000000,0.000000000,0.043776000,0.000000000,0.000000000,0.236800000,0.000000000,0.000000000,-0.042208000,0.000000000,0.000000000,1720621643.002944231,,,,,,,,,,,
1720621643.026361,0.029172000,0.000000000,0.000000000,-1.195502000,0.000000000,0.000000000,1.009580000,0.000000000,0.000000000,0.043776000,0.000000000,0.000000000,0.237248000,0.000000000,0.000000000,-0.041472000,0.000000000,0.000000000,1720621643.009944201,,,,,,,,,,,
1720621643.027011,0.029172000,0.000000000,0.000000000,-1.201970000,0.000000000,0.000000000,1.009580000,0.000000000,0.000000000,0.043776000,0.000000000,0.000000000,0.237376000,0.000000000,0.000000000,-0.043392000,0.000000000,0.000000000,1720621643.015944242,,,,,,,,,,,
1720621643.029066,0.029172000,0.000000000,0.000000000,-1.196580000,0.000000000,0.000000000,1.009580000,0.000000000,0.000000000,0.043776000,0.000000000,0.000000000,0.236992000,0.000000000,0.000000000,-0.042464000,0.000000000,0.000000000,1720621643.017944336,,,,,,,,,,,
1720621643.032744,0.029172000,0.000000000,0.000000000,-1.196580000,0.000000000,0.000000000,1.009580000,0.000000000,0.000000000,0.043776000,0.000000000,0.000000000,0.237376000,0.000000000,0.000000000,-0.043072000,0.000000000,0.000000000,1720621643.021944284,,,,,,,,,,,
1720621643.041465,0.029172000,0.000000000,0.000000000,-1.196580000,0.000000000,0.000000000,1.009580000,0.000000000,0.000000000,0.043712000,0.000000000,0.000000000,0.236992000,0.000000000,0.000000000,-0.043456000,0.000000000,0.000000000,1720621643.029944420,,,,,,,,,,,
1720621643.042824,0.029172000,0.000000000,0.000000000,-1.196580000,0.000000000,0.000000000,1.009580000,0.000000000,0.000000000,0.043712000,0.000000000,0.000000000,0.236992000,0.000000000,0.000000000,-0.043456000,0.000000000,0.000000000,1720621643.031944275,,,,,,,,,,,
1720621643.046392,0.029172000,0.000000000,0.000000000,-1.196580000,0.000000000,0.000000000,1.009580000,0.000000000,0.000000000,0.043776000,0.000000000,0.000000000,0.237376000,0.000000000,0.000000000,-0.042336000,0.000000000,0.000000000,1720621643.034944296,,,,,,,,,,,
1720621643.057894,0.029172000,0.000000000,0.000000000,-1.173403000,0.000000000,0.000000000,1.009580000,0.000000000,0.000000000,0.043776000,0.000000000,0.000000000,0.237600000,0.000000000,0.000000000,-0.043456000,0.000000000,0.000000000,1720621643.046944380,,,,,,,,,,,
1720621643.065017,0.029172000,0.000000000,0.000000000,-1.165857000,0.000000000,0.000000000,1.009580000,0.000000000,0.000000000,0.043776000,0.000000000,0.000000000,0.237248000,0.000000000,0.000000000,-0.043008000,0.000000000,0.000000000,1720621643.053944349,,,,,,,,,,,
1720621643.066043,0.029172000,0.000000000,0.000000000,-1.165857000,0.000000000,0.000000000,1.009580000,0.000000000,0.000000000,0.043776000,0.000000000,0.000000000,0.237248000,0.000000000,0.000000000,-0.043008000,0.000000000,0.000000000,1720621643.054944277,,,,,,,,,,,
1720621643.067787,,,,,,,,,,,,,,,,,,,,1720621643.046944380,-1.186824000,3.141592654,0.000000015,0.829037542,-0.000000022,-0.000000054,0.559192949,1.395152983,0.001110973,1.481517837
1720621643.069797,0.029172000,0.000000000,0.000000000,-1.195502000,0.000000000,0.000000000,1.009580000,0.000000000,0.000000000,0.043776000,0.000000000,0.000000000,0.237312000,0.000000000,0.000000000,-0.043264000,0.000000000,0.000000000,1720621643.058944225,,,,,,,,,,,
1720621643.077399,0.029172000,0.000000000,0.000000000,-1.195502000,0.000000000,0.000000000,1.009580000,0.000000000,0.000000000,0.043776000,0.000000000,0.000000000,0.237600000,0.000000000,0.000000000,-0.043328000,0.000000000,0.000000000,1720621643.065944195,,,,,,,,,,,
1720621643.077954,0.029172000,0.000000000,0.000000000,-1.195502000,0.000000000,0.000000000,1.009580000,0.000000000,0.000000000,0.043776000,0.000000000,0.000000000,0.237600000,0.000000000,0.000000000,-0.043328000,0.000000000,0.000000000,1720621643.066944361,,,,,,,,,,,
1720621643.081932,0.029172000,0.000000000,0.000000000,-1.196580000,0.000000000,0.000000000,1.009580000,0.000000000,0.000000000,0.043776000,0.000000000,0.000000000,0.237536000,0.000000000,0.000000000,-0.042272000,0.000000000,0.000000000,1720621643.070944309,,,,,,,,,,,
1720621643.089086,0.029172000,0.000000000,0.000000000,-1.199275000,0.000000000,0.000000000,1.009580000,0.000000000,0.000000000,0.043840000,0.000000000,0.000000000,0.237056000,0.000000000,0.000000000,-0.042528000,0.000000000,0.000000000,1720621643.077944279,,,,,,,,,,,
1720621643.089762,0.029172000,0.000000000,0.000000000,-1.199275000,0.000000000,0.000000000,1.009580000,0.000000000,0.000000000,0.043840000,0.000000000,0.000000000,0.237056000,0.000000000,0.000000000,-0.042528000,0.000000000,0.000000000,1720621643.078944206,,,,,,,,,,,
1720621643.094689,0.029172000,0.000000000,0.000000000,-1.197119000,0.000000000,0.000000000,1.009580000,0.000000000,0.000000000,0.044256000,0.000000000,0.000000000,0.237664000,0.000000000,0.000000000,-0.043392000,0.000000000,0.000000000,1720621643.083944321,,,,,,,,,,,
1720621643.102049,0.029172000,0.000000000,0.000000000,-1.188495000,0.000000000,0.000000000,1.009580000,0.000000000,0.000000000,0.043776000,0.000000000,0.000000000,0.237248000,0.000000000,0.000000000,-0.043712000,0.000000000,0.000000000,1720621643.090944290,,,,,,,,,,,
1720621643.102678,0.029172000,0.000000000,0.000000000,-1.188495000,0.000000000,0.000000000,1.009580000,0.000000000,0.000000000,0.043776000,0.000000000,0.000000000,0.237248000,0.000000000,0.000000000,-0.043712000,0.000000000,0.000000000,1720621643.091944218,,,,,,,,,,,
1720621643.106935,0.029172000,0.000000000,0.000000000,-1.192807000,0.000000000,0.000000000,1.009580000,0.000000000,0.000000000,0.043776000,0.000000000,0.000000000,0.237376000,0.000000000,0.000000000,-0.042208000,0.000000000,0.000000000,1720621643.095944405,,,,,,,,,,,
1720621643.114130,0.029172000,0.000000000,0.000000000,-1.191190000,0.000000000,0.000000000,1.009580000,0.000000000,0.000000000,0.043840000,0.000000000,0.000000000,0.236928000,0.000000000,0.000000000,-0.043456000,0.000000000,0.000000000,1720621643.102944374,,,,,,,,,,,
1720621643.114736,0.029172000,0.000000000,0.000000000,-1.191190000,0.000000000,0.000000000,1.009580000,0.000000000,0.000000000,0.043840000,0.000000000,0.000000000,0.236928000,0.000000000,0.000000000,-0.043456000,0.000000000,0.000000000,1720621643.103944302,,,,,,,,,,,
1720621643.117914,,,,,,,,,,,,,,,,,,,,1720621643.102944374,-1.186824000,3.141592654,0.000000015,0.829037542,-0.000000022,-0.000000054,0.559192949,1.395152983,0.001110973,1.481517837
1720621643.121458,0.029172000,0.000000000,0.000000000,-1.189573000,0.000000000,0.000000000,1.009580000,0.000000000,0.000000000,0.043840000,0.000000000,0.000000000,0.237600000,0.000000000,0.000000000,-0.043392000,0.000000000,0.000000000,1720621643.109944344,,,,,,,,,,,
1720621643.128154,0.029172000,0.000000000,0.000000000,-1.190112000,0.000000000,0.000000000,1.009580000,0.000000000,0.000000000,0.043840000,0.000000000,0.000000000,0.236928000,0.000000000,0.000000000,-0.043008000,0.000000000,0.000000000,1720621643.116944313,,,,,,,,,,,
1720621643.137429,0.029172000,0.000000000,0.000000000,-1.191190000,0.000000000,0.000000000,1.009580000,0.000000000,0.000000000,0.043776000,0.000000000,0.000000000,0.237056000,0.000000000,0.000000000,-0.043072000,0.000000000,0.000000000,1720621643.125944376,,,,,,,,,,,
1720621643.138035,0.029172000,0.000000000,0.000000000,-1.191190000,0.000000000,0.000000000,1.009580000,0.000000000,0.000000000,0.043776000,0.000000000,0.000000000,0.237056000,0.000000000,0.000000000,-0.043072000,0.000000000,0.000000000,1720621643.126944304,,,,,,,,,,,
1720621643.140055,0.029172000,0.000000000,0.000000000,-1.191190000,0.000000000,0.000000000,1.009580000,0.000000000,0.000000000,0.043776000,0.000000000,0.000000000,0.237184000,0.000000000,0.000000000,-0.043008000,0.000000000,0.000000000,1720621643.128944397,,,,,,,,,,,
1720621643.149651,0.029172000,0.000000000,0.000000000,-1.192807000,0.000000000,0.000000000,1.009580000,0.000000000,0.000000000,0.043776000,0.000000000,0.000000000,0.237472000,0.000000000,0.000000000,-0.043072000,0.000000000,0.000000000,1720621643.137944221,,,,,,,,,,,
1720621643.149994,0.029172000,0.000000000,0.000000000,-1.192807000,0.000000000,0.000000000,1.009580000,0.000000000,0.000000000,0.043776000,0.000000000,0.000000000,0.237472000,0.000000000,0.000000000,-0.043072000,0.000000000,0.000000000,1720621643.138944387,,,,,,,,,,,
1720621643.150897,0.029172000,0.000000000,0.000000000,-1.192807000,0.000000000,0.000000000,1.009580000,0.000000000,0.000000000,0.043776000,0.000000000,0.000000000,0.237472000,0.000000000,0.000000000,-0.043072000,0.000000000,0.000000000,1720621643.139944315,,,,,,,,,,,
1720621643.153201,0.029172000,0.000000000,0.000000000,-1.193885000,0.000000000,0.000000000,1.009580000,0.000000000,0.000000000,0.043776000,0.000000000,0.000000000,0.237056000,0.000000000,0.000000000,-0.043008000,0.000000000,0.000000000,1720621643.141944408,,,,,,,,,,,
1720621643.154040,0.029172000,0.000000000,0.000000000,-1.193885000,0.000000000,0.000000000,1.009580000,0.000000000,0.000000000,0.043776000,0.000000000,0.000000000,0.237056000,0.000000000,0.000000000,-0.043008000,0.000000000,0.000000000,1720621643.142944336,,,,,,,,,,,
1720621643.158140,0.029172000,0.000000000,0.000000000,-1.194963000,0.000000000,0.000000000,1.009580000,0.000000000,0.000000000,0.043776000,0.000000000,0.000000000,0.237536000,0.000000000,0.000000000,-0.043264000,0.000000000,0.000000000,1720621643.146944284,,,,,,,,,,,
1720621643.165304,0.029172000,0.000000000,0.000000000,-1.195502000,0.000000000,0.000000000,1.009580000,0.000000000,0.000000000,0.043776000,0.000000000,0.000000000,0.237184000,0.000000000,0.000000000,-0.043712000,0.000000000,0.000000000,1720621643.153944254,,,,,,,,,,,
1720621643.166690,0.029172000,0.000000000,0.000000000,-1.195502000,0.000000000,0.000000000,1.009580000,0.000000000,0.000000000,0.043776000,0.000000000,0.000000000,0.237184000,0.000000000,0.000000000,-0.043712000,0.000000000,0.000000000,1720621643.154944420,,,,,,,,,,,
1720621643.167814,,,,,,,,,,,,,,,,,,,,1720621643.153944254,-1.186824000,3.141592654,0.000000015,0.829037542,-0.000000022,-0.000000054,0.559192949,1.395152983,0.001110973,1.481517837
1720621643.170122,0.029172000,0.000000000,0.000000000,-1.195502000,0.000000000,0.000000000,1.009580000,0.000000000,0.000000000,0.043776000,0.000000000,0.000000000,0.237856000,0.000000000,0.000000000,-0.041792000,0.000000000,0.000000000,1720621643.158944368,,,,,,,,,,,
1720621643.177562,0.029172000,0.000000000,0.000000000,-1.195502000,0.000000000,0.000000000,1.009580000,0.000000000,0.000000000,0.043392000,0.000000000,0.000000000,0.236992000,0.000000000,0.000000000,-0.042848000,0.000000000,0.000000000,1720621643.165944338,,,,,,,,,,,
1720621643.178050,0.029172000,0.000000000,0.000000000,-1.195502000,0.000000000,0.000000000,1.009580000,0.000000000,0.000000000,0.043392000,0.000000000,0.000000000,0.236992000,0.000000000,0.000000000,-0.042848000,0.000000000,0.000000000,1720621643.166944265,,,,,,,,,,,
1720621643.182396,0.029172000,0.000000000,0.000000000,-1.195502000,0.000000000,0.000000000,1.009580000,0.000000000,0.000000000,0.043776000,0.000000000,0.000000000,0.236992000,0.000000000,0.000000000,-0.042592000,0.000000000,0.000000000,1720621643.170944214,,,,,,,,,,,
1720621643.190366,0.029172000,0.000000000,0.000000000,-1.195502000,0.000000000,0.000000000,1.009580000,0.000000000,0.000000000,0.043776000,0.000000000,0.000000000,0.237728000,0.000000000,0.000000000,-0.041920000,0.000000000,0.000000000,1720621643.178944349,,,,,,,,,,,
1720621643.194306,0.029172000,0.000000000,0.000000000,-1.190112000,0.000000000,0.000000000,1.009580000,0.000000000,0.000000000,0.043776000,0.000000000,0.000000000,0.236800000,0.000000000,0.000000000,-0.043648000,0.000000000,0.000000000,1720621643.182944298,,,,,,,,,,,
1720621643.201697,0.029172000,0.000000000,0.000000000,-1.194963000,0.000000000,0.000000000,1.009580000,0.000000000,0.000000000,0.043776000,0.000000000,0.000000000,0.236928000,0.000000000,0.000000000,-0.043328000,0.000000000,0.000000000,1720621643.189944267,,,,,,,,,,,
1720621643.202552,0.029172000,0.000000000,0.000000000,-1.194963000,0.000000000,0.000000000,1.009580000,0.000000000,0.000000000,0.043776000,0.000000000,0.000000000,0.236928000,0.000000000,0.000000000,-0.043328000,0.000000000,0.000000000,1720621643.190944195,,,,,,,,,,,
1720621643.206686,0.029172000,0.000000000,0.000000000,-1.166396000,0.000000000,0.000000000,1.009580000,0.000000000,0.000000000,0.043776000,0.000000000,0.000000000,0.237536000,0.000000000,0.000000000,-0.042464000,0.000000000,0.000000000,1720621643.194944382,,,,,,,,,,,
1720621643.213565,0.029172000,0.000000000,0.000000000,-1.191190000,0.000000000,0.000000000,1.009580000,0.000000000,0.000000000,0.043776000,0.000000000,0.000000000,0.237120000,0.000000000,0.000000000,-0.042656000,0.000000000,0.000000000,1720621643.201944351,,,,,,,,,,,
1720621643.214376,0.029172000,0.000000000,0.000000000,-1.191190000,0.000000000,0.000000000,1.009580000,0.000000000,0.000000000,0.043776000,0.000000000,0.000000000,0.237120000,0.000000000,0.000000000,-0.042656000,0.000000000,0.000000000,1720621643.202944279,,,,,,,,,,,
1720621643.218045,0.029172000,0.000000000,0.000000000,-1.192268000,0.000000000,0.000000000,1.009580000,0.000000000,0.000000000,0.043776000,0.000000000,0.000000000,0.236992000,0.000000000,0.000000000,-0.042592000,0.000000000,0.000000000,1720621643.206944227,,,,,,,,,,,
1720621643.225513,0.029172000,0.000000000,0.000000000,-1.193885000,0.000000000,0.000000000,1.009580000,0.000000000,0.000000000,0.043776000,0.000000000,0.000000000,0.237312000,0.000000000,0.000000000,-0.042784000,0.000000000,0.000000000,1720621643.213944197,,,,,,,,,,,
1720621643.226946,0.029172000,0.000000000,0.000000000,-1.193885000,0.000000000,0.000000000,1.009580000,0.000000000,0.000000000,0.043776000,0.000000000,0.000000000,0.237312000,0.000000000,0.000000000,-0.042784000,0.000000000,0.000000000,1720621643.214944363,,,,,,,,,,,
1720621643.227909,,,,,,,,,,,,,,,,,,,,1720621643.206944227,-1.186824000,3.141592654,0.000000015,0.829037542,-0.000000022,-0.000000054,0.559192949,1.395152983,0.001110973,1.481517837
1720621643.232600,0.029172000,0.000000000,0.000000000,-1.195502000,0.000000000,0.000000000,1.009580000,0.000000000,0.000000000,0.043776000,0.000000000,0.000000000,0.237056000,0.000000000,0.000000000,-0.042784000,0.000000000,0.000000000,1720621643.220944405,,,,,,,,,,,
1720621643.238287,0.029172000,0.000000000,0.000000000,-1.195502000,0.000000000,0.000000000,1.009580000,0.000000000,0.000000000,0.043840000,0.000000000,0.000000000,0.237984000,0.000000000,0.000000000,-0.043648000,0.000000000,0.000000000,1720621643.226944208,,,,,,,,,,,
1720621643.241596,0.029172000,0.000000000,0.000000000,-1.195502000,0.000000000,0.000000000,1.009580000,0.000000000,0.000000000,0.043840000,0.000000000,0.000000000,0.236864000,0.000000000,0.000000000,-0.041920000,0.000000000,0.000000000,1720621643.229944229,,,,,,,,,,,
1720621643.250021,0.029172000,0.000000000,0.000000000,-1.195502000,0.000000000,0.000000000,1.009580000,0.000000000,0.000000000,0.043776000,0.000000000,0.000000000,0.237664000,0.000000000,0.000000000,-0.041472000,0.000000000,0.000000000,1720621643.237944365,,,,,,,,,,,
1720621643.250458,0.029172000,0.000000000,0.000000000,-1.195502000,0.000000000,0.000000000,1.009580000,0.000000000,0.000000000,0.043776000,0.000000000,0.000000000,0.237664000,0.000000000,0.000000000,-0.041472000,0.000000000,0.000000000,1720621643.238944292,,,,,,,,,,,
1720621643.252813,0.029172000,0.000000000,0.000000000,-1.195502000,0.000000000,0.000000000,1.009580000,0.000000000,0.000000000,0.043776000,0.000000000,0.000000000,0.237312000,0.000000000,0.000000000,-0.044800000,0.000000000,0.000000000,1720621643.240944386,,,,,,,,,,,
1720621643.261959,0.029172000,0.000000000,0.000000000,-1.193885000,0.000000000,0.000000000,1.009580000,0.000000000,0.000000000,0.043776000,0.000000000,0.000000000,0.237184000,0.000000000,0.000000000,-0.044800000,0.000000000,0.000000000,1720621643.249944210,,,,,,,,,,,
1720621643.262619,0.029172000,0.000000000,0.000000000,-1.193885000,0.000000000,0.000000000,1.009580000,0.000000000,0.000000000,0.043776000,0.000000000,0.000000000,0.237184000,0.000000000,0.000000000,-0.044800000,0.000000000,0.000000000,1720621643.250944376,,,,,,,,,,,
1720621643.264303,0.029172000,0.000000000,0.000000000,-1.197119000,0.000000000,0.000000000,1.009580000,0.000000000,0.000000000,0.043776000,0.000000000,0.000000000,0.237184000,0.000000000,0.000000000,-0.041120000,0.000000000,0.000000000,1720621643.252944231,,,,,,,,,,,
1720621643.273922,0.029172000,0.000000000,0.000000000,-1.195502000,0.000000000,0.000000000,1.009580000,0.000000000,0.000000000,0.043776000,0.000000000,0.000000000,0.237376000,0.000000000,0.000000000,-0.041856000,0.000000000,0.000000000,1720621643.261944294,,,,,,,,,,,
1720621643.274354,0.029172000,0.000000000,0.000000000,-1.195502000,0.000000000,0.000000000,1.009580000,0.000000000,0.000000000,0.043776000,0.000000000,0.000000000,0.237376000,0.000000000,0.000000000,-0.041856000,0.000000000,0.000000000,1720621643.262944221,,,,,,,,,,,
1720621643.276683,0.029172000,0.000000000,0.000000000,-1.191190000,0.000000000,0.000000000,1.009580000,0.000000000,0.000000000,0.043776000,0.000000000,0.000000000,0.238112000,0.000000000,0.000000000,-0.044000000,0.000000000,0.000000000,1720621643.264944315,,,,,,,,,,,
1720621643.278086,,,,,,,,,,,,,,,,,,,,1720621643.261944294,-1.186824000,3.141592654,0.000000015,0.829037542,-0.000000022,-0.000000054,0.559192949,1.395152983,0.001110973,1.481517837
1720621643.285905,0.029172000,0.000000000,0.000000000,-1.190112000,0.000000000,0.000000000,1.013584000,0.000000000,0.000000000,0.043776000,0.000000000,0.000000000,0.236320000,0.000000000,0.000000000,-0.043776000,0.000000000,0.000000000,1720621643.273944378,,,,,,,,,,,
1720621643.287177,0.029172000,0.000000000,0.000000000,-1.190112000,0.000000000,0.000000000,1.013584000,0.000000000,0.000000000,0.043776000,0.000000000,0.000000000,0.236320000,0.000000000,0.000000000,-0.043776000,0.000000000,0.000000000,1720621643.274944305,,,,,,,,,,,
1720621643.288476,0.029172000,0.000000000,0.000000000,-1.186878000,0.000000000,0.000000000,1.010724000,0.000000000,0.000000000,0.043776000,0.000000000,0.000000000,0.237792000,0.000000000,0.000000000,-0.041792000,0.000000000,0.000000000,1720621643.276944399,,,,,,,,,,,
1720621643.298025,0.029172000,0.000000000,0.000000000,-1.192807000,0.000000000,0.000000000,1.010152000,0.000000000,0.000000000,0.044128000,0.000000000,0.000000000,0.237472000,0.000000000,0.000000000,-0.041344000,0.000000000,0.000000000,1720621643.285944223,,,,,,,,,,,
1720621643.298365,0.029172000,0.000000000,0.000000000,-1.192807000,0.000000000,0.000000000,1.010152000,0.000000000,0.000000000,0.044128000,0.000000000,0.000000000,0.237472000,0.000000000,0.000000000,-0.041344000,0.000000000,0.000000000,1720621643.286944389,,,,,,,,,,,
1720621643.301542,0.029172000,0.000000000,0.000000000,-1.193885000,0.000000000,0.000000000,1.010152000,0.000000000,0.000000000,0.043776000,0.000000000,0.000000000,0.237536000,0.000000000,0.000000000,-0.044384000,0.000000000,0.000000000,1720621643.289944410,,,,,,,,,,,
1720621643.310040,0.029172000,0.000000000,0.000000000,-1.193885000,0.000000000,0.000000000,1.010152000,0.000000000,0.000000000,0.043776000,0.000000000,0.000000000,0.237792000,0.000000000,0.000000000,-0.044192000,0.000000000,0.000000000,1720621643.297944307,,,,,,,,,,,
1720621643.310445,0.029172000,0.000000000,0.000000000,-1.193885000,0.000000000,0.000000000,1.010152000,0.000000000,0.000000000,0.043776000,0.000000000,0.000000000,0.237792000,0.000000000,0.000000000,-0.044192000,0.000000000,0.000000000,1720621643.298944235,,,,,,,,,,,
1720621643.313825,0.029172000,0.000000000,0.000000000,-1.193885000,0.000000000,0.000000000,1.010152000,0.000000000,0.000000000,0.043776000,0.000000000,0.000000000,0.237120000,0.000000000,0.000000000,-0.042048000,0.000000000,0.000000000,1720621643.299944401,,,,,,,,,,,
1720621643.321871,0.029172000,0.000000000,0.000000000,-1.193885000,0.000000000,0.000000000,1.010152000,0.000000000,0.000000000,0.043776000,0.000000000,0.000000000,0.237920000,0.000000000,0.000000000,-0.041792000,0.000000000,0.000000000,1720621643.309944391,,,,,,,,,,,
1720621643.322954,0.029172000,0.000000000,0.000000000,-1.193885000,0.000000000,0.000000000,1.010152000,0.000000000,0.000000000,0.043776000,0.000000000,0.000000000,0.237920000,0.000000000,0.000000000,-0.041792000,0.000000000,0.000000000,1720621643.310944319,,,,,,,,,,,
1720621643.324260,0.029172000,0.000000000,0.000000000,-1.193885000,0.000000000,0.000000000,1.010152000,0.000000000,0.000000000,0.043776000,0.000000000,0.000000000,0.236672000,0.000000000,0.000000000,-0.043776000,0.000000000,0.000000000,1720621643.311944246,,,,,,,,,,,
1720621643.324320,0.029172000,0.000000000,0.000000000,-1.193885000,0.000000000,0.000000000,1.010152000,0.000000000,0.000000000,0.043776000,0.000000000,0.000000000,0.236672000,0.000000000,0.000000000,-0.043776000,0.000000000,0.000000000,1720621643.312944412,,,,,,,,,,,
1720621643.328043,,,,,,,,,,,,,,,,,,,,1720621643.311944246,-1.186824000,3.141592654,0.000000015,0.829037542,-0.000000022,-0.000000054,0.559192949,1.395152983,0.001110973,1.481517837
1720621643.328295,0.029172000,0.000000000,0.000000000,-1.193885000,0.000000000,0.000000000,1.010152000,0.000000000,0.000000000,0.043776000,0.000000000,0.000000000,0.237472000,0.000000000,0.000000000,-0.042144000,0.000000000,0.000000000,1720621643.316944361,,,,,,,,,,,
1720621643.336230,0.029172000,0.000000000,0.000000000,-1.193885000,0.000000000,0.000000000,1.010152000,0.000000000,0.000000000,0.043776000,0.000000000,0.000000000,0.236992000,0.000000000,0.000000000,-0.043136000,0.000000000,0.000000000,1720621643.323944330,,,,,,,,,,,
1720621643.348503,0.029172000,0.000000000,0.000000000,-1.193885000,0.000000000,0.000000000,1.010152000,0.000000000,0.000000000,0.043776000,0.000000000,0.000000000,0.236992000,0.000000000,0.000000000,-0.043136000,0.000000000,0.000000000,1720621643.326944351,,,,,,,,,,,
1720621643.349830,0.029172000,0.000000000,0.000000000,-1.192807000,0.000000000,0.000000000,1.010152000,0.000000000,0.000000000,0.043776000,0.000000000,0.000000000,0.237664000,0.000000000,0.000000000,-0.043200000,0.000000000,0.000000000,1720621643.337944269,,,,,,,,,,,
1720621643.350454,0.029172000,0.000000000,0.000000000,-1.192807000,0.000000000,0.000000000,1.010152000,0.000000000,0.000000000,0.043776000,0.000000000,0.000000000,0.237664000,0.000000000,0.000000000,-0.043200000,0.000000000,0.000000000,1720621643.338944197,,,,,,,,,,,
1720621643.357218,0.029172000,0.000000000,0.000000000,-1.192807000,0.000000000,0.000000000,1.010152000,0.000000000,0.000000000,0.043776000,0.000000000,0.000000000,0.236992000,0.000000000,0.000000000,-0.043008000,0.000000000,0.000000000,1720621643.344944239,,,,,,,,,,,
1720621643.363187,0.029172000,0.000000000,0.000000000,-1.192807000,0.000000000,0.000000000,1.010152000,0.000000000,0.000000000,0.043776000,0.000000000,0.000000000,0.236928000,0.000000000,0.000000000,-0.042528000,0.000000000,0.000000000,1720621643.350944281,,,,,,,,,,,
1720621643.364693,0.029172000,0.000000000,0.000000000,-1.192807000,0.000000000,0.000000000,1.010152000,0.000000000,0.000000000,0.043776000,0.000000000,0.000000000,0.237120000,0.000000000,0.000000000,-0.043008000,0.000000000,0.000000000,1720621643.352944374,,,,,,,,,,,
1720621643.368392,0.029172000,0.000000000,0.000000000,-1.193885000,0.000000000,0.000000000,1.010152000,0.000000000,0.000000000,0.043776000,0.000000000,0.000000000,0.237856000,0.000000000,0.000000000,-0.042784000,0.000000000,0.000000000,1720621643.356944323,,,,,,,,,,,
1720621643.377430,0.029172000,0.000000000,0.000000000,-1.198197000,0.000000000,0.000000000,1.010152000,0.000000000,0.000000000,0.043776000,0.000000000,0.000000000,0.237600000,0.000000000,0.000000000,-0.043072000,0.000000000,0.000000000,1720621643.365944386,,,,,,,,,,,
1720621643.387976,,,,,,,,,,,,,,,,,,,,1720621643.365944386,-1.186824000,3.141592654,0.000000015,0.829037542,-0.000000022,-0.000000054,0.559192949,1.395152983,0.001110973,1.481517837
1720621643.388142,0.029172000,0.000000000,0.000000000,-1.195502000,0.000000000,0.000000000,1.010152000,0.000000000,0.000000000,0.043840000,0.000000000,0.000000000,0.237600000,0.000000000,0.000000000,-0.043392000,0.000000000,0.000000000,1720621643.375944376,,,,,,,,,,,
1720621643.397866,0.029172000,0.000000000,0.000000000,-1.194963000,0.000000000,0.000000000,1.010152000,0.000000000,0.000000000,0.043840000,0.000000000,0.000000000,0.237056000,0.000000000,0.000000000,-0.043072000,0.000000000,0.000000000,1720621643.385944366,,,,,,,,,,,
1720621643.410893,0.029172000,0.000000000,0.000000000,-1.195502000,0.000000000,0.000000000,1.010152000,0.000000000,0.000000000,0.043776000,0.000000000,0.000000000,0.237600000,0.000000000,0.000000000,-0.043136000,0.000000000,0.000000000,1720621643.398944378,,,,,,,,,,,
1720621643.418069,0.029172000,0.000000000,0.000000000,-1.195502000,0.000000000,0.000000000,1.010152000,0.000000000,0.000000000,0.043776000,0.000000000,0.000000000,0.236192000,0.000000000,0.000000000,-0.043072000,0.000000000,0.000000000,1720621643.405944347,,,,,,,,,,,
1720621643.418836,0.029172000,0.000000000,0.000000000,-1.195502000,0.000000000,0.000000000,1.010152000,0.000000000,0.000000000,0.043776000,0.000000000,0.000000000,0.236192000,0.000000000,0.000000000,-0.043072000,0.000000000,0.000000000,1720621643.406944275,,,,,,,,,,,
1720621643.424786,0.029172000,0.000000000,0.000000000,-1.195502000,0.000000000,0.000000000,1.010152000,0.000000000,0.000000000,0.043776000,0.000000000,0.000000000,0.237376000,0.000000000,0.000000000,-0.042592000,0.000000000,0.000000000,1720621643.412944317,,,,,,,,,,,
1720621643.431031,0.029172000,0.000000000,0.000000000,-1.195502000,0.000000000,0.000000000,1.010152000,0.000000000,0.000000000,0.043456000,0.000000000,0.000000000,0.237248000,0.000000000,0.000000000,-0.043328000,0.000000000,0.000000000,1720621643.418944359,,,,,,,,,,,
1720621643.433245,0.029172000,0.000000000,0.000000000,-1.195502000,0.000000000,0.000000000,1.010152000,0.000000000,0.000000000,0.043776000,0.000000000,0.000000000,0.237184000,0.000000000,0.000000000,-0.043008000,0.000000000,0.000000000,1720621643.420944214,,,,,,,,,,,
1720621643.436550,0.029172000,0.000000000,0.000000000,-1.195502000,0.000000000,0.000000000,1.010152000,0.000000000,0.000000000,0.043776000,0.000000000,0.000000000,0.237792000,0.000000000,0.000000000,-0.042784000,0.000000000,0.000000000,1720621643.424944401,,,,,,,,,,,
1720621643.438060,,,,,,,,,,,,,,,,,,,,1720621643.418944359,-1.186824000,3.141592654,0.000000015,0.829037542,-0.000000022,-0.000000054,0.559192949,1.395152983,0.001110973,1.481517837
1720621643.449937,0.029172000,0.000000000,0.000000000,-1.195502000,0.000000000,0.000000000,1.010152000,0.000000000,0.000000000,0.043840000,0.000000000,0.000000000,0.236320000,0.000000000,0.000000000,-0.043776000,0.000000000,0.000000000,1720621643.437944412,,,,,,,,,,,
1720621643.455159,0.029172000,0.000000000,0.000000000,-1.195502000,0.000000000,0.000000000,1.010152000,0.000000000,0.000000000,0.043776000,0.000000000,0.000000000,0.237376000,0.000000000,0.000000000,-0.041856000,0.000000000,0.000000000,1720621643.442944288,,,,,,,,,,,
1720621643.456791,0.029172000,0.000000000,0.000000000,-1.195502000,0.000000000,0.000000000,1.010152000,0.000000000,0.000000000,0.043840000,0.000000000,0.000000000,0.237664000,0.000000000,0.000000000,-0.044576000,0.000000000,0.000000000,1720621643.444944382,,,,,,,,,,,
1720621643.460829,0.029172000,0.000000000,0.000000000,-1.195502000,0.000000000,0.000000000,1.010152000,0.000000000,0.000000000,0.044128000,0.000000000,0.000000000,0.237312000,0.000000000,0.000000000,-0.040736000,0.000000000,0.000000000,1720621643.448944330,,,,,,,,,,,
1720621643.469375,0.029172000,0.000000000,0.000000000,-1.198197000,0.000000000,0.000000000,1.010152000,0.000000000,0.000000000,0.043712000,0.000000000,0.000000000,0.237120000,0.000000000,0.000000000,-0.041920000,0.000000000,0.000000000,1720621643.456944227,,,,,,,,,,,
1720621643.474018,0.029172000,0.000000000,0.000000000,-1.190112000,0.000000000,0.000000000,1.010152000,0.000000000,0.000000000,0.043712000,0.000000000,0.000000000,0.236544000,0.000000000,0.000000000,-0.044000000,0.000000000,0.000000000,1720621643.461944342,,,,,,,,,,,
1720621643.482162,0.029172000,0.000000000,0.000000000,-1.192807000,0.000000000,0.000000000,1.010152000,0.000000000,0.000000000,0.043712000,0.000000000,0.000000000,0.237472000,0.000000000,0.000000000,-0.044000000,0.000000000,0.000000000,1720621643.469944239,,,,,,,,,,,
1720621643.485888,0.029172000,0.000000000,0.000000000,-1.191190000,0.000000000,0.000000000,1.010152000,0.000000000,0.000000000,0.043712000,0.000000000,0.000000000,0.237120000,0.000000000,0.000000000,-0.041536000,0.000000000,0.000000000,1720621643.473944187,,,,,,,,,,,
1720621643.488024,,,,,,,,,,,,,,,,,,,,1720621643.469944239,-1.186824000,3.141592654,0.000000015,0.829037542,-0.000000022,-0.000000054,0.559192949,1.395152983,0.001110973,1.481517837
1720621643.493642,0.029172000,0.000000000,0.000000000,-1.195502000,0.000000000,0.000000000,1.010152000,0.000000000,0.000000000,0.043712000,0.000000000,0.000000000,0.237536000,0.000000000,0.000000000,-0.042144000,0.000000000,0.000000000,1720621643.480944395,,,,,,,,,,,
1720621643.493707,0.029172000,0.000000000,0.000000000,-1.195502000,0.000000000,0.000000000,1.010152000,0.000000000,0.000000000,0.043712000,0.000000000,0.000000000,0.237536000,0.000000000,0.000000000,-0.042144000,0.000000000,0.000000000,1720621643.481944323,,,,,,,,,,,
1720621643.498160,0.029172000,0.000000000,0.000000000,-1.195502000,0.000000000,0.000000000,1.010152000,0.000000000,0.000000000,0.043712000,0.000000000,0.000000000,0.236384000,0.000000000,0.000000000,-0.043712000,0.000000000,0.000000000,1720621643.485944271,,,,,,,,,,,
1720621643.507029,0.029172000,0.000000000,0.000000000,-1.195502000,0.000000000,0.000000000,1.010152000,0.000000000,0.000000000,0.043776000,0.000000000,0.000000000,0.236992000,0.000000000,0.000000000,-0.043648000,0.000000000,0.000000000,1720621643.492944241,,,,,,,,,,,
1720621643.516020,0.029172000,0.000000000,0.000000000,-1.195502000,0.000000000,0.000000000,1.010152000,0.000000000,0.000000000,0.043776000,0.000000000,0.000000000,0.237472000,0.000000000,0.000000000,-0.043712000,0.000000000,0.000000000,1720621643.513897181,,,,,,,,,,,
1720621643.525316,0.029172000,0.000000000,0.000000000,-1.195502000,0.000000000,0.000000000,1.010152000,0.000000000,0.000000000,0.043840000,0.000000000,0.000000000,0.237056000,0.000000000,0.000000000,-0.041536000,0.000000000,0.000000000,1720621643.523897171,,,,,,,,,,,
1720621643.525783,0.029172000,0.000000000,0.000000000,-1.195502000,0.000000000,0.000000000,1.010152000,0.000000000,0.000000000,0.043840000,0.000000000,0.000000000,0.237056000,0.000000000,0.000000000,-0.041536000,0.000000000,0.000000000,1720621643.524897099,,,,,,,,,,,
1720621643.527059,0.029172000,0.000000000,0.000000000,-1.195502000,0.000000000,0.000000000,1.010152000,0.000000000,0.000000000,0.043840000,0.000000000,0.000000000,0.237056000,0.000000000,0.000000000,-0.041536000,0.000000000,0.000000000,1720621643.525897264,,,,,,,,,,,
1720621643.528031,,,,,,,,,,,,,,,,,,,,1720621643.523897171,-1.186824000,3.141592654,0.000000015,0.829037542,-0.000000022,-0.000000054,0.559192949,1.395152983,0.001110973,1.481517837
1720621643.529015,0.029172000,0.000000000,0.000000000,-1.195502000,0.000000000,0.000000000,1.010152000,0.000000000,0.000000000,0.043776000,0.000000000,0.000000000,0.237376000,0.000000000,0.000000000,-0.044000000,0.000000000,0.000000000,1720621643.527897120,,,,,,,,,,,
1720621643.529995,0.029172000,0.000000000,0.000000000,-1.195502000,0.000000000,0.000000000,1.010152000,0.000000000,0.000000000,0.043776000,0.000000000,0.000000000,0.237376000,0.000000000,0.000000000,-0.044000000,0.000000000,0.000000000,1720621643.528897285,,,,,,,,,,,
1720621643.533719,0.029172000,0.000000000,0.000000000,-1.195502000,0.000000000,0.000000000,1.010152000,0.000000000,0.000000000,0.043776000,0.000000000,0.000000000,0.237376000,0.000000000,0.000000000,-0.042336000,0.000000000,0.000000000,1720621643.532897234,,,,,,,,,,,
1720621643.540943,0.029172000,0.000000000,0.000000000,-1.192268000,0.000000000,0.000000000,1.010152000,0.000000000,0.000000000,0.043776000,0.000000000,0.000000000,0.236672000,0.000000000,0.000000000,-0.042720000,0.000000000,0.000000000,1720621643.539897203,,,,,,,,,,,
1720621643.542578,0.029172000,0.000000000,0.000000000,-1.192268000,0.000000000,0.000000000,1.010152000,0.000000000,0.000000000,0.043776000,0.000000000,0.000000000,0.236672000,0.000000000,0.000000000,-0.042720000,0.000000000,0.000000000,1720621643.540897131,,,,,,,,,,,
1720621643.546941,0.029172000,0.000000000,0.000000000,-1.193885000,0.000000000,0.000000000,1.010152000,0.000000000,0.000000000,0.043776000,0.000000000,0.000000000,0.236864000,0.000000000,0.000000000,-0.043008000,0.000000000,0.000000000,1720621643.545897245,,,,,,,,,,,
1720621643.554120,0.029172000,0.000000000,0.000000000,-1.193885000,0.000000000,0.000000000,1.010152000,0.000000000,0.000000000,0.043776000,0.000000000,0.000000000,0.237472000,0.000000000,0.000000000,-0.042912000,0.000000000,0.000000000,1720621643.552897215,,,,,,,,,,,
1720621643.556018,0.029172000,0.000000000,0.000000000,-1.193885000,0.000000000,0.000000000,1.010152000,0.000000000,0.000000000,0.043776000,0.000000000,0.000000000,0.237472000,0.000000000,0.000000000,-0.042912000,0.000000000,0.000000000,1720621643.553897142,,,,,,,,,,,
1720621643.565284,0.029172000,0.000000000,0.000000000,-1.194963000,0.000000000,0.000000000,1.010152000,0.000000000,0.000000000,0.043776000,0.000000000,0.000000000,0.237120000,0.000000000,0.000000000,-0.042656000,0.000000000,0.000000000,1720621643.563897133,,,,,,,,,,,
1720621643.565949,0.029172000,0.000000000,0.000000000,-1.194963000,0.000000000,0.000000000,1.010152000,0.000000000,0.000000000,0.043776000,0.000000000,0.000000000,0.237120000,0.000000000,0.000000000,-0.042656000,0.000000000,0.000000000,1720621643.564897299,,,,,,,,,,,
1720621643.567074,0.029172000,0.000000000,0.000000000,-1.194963000,0.000000000,0.000000000,1.010152000,0.000000000,0.000000000,0.043776000,0.000000000,0.000000000,0.237120000,0.000000000,0.000000000,-0.042656000,0.000000000,0.000000000,1720621643.565897226,,,,,,,,,,,
1720621643.568931,0.029172000,0.000000000,0.000000000,-1.194963000,0.000000000,0.000000000,1.010152000,0.000000000,0.000000000,0.043776000,0.000000000,0.000000000,0.237472000,0.000000000,0.000000000,-0.042848000,0.000000000,0.000000000,1720621643.567897081,,,,,,,,,,,
1720621643.578051,0.029172000,0.000000000,0.000000000,-1.196580000,0.000000000,0.000000000,1.010152000,0.000000000,0.000000000,0.044128000,0.000000000,0.000000000,0.238112000,0.000000000,0.000000000,-0.043136000,0.000000000,0.000000000,1720621643.571897268,,,,,,,,,,,
1720621643.581040,0.029172000,0.000000000,0.000000000,-1.193885000,0.000000000,0.000000000,1.010152000,0.000000000,0.000000000,0.043776000,0.000000000,0.000000000,0.237184000,0.000000000,0.000000000,-0.043520000,0.000000000,0.000000000,1720621643.579897165,,,,,,,,,,,
1720621643.584977,0.029172000,0.000000000,0.000000000,-1.192807000,0.000000000,0.000000000,1.010152000,0.000000000,0.000000000,0.043776000,0.000000000,0.000000000,0.237184000,0.000000000,0.000000000,-0.042048000,0.000000000,0.000000000,1720621643.583897114,,,,,,,,,,,
1720621643.587964,,,,,,,,,,,,,,,,,,,,1720621643.579897165,-1.186824000,3.141592654,0.000000015,0.829037542,-0.000000022,-0.000000054,0.559192949,1.395152983,0.001110973,1.481517837
1720621643.593885,0.029172000,0.000000000,0.000000000,-1.192807000,0.000000000,0.000000000,1.010152000,0.000000000,0.000000000,0.043776000,0.000000000,0.000000000,0.237184000,0.000000000,0.000000000,-0.042464000,0.000000000,0.000000000,1720621643.591897249,,,,,,,,,,,
1720621643.596025,0.029172000,0.000000000,0.000000000,-1.192807000,0.000000000,0.000000000,1.010152000,0.000000000,0.000000000,0.043776000,0.000000000,0.000000000,0.237376000,0.000000000,0.000000000,-0.043328000,0.000000000,0.000000000,1720621643.594897270,,,,,,,,,,,
1720621643.605333,0.029172000,0.000000000,0.000000000,-1.193885000,0.000000000,0.000000000,1.010152000,0.000000000,0.000000000,0.043776000,0.000000000,0.000000000,0.236864000,0.000000000,0.000000000,-0.043136000,0.000000000,0.000000000,1720621643.603897095,,,,,,,,,,,
1720621643.606254,0.029172000,0.000000000,0.000000000,-1.193885000,0.000000000,0.000000000,1.010152000,0.000000000,0.000000000,0.043776000,0.000000000,0.000000000,0.236864000,0.000000000,0.000000000,-0.043136000,0.000000000,0.000000000,1720621643.604897261,,,,,,,,,,,
1720621643.607190,0.029172000,0.000000000,0.000000000,-1.193885000,0.000000000,0.000000000,1.010152000,0.000000000,0.000000000,0.043776000,0.000000000,0.000000000,0.236864000,0.000000000,0.000000000,-0.043136000,0.000000000,0.000000000,1720621643.605897188,,,,,,,,,,,
1720621643.618191,0.029172000,0.000000000,0.000000000,-1.199275000,0.000000000,0.000000000,1.010152000,0.000000000,0.000000000,0.043840000,0.000000000,0.000000000,0.237312000,0.000000000,0.000000000,-0.043136000,0.000000000,0.000000000,1720621643.611897230,,,,,,,,,,,
1720621643.619239,0.029172000,0.000000000,0.000000000,-1.198197000,0.000000000,0.000000000,1.010152000,0.000000000,0.000000000,0.043840000,0.000000000,0.000000000,0.236736000,0.000000000,0.000000000,-0.042400000,0.000000000,0.000000000,1720621643.617897272,,,,,,,,,,,
1720621643.629374,0.029172000,0.000000000,0.000000000,-1.174481000,0.000000000,0.000000000,1.010152000,0.000000000,0.000000000,0.043840000,0.000000000,0.000000000,0.237120000,0.000000000,0.000000000,-0.042656000,0.000000000,0.000000000,1720621643.627897263,,,,,,,,,,,
1720621643.630313,0.029172000,0.000000000,0.000000000,-1.174481000,0.000000000,0.000000000,1.010152000,0.000000000,0.000000000,0.043840000,0.000000000,0.000000000,0.237120000,0.000000000,0.000000000,-0.042656000,0.000000000,0.000000000,1720621643.628897190,,,,,,,,,,,
1720621643.633394,0.029172000,0.000000000,0.000000000,-1.188495000,0.000000000,0.000000000,1.010152000,0.000000000,0.000000000,0.043840000,0.000000000,0.000000000,0.237984000,0.000000000,0.000000000,-0.043072000,0.000000000,0.000000000,1720621643.631897211,,,,,,,,,,,
1720621643.636753,0.029172000,0.000000000,0.000000000,-1.193885000,0.000000000,0.000000000,1.010152000,0.000000000,0.000000000,0.043776000,0.000000000,0.000000000,0.236864000,0.000000000,0.000000000,-0.042848000,0.000000000,0.000000000,1720621643.635897160,,,,,,,,,,,
1720621643.637897,,,,,,,,,,,,,,,,,,,,1720621643.631897211,-1.186824000,3.141592654,0.000000015,0.829037542,-0.000000022,-0.000000054,0.559192949,1.395152983,0.001110973,1.481517837
1720621643.645429,0.029172000,0.000000000,0.000000000,-1.197119000,0.000000000,0.000000000,1.010152000,0.000000000,0.000000000,0.043776000,0.000000000,0.000000000,0.237536000,0.000000000,0.000000000,-0.042912000,0.000000000,0.000000000,1720621643.643897295,,,,,,,,,,,
1720621643.648887,0.029172000,0.000000000,0.000000000,-1.187417000,0.000000000,0.000000000,1.010152000,0.000000000,0.000000000,0.043776000,0.000000000,0.000000000,0.237376000,0.000000000,0.000000000,-0.042528000,0.000000000,0.000000000,1720621643.647897243,,,,,,,,,,,
1720621643.657303,0.029172000,0.000000000,0.000000000,-1.192268000,0.000000000,0.000000000,1.010152000,0.000000000,0.000000000,0.043776000,0.000000000,0.000000000,0.237376000,0.000000000,0.000000000,-0.042912000,0.000000000,0.000000000,1720621643.655897141,,,,,,,,,,,
1720621643.661045,0.029172000,0.000000000,0.000000000,-1.192268000,0.000000000,0.000000000,1.010152000,0.000000000,0.000000000,0.043776000,0.000000000,0.000000000,0.237312000,0.000000000,0.000000000,-0.042336000,0.000000000,0.000000000,1720621643.659897089,,,,,,,,,,,
1720621643.669710,0.029172000,0.000000000,0.000000000,-1.192807000,0.000000000,0.000000000,1.010152000,0.000000000,0.000000000,0.043840000,0.000000000,0.000000000,0.237056000,0.000000000,0.000000000,-0.041728000,0.000000000,0.000000000,1720621643.667897224,,,,,,,,,,,
1720621643.672988,0.029172000,0.000000000,0.000000000,-1.193885000,0.000000000,0.000000000,1.010152000,0.000000000,0.000000000,0.043776000,0.000000000,0.000000000,0.238112000,0.000000000,0.000000000,-0.043936000,0.000000000,0.000000000,1720621643.671897173,,,,,,,,,,,
1720621643.681624,0.029172000,0.000000000,0.000000000,-1.193885000,0.000000000,0.000000000,1.010152000,0.000000000,0.000000000,0.043776000,0.000000000,0.000000000,0.236800000,0.000000000,0.000000000,-0.043936000,0.000000000,0.000000000,1720621643.679897308,,,,,,,,,,,
1720621643.685383,0.029172000,0.000000000,0.000000000,-1.194963000,0.000000000,0.000000000,1.010152000,0.000000000,0.000000000,0.043776000,0.000000000,0.000000000,0.237792000,0.000000000,0.000000000,-0.041344000,0.000000000,0.000000000,1720621643.683897257,,,,,,,,,,,
1720621643.687908,,,,,,,,,,,,,,,,,,,,1720621643.683897257,-1.186824000,3.141592654,0.000000015,0.829037542,-0.000000022,-0.000000054,0.559192949,1.395152983,0.001110973,1.481517837
1720621643.693752,0.029172000,0.000000000,0.000000000,-1.194963000,0.000000000,0.000000000,1.010152000,0.000000000,0.000000000,0.043776000,0.000000000,0.000000000,0.237248000,0.000000000,0.000000000,-0.041856000,0.000000000,0.000000000,1720621643.691897154,,,,,,,,,,,
1720621643.696213,0.029172000,0.000000000,0.000000000,-1.194963000,0.000000000,0.000000000,1.010152000,0.000000000,0.000000000,0.043776000,0.000000000,0.000000000,0.237536000,0.000000000,0.000000000,-0.043200000,0.000000000,0.000000000,1720621643.694897175,,,,,,,,,,,
1720621643.704750,0.029172000,0.000000000,0.000000000,-1.186878000,0.000000000,0.000000000,1.010152000,0.000000000,0.000000000,0.043840000,0.000000000,0.000000000,0.237184000,0.000000000,0.000000000,-0.043008000,0.000000000,0.000000000,1720621643.702897310,,,,,,,,,,,
1720621643.705718,0.029172000,0.000000000,0.000000000,-1.186878000,0.000000000,0.000000000,1.010152000,0.000000000,0.000000000,0.043840000,0.000000000,0.000000000,0.237184000,0.000000000,0.000000000,-0.043008000,0.000000000,0.000000000,1720621643.703897238,,,,,,,,,,,
1720621643.709170,0.029172000,0.000000000,0.000000000,-1.192268000,0.000000000,0.000000000,1.010152000,0.000000000,0.000000000,0.043776000,0.000000000,0.000000000,0.237120000,0.000000000,0.000000000,-0.042464000,0.000000000,0.000000000,1720621643.707897186,,,,,,,,,,,
1720621643.716615,0.029172000,0.000000000,0.000000000,-1.192807000,0.000000000,0.000000000,1.010152000,0.000000000,0.000000000,0.043776000,0.000000000,0.000000000,0.237312000,0.000000000,0.000000000,-0.042720000,0.000000000,0.000000000,1720621643.714897156,,,,,,,,,,,
1720621643.717737,0.029172000,0.000000000,0.000000000,-1.192807000,0.000000000,0.000000000,1.010152000,0.000000000,0.000000000,0.043776000,0.000000000,0.000000000,0.237312000,0.000000000,0.000000000,-0.042720000,0.000000000,0.000000000,1720621643.715897083,,,,,,,,,,,
1720621643.721011,0.029172000,0.000000000,0.000000000,-1.183105000,0.000000000,0.000000000,1.010152000,0.000000000,0.000000000,0.043776000,0.000000000,0.000000000,0.236864000,0.000000000,0.000000000,-0.042784000,0.000000000,0.000000000,1720621643.719897270,,,,,,,,,,,
1720621643.728167,0.029172000,0.000000000,0.000000000,-1.190112000,0.000000000,0.000000000,1.010152000,0.000000000,0.000000000,0.043776000,0.000000000,0.000000000,0.236992000,0.000000000,0.000000000,-0.043456000,0.000000000,0.000000000,1720621643.726897240,,,,,,,,,,,
1720621643.729635,0.029172000,0.000000000,0.000000000,-1.190112000,0.000000000,0.000000000,1.010152000,0.000000000,0.000000000,0.043776000,0.000000000,0.000000000,0.236992000,0.000000000,0.000000000,-0.043456000,0.000000000,0.000000000,1720621643.727897167,,,,,,,,,,,
1720621643.733328,0.029172000,0.000000000,0.000000000,-1.194963000,0.000000000,0.000000000,1.010152000,0.000000000,0.000000000,0.043776000,0.000000000,0.000000000,0.237120000,0.000000000,0.000000000,-0.042336000,0.000000000,0.000000000,1720621643.731897116,,,,,,,,,,,
1720621643.740616,0.029172000,0.000000000,0.000000000,-1.209516000,0.000000000,0.000000000,1.010152000,0.000000000,0.000000000,0.044192000,0.000000000,0.000000000,0.237600000,0.000000000,0.000000000,-0.042048000,0.000000000,0.000000000,1720621643.738897085,,,,,,,,,,,
1720621643.741481,0.029172000,0.000000000,0.000000000,-1.209516000,0.000000000,0.000000000,1.010152000,0.000000000,0.000000000,0.044192000,0.000000000,0.000000000,0.237600000,0.000000000,0.000000000,-0.042048000,0.000000000,0.000000000,1720621643.739897251,,,,,,,,,,,
1720621643.745688,0.029172000,0.000000000,0.000000000,-1.169091000,0.000000000,0.000000000,1.010152000,0.000000000,0.000000000,0.043840000,0.000000000,0.000000000,0.236800000,0.000000000,0.000000000,-0.043072000,0.000000000,0.000000000,1720621643.743897200,,,,,,,,,,,
1720621643.747946,,,,,,,,,,,,,,,,,,,,1720621643.738897085,-1.186824000,3.141592654,0.000000015,0.829037542,-0.000000022,-0.000000054,0.559192949,1.395152983,0.001110973,1.481517837
1720621643.752883,0.029172000,0.000000000,0.000000000,-1.177176000,0.000000000,0.000000000,0.990990000,0.000000000,0.000000000,0.043840000,0.000000000,0.000000000,0.236736000,0.000000000,0.000000000,-0.042464000,0.000000000,0.000000000,1720621643.750897169,,,,,,,,,,,
1720621643.753588,0.029172000,0.000000000,0.000000000,-1.177176000,0.000000000,0.000000000,0.990990000,0.000000000,0.000000000,0.043840000,0.000000000,0.000000000,0.236736000,0.000000000,0.000000000,-0.042464000,0.000000000,0.000000000,1720621643.751897097,,,,,,,,,,,
1720621643.756987,0.029172000,0.000000000,0.000000000,-1.192268000,0.000000000,0.000000000,1.010724000,0.000000000,0.000000000,0.043776000,0.000000000,0.000000000,0.237248000,0.000000000,0.000000000,-0.043456000,0.000000000,0.000000000,1720621643.755897284,,,,,,,,,,,
1720621643.764390,0.029172000,0.000000000,0.000000000,-1.195502000,0.000000000,0.000000000,1.010724000,0.000000000,0.000000000,0.043776000,0.000000000,0.000000000,0.237312000,0.000000000,0.000000000,-0.042592000,0.000000000,0.000000000,1720621643.762897253,,,,,,,,,,,
1720621643.765722,0.029172000,0.000000000,0.000000000,-1.195502000,0.000000000,0.000000000,1.010724000,0.000000000,0.000000000,0.043776000,0.000000000,0.000000000,0.237312000,0.000000000,0.000000000,-0.042592000,0.000000000,0.000000000,1720621643.763897181,,,,,,,,,,,
1720621643.769531,0.029172000,0.000000000,0.000000000,-1.195502000,0.000000000,0.000000000,1.010724000,0.000000000,0.000000000,0.043776000,0.000000000,0.000000000,0.236928000,0.000000000,0.000000000,-0.043136000,0.000000000,0.000000000,1720621643.767897129,,,,,,,,,,,
1720621643.776444,0.029172000,0.000000000,0.000000000,-1.224069000,0.000000000,0.000000000,1.010152000,0.000000000,0.000000000,0.043840000,0.000000000,0.000000000,0.237312000,0.000000000,0.000000000,-0.041984000,0.000000000,0.000000000,1720621643.774897099,,,,,,,,,,,
1720621643.777763,0.029172000,0.000000000,0.000000000,-1.224069000,0.000000000,0.000000000,1.010152000,0.000000000,0.000000000,0.043840000,0.000000000,0.000000000,0.237312000,0.000000000,0.000000000,-0.041984000,0.000000000,0.000000000,1720621643.775897264,,,,,,,,,,,
1720621643.781353,0.029172000,0.000000000,0.000000000,-1.192807000,0.000000000,0.000000000,1.010152000,0.000000000,0.000000000,0.043776000,0.000000000,0.000000000,0.237248000,0.000000000,0.000000000,-0.043776000,0.000000000,0.000000000,1720621643.779897213,,,,,,,,,,,
1720621643.788372,0.029172000,0.000000000,0.000000000,-1.193885000,0.000000000,0.000000000,1.010152000,0.000000000,0.000000000,0.043776000,0.000000000,0.000000000,0.236736000,0.000000000,0.000000000,-0.043584000,0.000000000,0.000000000,1720621643.786897182,,,,,,,,,,,
1720621643.789735,0.029172000,0.000000000,0.000000000,-1.193885000,0.000000000,0.000000000,1.010152000,0.000000000,0.000000000,0.043776000,0.000000000,0.000000000,0.236736000,0.000000000,0.000000000,-0.043584000,0.000000000,0.000000000,1720621643.787897110,,,,,,,,,,,
1720621643.793545,0.029172000,0.000000000,0.000000000,-1.191190000,0.000000000,0.000000000,1.010152000,0.000000000,0.000000000,0.043776000,0.000000000,0.000000000,0.237728000,0.000000000,0.000000000,-0.042464000,0.000000000,0.000000000,1720621643.791897297,,,,,,,,,,,
1720621643.797971,,,,,,,,,,,,,,,,,,,,1720621643.791897297,-1.186824000,3.141592654,0.000000015,0.829037542,-0.000000022,-0.000000054,0.559192949,1.395152983,0.001110973,1.481517837
1720621643.800362,0.029172000,0.000000000,0.000000000,-1.219218000,0.000000000,0.000000000,1.010152000,0.000000000,0.000000000,0.043776000,0.000000000,0.000000000,0.236992000,0.000000000,0.000000000,-0.042464000,0.000000000,0.000000000,1720621643.798897266,,,,,,,,,,,
1720621643.802952,0.029172000,0.000000000,0.000000000,-1.219218000,0.000000000,0.000000000,1.010152000,0.000000000,0.000000000,0.043776000,0.000000000,0.000000000,0.236992000,0.000000000,0.000000000,-0.042464000,0.000000000,0.000000000,1720621643.800897121,,,,,,,,,,,
1720621643.806355,0.029172000,0.000000000,0.000000000,-1.192268000,0.000000000,0.000000000,1.010152000,0.000000000,0.000000000,0.043776000,0.000000000,0.000000000,0.237536000,0.000000000,0.000000000,-0.043520000,0.000000000,0.000000000,1720621643.804897308,,,,,,,,,,,
1720621643.820192,0.029172000,0.000000000,0.000000000,-1.172864000,0.000000000,0.000000000,1.010152000,0.000000000,0.000000000,0.043776000,0.000000000,0.000000000,0.237472000,0.000000000,0.000000000,-0.044128000,0.000000000,0.000000000,1720621643.817897081,,,,,,,,,,,
1720621643.826785,0.029172000,0.000000000,0.000000000,-1.196580000,0.000000000,0.000000000,1.010152000,0.000000000,0.000000000,0.043776000,0.000000000,0.000000000,0.236928000,0.000000000,0.000000000,-0.041536000,0.000000000,0.000000000,1720621643.824897289,,,,,,,,,,,
1720621643.828552,0.029172000,0.000000000,0.000000000,-1.196580000,0.000000000,0.000000000,1.010152000,0.000000000,0.000000000,0.043776000,0.000000000,0.000000000,0.237536000,0.000000000,0.000000000,-0.044256000,0.000000000,0.000000000,1720621643.826897144,,,,,,,,,,,
1720621643.832024,0.029172000,0.000000000,0.000000000,-1.196580000,0.000000000,0.000000000,1.010152000,0.000000000,0.000000000,0.043712000,0.000000000,0.000000000,0.236928000,0.000000000,0.000000000,-0.041536000,0.000000000,0.000000000,1720621643.829897165,,,,,,,,,,,
1720621643.840145,0.029172000,0.000000000,0.000000000,-1.199275000,0.000000000,0.000000000,1.010152000,0.000000000,0.000000000,0.043776000,0.000000000,0.000000000,0.236992000,0.000000000,0.000000000,-0.042144000,0.000000000,0.000000000,1720621643.837897301,,,,,,,,,,,
1720621643.844258,0.029172000,0.000000000,0.000000000,-1.198197000,0.000000000,0.000000000,1.010152000,0.000000000,0.000000000,0.043776000,0.000000000,0.000000000,0.236928000,0.000000000,0.000000000,-0.043328000,0.000000000,0.000000000,1720621643.841897249,,,,,,,,,,,
1720621643.847964,,,,,,,,,,,,,,,,,,,,1720621643.841897249,-1.186824000,3.141592654,0.000000015,0.829037542,-0.000000022,-0.000000054,0.559192949,1.395152983,0.001110973,1.481517837
1720621643.850790,0.029172000,0.000000000,0.000000000,-1.197119000,0.000000000,0.000000000,1.010152000,0.000000000,0.000000000,0.043776000,0.000000000,0.000000000,0.237536000,0.000000000,0.000000000,-0.041984000,0.000000000,0.000000000,1720621643.848897219,,,,,,,,,,,
1720621643.852233,0.029172000,0.000000000,0.000000000,-1.196580000,0.000000000,0.000000000,1.010152000,0.000000000,0.000000000,0.043776000,0.000000000,0.000000000,0.237312000,0.000000000,0.000000000,-0.043712000,0.000000000,0.000000000,1720621643.849897146,,,,,,,,,,,
1720621643.856965,0.029172000,0.000000000,0.000000000,-1.195502000,0.000000000,0.000000000,1.010152000,0.000000000,0.000000000,0.043776000,0.000000000,0.000000000,0.237184000,0.000000000,0.000000000,-0.042272000,0.000000000,0.000000000,1720621643.854897261,,,,,,,,,,,
1720621643.862769,0.029172000,0.000000000,0.000000000,-1.185261000,0.000000000,0.000000000,1.010152000,0.000000000,0.000000000,0.043776000,0.000000000,0.000000000,0.237248000,0.000000000,0.000000000,-0.043584000,0.000000000,0.000000000,1720621643.860897303,,,,,,,,,,,
1720621643.864913,0.029172000,0.000000000,0.000000000,-1.194963000,0.000000000,0.000000000,1.010152000,0.000000000,0.000000000,0.043776000,0.000000000,0.000000000,0.237792000,0.000000000,0.000000000,-0.042208000,0.000000000,0.000000000,1720621643.862897158,,,,,,,,,,,
1720621643.868395,0.029172000,0.000000000,0.000000000,-1.185800000,0.000000000,0.000000000,1.010152000,0.000000000,0.000000000,0.043776000,0.000000000,0.000000000,0.236992000,0.000000000,0.000000000,-0.043456000,0.000000000,0.000000000,1720621643.866897106,,,,,,,,,,,
1720621643.877524,0.029172000,0.000000000,0.000000000,-1.189573000,0.000000000,0.000000000,1.010152000,0.000000000,0.000000000,0.043776000,0.000000000,0.000000000,0.237664000,0.000000000,0.000000000,-0.042592000,0.000000000,0.000000000,1720621643.875897169,,,,,,,,,,,
1720621643.887978,0.029172000,0.000000000,0.000000000,-1.189573000,0.000000000,0.000000000,1.010152000,0.000000000,0.000000000,0.043776000,0.000000000,0.000000000,0.237248000,0.000000000,0.000000000,-0.043136000,0.000000000,0.000000000,1720621643.885897160,,,,,,,,,,,
1720621643.898715,0.029172000,0.000000000,0.000000000,-1.193885000,0.000000000,0.000000000,1.010152000,0.000000000,0.000000000,0.043776000,0.000000000,0.000000000,0.237120000,0.000000000,0.000000000,-0.043392000,0.000000000,0.000000000,1720621643.894897223,,,,,,,,,,,
1720621643.908019,,,,,,,,,,,,,,,,,,,,1720621643.894897223,-1.186824000,3.141592654,0.000000015,0.829037542,-0.000000022,-0.000000054,0.559192949,1.395152983,0.001110973,1.481517837
1720621643.909712,0.029172000,0.000000000,0.000000000,-1.197119000,0.000000000,0.000000000,1.010152000,0.000000000,0.000000000,0.043776000,0.000000000,0.000000000,0.237120000,0.000000000,0.000000000,-0.041664000,0.000000000,0.000000000,1720621643.907897234,,,,,,,,,,,
1720621643.916801,0.029172000,0.000000000,0.000000000,-1.197119000,0.000000000,0.000000000,1.010152000,0.000000000,0.000000000,0.043776000,0.000000000,0.000000000,0.236992000,0.000000000,0.000000000,-0.041472000,0.000000000,0.000000000,1720621643.914897203,,,,,,,,,,,
1720621643.917927,0.029172000,0.000000000,0.000000000,-1.197119000,0.000000000,0.000000000,1.010152000,0.000000000,0.000000000,0.043776000,0.000000000,0.000000000,0.236992000,0.000000000,0.000000000,-0.041472000,0.000000000,0.000000000,1720621643.915897131,,,,,,,,,,,
1720621643.921596,0.029172000,0.000000000,0.000000000,-1.197119000,0.000000000,0.000000000,1.010152000,0.000000000,0.000000000,0.043776000,0.000000000,0.000000000,0.237376000,0.000000000,0.000000000,-0.044128000,0.000000000,0.000000000,1720621643.919897079,,,,,,,,,,,
1720621643.930030,0.029172000,0.000000000,0.000000000,-1.197119000,0.000000000,0.000000000,1.010152000,0.000000000,0.000000000,0.043776000,0.000000000,0.000000000,0.237664000,0.000000000,0.000000000,-0.042656000,0.000000000,0.000000000,1720621643.927897215,,,,,,,,,,,
1720621643.933676,0.029172000,0.000000000,0.000000000,-1.197119000,0.000000000,0.000000000,1.010152000,0.000000000,0.000000000,0.043776000,0.000000000,0.000000000,0.237056000,0.000000000,0.000000000,-0.043072000,0.000000000,0.000000000,1720621643.931897163,,,,,,,,,,,
1720621643.949862,0.029172000,0.000000000,0.000000000,-1.196580000,0.000000000,0.000000000,1.010152000,0.000000000,0.000000000,0.043776000,0.000000000,0.000000000,0.236992000,0.000000000,0.000000000,-0.042592000,0.000000000,0.000000000,1720621643.942897081,,,,,,,,,,,
1720621643.951084,0.029172000,0.000000000,0.000000000,-1.195502000,0.000000000,0.000000000,1.010152000,0.000000000,0.000000000,0.043776000,0.000000000,0.000000000,0.237536000,0.000000000,0.000000000,-0.043072000,0.000000000,0.000000000,1720621643.948897123,,,,,,,,,,,
1720621643.952146,0.029172000,0.000000000,0.000000000,-1.192807000,0.000000000,0.000000000,1.010152000,0.000000000,0.000000000,0.043776000,0.000000000,0.000000000,0.237056000,0.000000000,0.000000000,-0.042784000,0.000000000,0.000000000,1720621643.949897289,,,,,,,,,,,
1720621643.956953,0.029172000,0.000000000,0.000000000,-1.204665000,0.000000000,0.000000000,1.010152000,0.000000000,0.000000000,0.043776000,0.000000000,0.000000000,0.236448000,0.000000000,0.000000000,-0.042272000,0.000000000,0.000000000,1720621643.954897165,,,,,,,,,,,
1720621643.958081,,,,,,,,,,,,,,,,,,,,1720621643.948897123,-1.186824000,3.141592654,0.000000015,0.829037542,-0.000000022,-0.000000054,0.559192949,1.395152983,0.001110973,1.481517837
1720621643.962969,0.029172000,0.000000000,0.000000000,-1.195502000,0.000000000,0.000000000,1.010152000,0.000000000,0.000000000,0.044192000,0.000000000,0.000000000,0.237600000,0.000000000,0.000000000,-0.043072000,0.000000000,0.000000000,1720621643.960897207,,,,,,,,,,,
1720621643.965255,0.029172000,0.000000000,0.000000000,-1.195502000,0.000000000,0.000000000,1.010152000,0.000000000,0.000000000,0.044192000,0.000000000,0.000000000,0.237056000,0.000000000,0.000000000,-0.042464000,0.000000000,0.000000000,1720621643.962897301,,,,,,,,,,,
1720621643.969776,0.029172000,0.000000000,0.000000000,-1.196580000,0.000000000,0.000000000,1.010152000,0.000000000,0.000000000,0.043776000,0.000000000,0.000000000,0.238176000,0.000000000,0.000000000,-0.043584000,0.000000000,0.000000000,1720621643.967897177,,,,,,,,,,,
1720621643.977004,0.029172000,0.000000000,0.000000000,-1.196580000,0.000000000,0.000000000,1.010152000,0.000000000,0.000000000,0.043776000,0.000000000,0.000000000,0.236608000,0.000000000,0.000000000,-0.043136000,0.000000000,0.000000000,1720621643.974897146,,,,,,,,,,,
1720621643.977754,0.029172000,0.000000000,0.000000000,-1.196580000,0.000000000,0.000000000,1.010152000,0.000000000,0.000000000,0.043776000,0.000000000,0.000000000,0.236608000,0.000000000,0.000000000,-0.043136000,0.000000000,0.000000000,1720621643.975897312,,,,,,,,,,,
1720621643.982500,0.029172000,0.000000000,0.000000000,-1.195502000,0.000000000,0.000000000,1.010152000,0.000000000,0.000000000,0.043776000,0.000000000,0.000000000,0.237792000,0.000000000,0.000000000,-0.042464000,0.000000000,0.000000000,1720621643.980897188,,,,,,,,,,,
1720621643.990620,0.029172000,0.000000000,0.000000000,-1.195502000,0.000000000,0.000000000,1.010152000,0.000000000,0.000000000,0.043776000,0.000000000,0.000000000,0.237184000,0.000000000,0.000000000,-0.042400000,0.000000000,0.000000000,1720621643.987897158,,,,,,,,,,,
1720621643.990686,0.029172000,0.000000000,0.000000000,-1.195502000,0.000000000,0.000000000,1.010152000,0.000000000,0.000000000,0.043776000,0.000000000,0.000000000,0.237184000,0.000000000,0.000000000,-0.042400000,0.000000000,0.000000000,1720621643.988897085,,,,,,,,,,,
1720621643.996611,0.029172000,0.000000000,0.000000000,-1.195502000,0.000000000,0.000000000,1.010152000,0.000000000,0.000000000,0.043776000,0.000000000,0.000000000,0.237120000,0.000000000,0.000000000,-0.043008000,0.000000000,0.000000000,1720621643.994897127,,,,,,,,,,,
1720621644.002974,0.029172000,0.000000000,0.000000000,-1.195502000,0.000000000,0.000000000,1.010152000,0.000000000,0.000000000,0.043712000,0.000000000,0.000000000,0.236928000,0.000000000,0.000000000,-0.042400000,0.000000000,0.000000000,1720621644.000897169,,,,,,,,,,,
1720621644.005413,0.029172000,0.000000000,0.000000000,-1.195502000,0.000000000,0.000000000,1.010152000,0.000000000,0.000000000,0.043776000,0.000000000,0.000000000,0.237376000,0.000000000,0.000000000,-0.043392000,0.000000000,0.000000000,1720621644.002897263,,,,,,,,,,,
1720621644.007807,,,,,,,,,,,,,,,,,,,,1720621644.000897169,-1.186824000,3.141592654,0.000000015,0.829037542,-0.000000022,-0.000000054,0.559192949,1.395152983,0.001110973,1.481517837
1720621644.013767,0.029172000,0.000000000,0.000000000,-1.198197000,0.000000000,0.000000000,1.010152000,0.000000000,0.000000000,0.044128000,0.000000000,0.000000000,0.236672000,0.000000000,0.000000000,-0.042464000,0.000000000,0.000000000,1720621644.007897139,,,,,,,,,,,
1720621644.016708,0.029172000,0.000000000,0.000000000,-1.196580000,0.000000000,0.000000000,1.010152000,0.000000000,0.000000000,0.043776000,0.000000000,0.000000000,0.236992000,0.000000000,0.000000000,-0.042272000,0.000000000,0.000000000,1720621644.014897108,,,,,,,,,,,
1720621644.017883,0.029172000,0.000000000,0.000000000,-1.196580000,0.000000000,0.000000000,1.010152000,0.000000000,0.000000000,0.043776000,0.000000000,0.000000000,0.236992000,0.000000000,0.000000000,-0.042272000,0.000000000,0.000000000,1720621644.015897274,,,,,,,,,,,
1720621644.021744,0.029172000,0.000000000,0.000000000,-1.196580000,0.000000000,0.000000000,1.010152000,0.000000000,0.000000000,0.043776000,0.000000000,0.000000000,0.237376000,0.000000000,0.000000000,-0.043520000,0.000000000,0.000000000,1720621644.019897223,,,,,,,,,,,
1720621644.028926,0.029172000,0.000000000,0.000000000,-1.196580000,0.000000000,0.000000000,1.010152000,0.000000000,0.000000000,0.043776000,0.000000000,0.000000000,0.236928000,0.000000000,0.000000000,-0.043456000,0.000000000,0.000000000,1720621644.026897192,,,,,,,,,,,
1720621644.030599,0.029172000,0.000000000,0.000000000,-1.196580000,0.000000000,0.000000000,1.010152000,0.000000000,0.000000000,0.043776000,0.000000000,0.000000000,0.236928000,0.000000000,0.000000000,-0.043456000,0.000000000,0.000000000,1720621644.027897120,,,,,,,,,,,
1720621644.033874,0.029172000,0.000000000,0.000000000,-1.196580000,0.000000000,0.000000000,1.010152000,0.000000000,0.000000000,0.044192000,0.000000000,0.000000000,0.236928000,0.000000000,0.000000000,-0.042528000,0.000000000,0.000000000,1720621644.031897306,,,,,,,,,,,
1720621644.041287,0.029172000,0.000000000,0.000000000,-1.195502000,0.000000000,0.000000000,1.010152000,0.000000000,0.000000000,0.043776000,0.000000000,0.000000000,0.237664000,0.000000000,0.000000000,-0.042528000,0.000000000,0.000000000,1720621644.038897276,,,,,,,,,,,
1720621644.042068,0.029172000,0.000000000,0.000000000,-1.195502000,0.000000000,0.000000000,1.010152000,0.000000000,0.000000000,0.043776000,0.000000000,0.000000000,0.237664000,0.000000000,0.000000000,-0.042528000,0.000000000,0.000000000,1720621644.039897203,,,,,,,,,,,
1720621644.045806,0.029172000,0.000000000,0.000000000,-1.195502000,0.000000000,0.000000000,1.010152000,0.000000000,0.000000000,0.043776000,0.000000000,0.000000000,0.237120000,0.000000000,0.000000000,-0.043072000,0.000000000,0.000000000,1720621644.043897152,,,,,,,,,,,
1720621644.053202,0.029172000,0.000000000,0.000000000,-1.192807000,0.000000000,0.000000000,1.010152000,0.000000000,0.000000000,0.043776000,0.000000000,0.000000000,0.236864000,0.000000000,0.000000000,-0.042912000,0.000000000,0.000000000,1720621644.050897121,,,,,,,,,,,
1720621644.054026,0.029172000,0.000000000,0.000000000,-1.192807000,0.000000000,0.000000000,1.010152000,0.000000000,0.000000000,0.043776000,0.000000000,0.000000000,0.236864000,0.000000000,0.000000000,-0.042912000,0.000000000,0.000000000,1720621644.051897287,,,,,,,,,,,
1720621644.057933,,,,,,,,,,,,,,,,,,,,1720621644.050897121,-1.186824000,3.141592654,0.000000015,0.829037542,-0.000000022,-0.000000054,0.559192949,1.395152983,0.001110973,1.481517837
1720621644.058772,0.029172000,0.000000000,0.000000000,-1.157772000,0.000000000,0.000000000,1.010152000,0.000000000,0.000000000,0.043776000,0.000000000,0.000000000,0.237312000,0.000000000,0.000000000,-0.042912000,0.000000000,0.000000000,1720621644.056897163,,,,,,,,,,,
1720621644.066238,0.029172000,0.000000000,0.000000000,-1.192268000,0.000000000,0.000000000,1.010152000,0.000000000,0.000000000,0.043776000,0.000000000,0.000000000,0.237120000,0.000000000,0.000000000,-0.042336000,0.000000000,0.000000000,1720621644.063897133,,,,,,,,,,,
1720621644.067077,0.029172000,0.000000000,0.000000000,-1.192268000,0.000000000,0.000000000,1.010152000,0.000000000,0.000000000,0.043776000,0.000000000,0.000000000,0.237120000,0.000000000,0.000000000,-0.042336000,0.000000000,0.000000000,1720621644.064897299,,,,,,,,,,,
1720621644.076830,0.029172000,0.000000000,0.000000000,-1.192807000,0.000000000,0.000000000,1.010152000,0.000000000,0.000000000,0.043456000,0.000000000,0.000000000,0.237536000,0.000000000,0.000000000,-0.043008000,0.000000000,0.000000000,1720621644.070897102,,,,,,,,,,,
1720621644.079061,0.029172000,0.000000000,0.000000000,-1.193885000,0.000000000,0.000000000,1.010152000,0.000000000,0.000000000,0.043776000,0.000000000,0.000000000,0.237376000,0.000000000,0.000000000,-0.042720000,0.000000000,0.000000000,1720621644.076897144,,,,,,,,,,,
1720621644.081302,0.029172000,0.000000000,0.000000000,-1.194963000,0.000000000,0.000000000,1.010152000,0.000000000,0.000000000,0.043840000,0.000000000,0.000000000,0.237664000,0.000000000,0.000000000,-0.043136000,0.000000000,0.000000000,1720621644.078897238,,,,,,,,,,,
1720621644.085458,0.029172000,0.000000000,0.000000000,-1.195502000,0.000000000,0.000000000,1.010152000,0.000000000,0.000000000,0.043776000,0.000000000,0.000000000,0.237312000,0.000000000,0.000000000,-0.042720000,0.000000000,0.000000000,1720621644.082897186,,,,,,,,,,,
1720621644.093007,0.029172000,0.000000000,0.000000000,-1.185800000,0.000000000,0.000000000,1.010152000,0.000000000,0.000000000,0.043776000,0.000000000,0.000000000,0.237120000,0.000000000,0.000000000,-0.042720000,0.000000000,0.000000000,1720621644.090897083,,,,,,,,,,,
1720621644.096754,0.029172000,0.000000000,0.000000000,-1.195502000,0.000000000,0.000000000,1.010152000,0.000000000,0.000000000,0.043776000,0.000000000,0.000000000,0.236800000,0.000000000,0.000000000,-0.043136000,0.000000000,0.000000000,1720621644.094897270,,,,,,,,,,,
1720621644.105636,0.029172000,0.000000000,0.000000000,-1.194963000,0.000000000,0.000000000,1.010152000,0.000000000,0.000000000,0.043776000,0.000000000,0.000000000,0.237312000,0.000000000,0.000000000,-0.043264000,0.000000000,0.000000000,1720621644.102897167,,,,,,,,,,,
1720621644.107974,,,,,,,,,,,,,,,,,,,,1720621644.102897167,-1.186824000,3.141592654,0.000000015,0.829037542,-0.000000022,-0.000000054,0.559192949,1.395152983,0.001110973,1.481517837
1720621644.110501,0.029172000,0.000000000,0.000000000,-1.194963000,0.000000000,0.000000000,1.010152000,0.000000000,0.000000000,0.043776000,0.000000000,0.000000000,0.237376000,0.000000000,0.000000000,-0.042528000,0.000000000,0.000000000,1720621644.107897282,,,,,,,,,,,
1720621644.117127,0.029172000,0.000000000,0.000000000,-1.194963000,0.000000000,0.000000000,1.010152000,0.000000000,0.000000000,0.044128000,0.000000000,0.000000000,0.237312000,0.000000000,0.000000000,-0.042528000,0.000000000,0.000000000,1720621644.114897251,,,,,,,,,,,
1720621644.118033,0.029172000,0.000000000,0.000000000,-1.194963000,0.000000000,0.000000000,1.010152000,0.000000000,0.000000000,0.044128000,0.000000000,0.000000000,0.237312000,0.000000000,0.000000000,-0.042528000,0.000000000,0.000000000,1720621644.115897179,,,,,,,,,,,
1720621644.121819,0.029172000,0.000000000,0.000000000,-1.194963000,0.000000000,0.000000000,1.010152000,0.000000000,0.000000000,0.043776000,0.000000000,0.000000000,0.237120000,0.000000000,0.000000000,-0.043392000,0.000000000,0.000000000,1720621644.119897127,,,,,,,,,,,
1720621644.129494,0.029172000,0.000000000,0.000000000,-1.163162000,0.000000000,0.000000000,1.010152000,0.000000000,0.000000000,0.043776000,0.000000000,0.000000000,0.237184000,0.000000000,0.000000000,-0.042336000,0.000000000,0.000000000,1720621644.126897097,,,,,,,,,,,
1720621644.130676,0.029172000,0.000000000,0.000000000,-1.163162000,0.000000000,0.000000000,1.010152000,0.000000000,0.000000000,0.043776000,0.000000000,0.000000000,0.237184000,0.000000000,0.000000000,-0.042336000,0.000000000,0.000000000,1720621644.127897263,,,,,,,,,,,
1720621644.134017,0.029172000,0.000000000,0.000000000,-1.185800000,0.000000000,0.000000000,1.010152000,0.000000000,0.000000000,0.043776000,0.000000000,0.000000000,0.237472000,0.000000000,0.000000000,-0.042912000,0.000000000,0.000000000,1720621644.131897211,,,,,,,,,,,
1720621644.141537,0.029172000,0.000000000,0.000000000,-1.197119000,0.000000000,0.000000000,1.010152000,0.000000000,0.000000000,0.043776000,0.000000000,0.000000000,0.236928000,0.000000000,0.000000000,-0.043136000,0.000000000,0.000000000,1720621644.138897181,,,,,,,,,,,
1720621644.142094,0.029172000,0.000000000,0.000000000,-1.197119000,0.000000000,0.000000000,1.010152000,0.000000000,0.000000000,0.043776000,0.000000000,0.000000000,0.236928000,0.000000000,0.000000000,-0.043136000,0.000000000,0.000000000,1720621644.139897108,,,,,,,,,,,
1720621644.146460,0.029172000,0.000000000,0.000000000,-1.196580000,0.000000000,0.000000000,1.010152000,0.000000000,0.000000000,0.043776000,0.000000000,0.000000000,0.237600000,0.000000000,0.000000000,-0.042592000,0.000000000,0.000000000,1720621644.143897295,,,,,,,,,,,
1720621644.153333,0.029172000,0.000000000,0.000000000,-1.194963000,0.000000000,0.000000000,1.010152000,0.000000000,0.000000000,0.043776000,0.000000000,0.000000000,0.237600000,0.000000000,0.000000000,-0.042912000,0.000000000,0.000000000,1720621644.150897264,,,,,,,,,,,
1720621644.154067,0.029172000,0.000000000,0.000000000,-1.194963000,0.000000000,0.000000000,1.010152000,0.000000000,0.000000000,0.043776000,0.000000000,0.000000000,0.237600000,0.000000000,0.000000000,-0.042912000,0.000000000,0.000000000,1720621644.151897192,,,,,,,,,,,
1720621644.157973,0.029172000,0.000000000,0.000000000,-1.196580000,0.000000000,0.000000000,1.010152000,0.000000000,0.000000000,0.043776000,0.000000000,0.000000000,0.237600000,0.000000000,0.000000000,-0.042656000,0.000000000,0.000000000,1720621644.155897141,,,,,,,,,,,
1720621644.165469,0.029172000,0.000000000,0.000000000,-1.195502000,0.000000000,0.000000000,1.010152000,0.000000000,0.000000000,0.043776000,0.000000000,0.000000000,0.236800000,0.000000000,0.000000000,-0.042048000,0.000000000,0.000000000,1720621644.162897110,,,,,,,,,,,
1720621644.166568,0.029172000,0.000000000,0.000000000,-1.195502000,0.000000000,0.000000000,1.010152000,0.000000000,0.000000000,0.043776000,0.000000000,0.000000000,0.236800000,0.000000000,0.000000000,-0.042048000,0.000000000,0.000000000,1720621644.163897276,,,,,,,,,,,
1720621644.167946,,,,,,,,,,,,,,,,,,,,1720621644.155897141,-1.186824000,3.141592654,0.000000015,0.829037542,-0.000000022,-0.000000054,0.559192949,1.395152983,0.001110973,1.481517837
1720621644.170715,0.029172000,0.000000000,0.000000000,-1.195502000,0.000000000,0.000000000,1.010152000,0.000000000,0.000000000,0.043776000,0.000000000,0.000000000,0.236672000,0.000000000,0.000000000,-0.043776000,0.000000000,0.000000000,1720621644.167897224,,,,,,,,,,,
1720621644.177287,0.029172000,0.000000000,0.000000000,-1.194963000,0.000000000,0.000000000,1.010152000,0.000000000,0.000000000,0.043776000,0.000000000,0.000000000,0.237792000,0.000000000,0.000000000,-0.042848000,0.000000000,0.000000000,1720621644.174897194,,,,,,,,,,,
1720621644.178234,0.029172000,0.000000000,0.000000000,-1.194963000,0.000000000,0.000000000,1.010152000,0.000000000,0.000000000,0.043776000,0.000000000,0.000000000,0.237792000,0.000000000,0.000000000,-0.042848000,0.000000000,0.000000000,1720621644.175897121,,,,,,,,,,,
1720621644.182114,0.029172000,0.000000000,0.000000000,-1.192807000,0.000000000,0.000000000,1.010152000,0.000000000,0.000000000,0.043776000,0.000000000,0.000000000,0.237120000,0.000000000,0.000000000,-0.042784000,0.000000000,0.000000000,1720621644.179897308,,,,,,,,,,,
1720621644.189554,0.029172000,0.000000000,0.000000000,-1.191190000,0.000000000,0.000000000,1.010152000,0.000000000,0.000000000,0.043776000,0.000000000,0.000000000,0.237728000,0.000000000,0.000000000,-0.043328000,0.000000000,0.000000000,1720621644.186897278,,,,,,,,,,,
1720621644.190997,0.029172000,0.000000000,0.000000000,-1.191190000,0.000000000,0.000000000,1.010152000,0.000000000,0.000000000,0.043776000,0.000000000,0.000000000,0.237728000,0.000000000,0.000000000,-0.043328000,0.000000000,0.000000000,1720621644.187897205,,,,,,,,,,,
1720621644.192711,0.029172000,0.000000000,0.000000000,-1.193885000,0.000000000,0.000000000,1.010152000,0.000000000,0.000000000,0.043776000,0.000000000,0.000000000,0.236992000,0.000000000,0.000000000,-0.042272000,0.000000000,0.000000000,1720621644.189897299,,,,,,,,,,,
1720621644.194191,0.029172000,0.000000000,0.000000000,-1.193885000,0.000000000,0.000000000,1.010152000,0.000000000,0.000000000,0.043776000,0.000000000,0.000000000,0.236992000,0.000000000,0.000000000,-0.042272000,0.000000000,0.000000000,1720621644.191897154,,,,,,,,,,,
1720621644.197100,0.029172000,0.000000000,0.000000000,-1.194963000,0.000000000,0.000000000,1.010152000,0.000000000,0.000000000,0.043776000,0.000000000,0.000000000,0.237248000,0.000000000,0.000000000,-0.043776000,0.000000000,0.000000000,1720621644.194897175,,,,,,,,,,,
1720621644.205480,0.029172000,0.000000000,0.000000000,-1.195502000,0.000000000,0.000000000,1.010152000,0.000000000,0.000000000,0.043776000,0.000000000,0.000000000,0.237312000,0.000000000,0.000000000,-0.043456000,0.000000000,0.000000000,1720621644.202897310,,,,,,,,,,,
1720621644.206682,0.029172000,0.000000000,0.000000000,-1.195502000,0.000000000,0.000000000,1.010152000,0.000000000,0.000000000,0.043776000,0.000000000,0.000000000,0.237312000,0.000000000,0.000000000,-0.043456000,0.000000000,0.000000000,1720621644.203897238,,,,,,,,,,,
1720621644.209033,0.029172000,0.000000000,0.000000000,-1.190112000,0.000000000,0.000000000,1.010152000,0.000000000,0.000000000,0.043776000,0.000000000,0.000000000,0.237376000,0.000000000,0.000000000,-0.042784000,0.000000000,0.000000000,1720621644.206897259,,,,,,,,,,,
1720621644.217617,0.029172000,0.000000000,0.000000000,-1.191190000,0.000000000,0.000000000,1.010152000,0.000000000,0.000000000,0.043456000,0.000000000,0.000000000,0.236992000,0.000000000,0.000000000,-0.042720000,0.000000000,0.000000000,1720621644.214897156,,,,,,,,,,,
1720621644.217911,,,,,,,,,,,,,,,,,,,,1720621644.206897259,-1.186824000,3.141592654,0.000000015,0.829037542,-0.000000022,-0.000000054,0.559192949,1.395152983,0.001110973,1.481517837
1720621644.217987,0.029172000,0.000000000,0.000000000,-1.191190000,0.000000000,0.000000000,1.010152000,0.000000000,0.000000000,0.043456000,0.000000000,0.000000000,0.236992000,0.000000000,0.000000000,-0.042720000,0.000000000,0.000000000,1720621644.215897083,,,,,,,,,,,
1720621644.220786,0.029172000,0.000000000,0.000000000,-1.194963000,0.000000000,0.000000000,1.010152000,0.000000000,0.000000000,0.043456000,0.000000000,0.000000000,0.236928000,0.000000000,0.000000000,-0.043008000,0.000000000,0.000000000,1720621644.217897177,,,,,,,,,,,
1720621644.229703,0.029172000,0.000000000,0.000000000,-1.194963000,0.000000000,0.000000000,1.010152000,0.000000000,0.000000000,0.043776000,0.000000000,0.000000000,0.236864000,0.000000000,0.000000000,-0.043072000,0.000000000,0.000000000,1720621644.226897240,,,,,,,,,,,
1720621644.230977,0.029172000,0.000000000,0.000000000,-1.194963000,0.000000000,0.000000000,1.010152000,0.000000000,0.000000000,0.043776000,0.000000000,0.000000000,0.236864000,0.000000000,0.000000000,-0.043072000,0.000000000,0.000000000,1720621644.227897167,,,,,,,,,,,
1720621644.232130,0.029172000,0.000000000,0.000000000,-1.192268000,0.000000000,0.000000000,1.010152000,0.000000000,0.000000000,0.043776000,0.000000000,0.000000000,0.237984000,0.000000000,0.000000000,-0.043008000,0.000000000,0.000000000,1720621644.229897261,,,,,,,,,,,
1720621644.241781,0.029172000,0.000000000,0.000000000,-1.195502000,0.000000000,0.000000000,1.010152000,0.000000000,0.000000000,0.043776000,0.000000000,0.000000000,0.237184000,0.000000000,0.000000000,-0.042656000,0.000000000,0.000000000,1720621644.238897085,,,,,,,,,,,
1720621644.242279,0.029172000,0.000000000,0.000000000,-1.195502000,0.000000000,0.000000000,1.010152000,0.000000000,0.000000000,0.043776000,0.000000000,0.000000000,0.237184000,0.000000000,0.000000000,-0.042656000,0.000000000,0.000000000,1720621644.239897251,,,,,,,,,,,
1720621644.245409,0.029172000,0.000000000,0.000000000,-1.195502000,0.000000000,0.000000000,1.010152000,0.000000000,0.000000000,0.043776000,0.000000000,0.000000000,0.237120000,0.000000000,0.000000000,-0.042656000,0.000000000,0.000000000,1720621644.242897272,,,,,,,,,,,
1720621644.256675,0.029172000,0.000000000,0.000000000,-1.199814000,0.000000000,0.000000000,1.010152000,0.000000000,0.000000000,0.043840000,0.000000000,0.000000000,0.236736000,0.000000000,0.000000000,-0.043072000,0.000000000,0.000000000,1720621644.253897190,,,,,,,,,,,
1720621644.264424,0.029172000,0.000000000,0.000000000,-1.201970000,0.000000000,0.000000000,1.010152000,0.000000000,0.000000000,0.043840000,0.000000000,0.000000000,0.237312000,0.000000000,0.000000000,-0.043840000,0.000000000,0.000000000,1720621644.261897087,,,,,,,,,,,
1720621644.267923,,,,,,,,,,,,,,,,,,,,1720621644.261897087,-1.186824000,3.141592654,0.000000015,0.829037542,-0.000000022,-0.000000054,0.559192949,1.395152983,0.001110973,1.481517837
1720621644.273649,0.029172000,0.000000000,0.000000000,-1.199275000,0.000000000,0.000000000,1.010152000,0.000000000,0.000000000,0.043840000,0.000000000,0.000000000,0.237792000,0.000000000,0.000000000,-0.043776000,0.000000000,0.000000000,1720621644.270897150,,,,,,,,,,,
1720621644.274457,0.029172000,0.000000000,0.000000000,-1.199275000,0.000000000,0.000000000,1.010152000,0.000000000,0.000000000,0.043840000,0.000000000,0.000000000,0.237792000,0.000000000,0.000000000,-0.043776000,0.000000000,0.000000000,1720621644.271897316,,,,,,,,,,,
1720621644.277130,0.029172000,0.000000000,0.000000000,-1.198197000,0.000000000,0.000000000,1.010152000,0.000000000,0.000000000,0.043840000,0.000000000,0.000000000,0.236992000,0.000000000,0.000000000,-0.041920000,0.000000000,0.000000000,1720621644.274897099,,,,,,,,,,,
1720621644.285783,0.029172000,0.000000000,0.000000000,-1.197119000,0.000000000,0.000000000,1.010152000,0.000000000,0.000000000,0.043776000,0.000000000,0.000000000,0.237792000,0.000000000,0.000000000,-0.041792000,0.000000000,0.000000000,1720621644.282897234,,,,,,,,,,,
1720621644.286847,0.029172000,0.000000000,0.000000000,-1.197119000,0.000000000,0.000000000,1.010152000,0.000000000,0.000000000,0.043776000,0.000000000,0.000000000,0.237792000,0.000000000,0.000000000,-0.041792000,0.000000000,0.000000000,1720621644.283897161,,,,,,,,,,,
1720621644.287948,0.029172000,0.000000000,0.000000000,-1.197119000,0.000000000,0.000000000,1.010152000,0.000000000,0.000000000,0.043776000,0.000000000,0.000000000,0.236864000,0.000000000,0.000000000,-0.043136000,0.000000000,0.000000000,1720621644.285897255,,,,,,,,,,,
1720621644.297653,0.029172000,0.000000000,0.000000000,-1.196580000,0.000000000,0.000000000,1.010152000,0.000000000,0.000000000,0.043840000,0.000000000,0.000000000,0.237472000,0.000000000,0.000000000,-0.042336000,0.000000000,0.000000000,1720621644.294897079,,,,,,,,,,,
1720621644.298425,0.029172000,0.000000000,0.000000000,-1.196580000,0.000000000,0.000000000,1.010152000,0.000000000,0.000000000,0.043840000,0.000000000,0.000000000,0.237472000,0.000000000,0.000000000,-0.042336000,0.000000000,0.000000000,1720621644.295897245,,,,,,,,,,,
1720621644.300870,0.029172000,0.000000000,0.000000000,-1.195502000,0.000000000,0.000000000,1.010152000,0.000000000,0.000000000,0.043840000,0.000000000,0.000000000,0.236928000,0.000000000,0.000000000,-0.043008000,0.000000000,0.000000000,1720621644.297897100,,,,,,,,,,,
1720621644.309766,0.029172000,0.000000000,0.000000000,-1.173403000,0.000000000,0.000000000,1.010152000,0.000000000,0.000000000,0.043712000,0.000000000,0.000000000,0.237376000,0.000000000,0.000000000,-0.043328000,0.000000000,0.000000000,1720621644.306897163,,,,,,,,,,,
1720621644.312223,0.029172000,0.000000000,0.000000000,-1.173403000,0.000000000,0.000000000,1.010152000,0.000000000,0.000000000,0.043712000,0.000000000,0.000000000,0.237376000,0.000000000,0.000000000,-0.043328000,0.000000000,0.000000000,1720621644.307897091,,,,,,,,,,,
1720621644.324048,0.029172000,0.000000000,0.000000000,-1.197119000,0.000000000,0.000000000,1.010152000,0.000000000,0.000000000,0.043776000,0.000000000,0.000000000,0.237248000,0.000000000,0.000000000,-0.044640000,0.000000000,0.000000000,1720621644.320897102,,,,,,,,,,,
1720621644.327932,,,,,,,,,,,,,,,,,,,,1720621644.320897102,-1.186824000,3.141592654,0.000000015,0.829037542,-0.000000022,-0.000000054,0.559192949,1.395152983,0.001110973,1.481517837
1720621644.332326,0.029172000,0.000000000,0.000000000,-1.207899000,0.000000000,0.000000000,1.010152000,0.000000000,0.000000000,0.043776000,0.000000000,0.000000000,0.237600000,0.000000000,0.000000000,-0.044000000,0.000000000,0.000000000,1720621644.329897165,,,,,,,,,,,
1720621644.342343,0.029172000,0.000000000,0.000000000,-1.199814000,0.000000000,0.000000000,1.010152000,0.000000000,0.000000000,0.043776000,0.000000000,0.000000000,0.236384000,0.000000000,0.000000000,-0.043936000,0.000000000,0.000000000,1720621644.339897156,,,,,,,,,,,
1720621644.353512,0.029172000,0.000000000,0.000000000,-1.199275000,0.000000000,0.000000000,1.010152000,0.000000000,0.000000000,0.043776000,0.000000000,0.000000000,0.237312000,0.000000000,0.000000000,-0.042208000,0.000000000,0.000000000,1720621644.350897312,,,,,,,,,,,
1720621644.360972,0.029172000,0.000000000,0.000000000,-1.198197000,0.000000000,0.000000000,1.010152000,0.000000000,0.000000000,0.043776000,0.000000000,0.000000000,0.237792000,0.000000000,0.000000000,-0.043008000,0.000000000,0.000000000,1720621644.357897282,,,,,,,,,,,
1720621644.362561,0.029172000,0.000000000,0.000000000,-1.198197000,0.000000000,0.000000000,1.010152000,0.000000000,0.000000000,0.043776000,0.000000000,0.000000000,0.237792000,0.000000000,0.000000000,-0.043008000,0.000000000,0.000000000,1720621644.359897137,,,,,,,,,,,
1720621644.365394,0.029172000,0.000000000,0.000000000,-1.191190000,0.000000000,0.000000000,1.010152000,0.000000000,0.000000000,0.043456000,0.000000000,0.000000000,0.236800000,0.000000000,0.000000000,-0.042656000,0.000000000,0.000000000,1720621644.362897158,,,,,,,,,,,
1720621644.377547,0.029172000,0.000000000,0.000000000,-1.192807000,0.000000000,0.000000000,1.010152000,0.000000000,0.000000000,0.043776000,0.000000000,0.000000000,0.237248000,0.000000000,0.000000000,-0.043200000,0.000000000,0.000000000,1720621644.374897242,,,,,,,,,,,
1720621644.384670,0.029172000,0.000000000,0.000000000,-1.192807000,0.000000000,0.000000000,1.010152000,0.000000000,0.000000000,0.043712000,0.000000000,0.000000000,0.236320000,0.000000000,0.000000000,-0.043392000,0.000000000,0.000000000,1720621644.381897211,,,,,,,,,,,
1720621644.385692,0.029172000,0.000000000,0.000000000,-1.192807000,0.000000000,0.000000000,1.010152000,0.000000000,0.000000000,0.043712000,0.000000000,0.000000000,0.236320000,0.000000000,0.000000000,-0.043392000,0.000000000,0.000000000,1720621644.382897139,,,,,,,,,,,
1720621644.387984,,,,,,,,,,,,,,,,,,,,1720621644.374897242,-1.186824000,3.141592654,0.000000015,0.829037542,-0.000000022,-0.000000054,0.559192949,1.395152983,0.001110973,1.481517837
1720621644.389325,0.029172000,0.000000000,0.000000000,-1.192807000,0.000000000,0.000000000,1.010152000,0.000000000,0.000000000,0.043776000,0.000000000,0.000000000,0.237376000,0.000000000,0.000000000,-0.042400000,0.000000000,0.000000000,1720621644.386897087,,,,,,,,,,,
1720621644.398686,0.029172000,0.000000000,0.000000000,-1.195502000,0.000000000,0.000000000,1.010152000,0.000000000,0.000000000,0.043776000,0.000000000,0.000000000,0.236928000,0.000000000,0.000000000,-0.042656000,0.000000000,0.000000000,1720621644.393897295,,,,,,,,,,,
1720621644.407995,0.029172000,0.000000000,0.000000000,-1.195502000,0.000000000,0.000000000,1.010152000,0.000000000,0.000000000,0.043712000,0.000000000,0.000000000,0.237184000,0.000000000,0.000000000,-0.043072000,0.000000000,0.000000000,1720621644.404897213,,,,,,,,,,,
1720621644.420766,0.029172000,0.000000000,0.000000000,-1.195502000,0.000000000,0.000000000,1.010152000,0.000000000,0.000000000,0.043776000,0.000000000,0.000000000,0.237376000,0.000000000,0.000000000,-0.043584000,0.000000000,0.000000000,1720621644.417897224,,,,,,,,,,,
1720621644.428005,0.029172000,0.000000000,0.000000000,-1.195502000,0.000000000,0.000000000,1.010152000,0.000000000,0.000000000,0.043840000,0.000000000,0.000000000,0.237376000,0.000000000,0.000000000,-0.042528000,0.000000000,0.000000000,1720621644.424897194,,,,,,,,,,,
1720621644.437997,,,,,,,,,,,,,,,,,,,,1720621644.424897194,-1.186824000,3.141592654,0.000000015,0.829037542,-0.000000022,-0.000000054,0.559192949,1.395152983,0.001110973,1.481517837
1720621644.440768,0.029172000,0.000000000,0.000000000,-1.195502000,0.000000000,0.000000000,1.010152000,0.000000000,0.000000000,0.043840000,0.000000000,0.000000000,0.236992000,0.000000000,0.000000000,-0.044256000,0.000000000,0.000000000,1720621644.437897205,,,,,,,,,,,
1720621644.448253,0.029172000,0.000000000,0.000000000,-1.195502000,0.000000000,0.000000000,1.010152000,0.000000000,0.000000000,0.043776000,0.000000000,0.000000000,0.237120000,0.000000000,0.000000000,-0.044384000,0.000000000,0.000000000,1720621644.444897175,,,,,,,,,,,
1720621644.457436,0.029172000,0.000000000,0.000000000,-1.196580000,0.000000000,0.000000000,1.010152000,0.000000000,0.000000000,0.043840000,0.000000000,0.000000000,0.237728000,0.000000000,0.000000000,-0.043712000,0.000000000,0.000000000,1720621644.454897165,,,,,,,,,,,
1720621644.469574,0.029172000,0.000000000,0.000000000,-1.196580000,0.000000000,0.000000000,1.010152000,0.000000000,0.000000000,0.043776000,0.000000000,0.000000000,0.237600000,0.000000000,0.000000000,-0.041984000,0.000000000,0.000000000,1720621644.466897249,,,,,,,,,,,
1720621644.478580,0.029172000,0.000000000,0.000000000,-1.196580000,0.000000000,0.000000000,1.010724000,0.000000000,0.000000000,0.043776000,0.000000000,0.000000000,0.237120000,0.000000000,0.000000000,-0.041664000,0.000000000,0.000000000,1720621644.473897219,,,,,,,,,,,
1720621644.489608,0.029172000,0.000000000,0.000000000,-1.196580000,0.000000000,0.000000000,1.010724000,0.000000000,0.000000000,0.043776000,0.000000000,0.000000000,0.237120000,0.000000000,0.000000000,-0.042912000,0.000000000,0.000000000,1720621644.486897230,,,,,,,,,,,
1720621644.497990,,,,,,,,,,,,,,,,,,,,1720621644.486897230,-1.186824000,3.141592654,0.000000015,0.829037542,-0.000000022,-0.000000054,0.559192949,1.395152983,0.001110973,1.481517837
1720621644.498637,0.029172000,0.000000000,0.000000000,-1.196580000,0.000000000,0.000000000,1.010724000,0.000000000,0.000000000,0.043776000,0.000000000,0.000000000,0.236992000,0.000000000,0.000000000,-0.043072000,0.000000000,0.000000000,1720621644.495897293,,,,,,,,,,,
