zakjeens/yaskawa_debug_materials/t20/joints.csv
__time,/joint_states/group_1/joint_1/effort,/joint_states/group_1/joint_1/position,/joint_states/group_1/joint_1/velocity,/joint_states/group_1/joint_2/effort,/joint_states/group_1/joint_2/position,/joint_states/group_1/joint_2/velocity,/joint_states/group_1/joint_3/effort,/joint_states/group_1/joint_3/position,/joint_states/group_1/joint_3/velocity,/joint_states/group_1/joint_4/effort,/joint_states/group_1/joint_4/position,/joint_states/group_1/joint_4/velocity,/joint_states/group_1/joint_5/effort,/joint_states/group_1/joint_5/position,/joint_states/group_1/joint_5/velocity,/joint_states/group_1/joint_6/effort,/joint_states/group_1/joint_6/position,/joint_states/group_1/joint_6/velocity,/joint_states/header/stamp,/world_to_torch/header/header/stamp,/world_to_torch/transform/rotation/pitch,/world_to_torch/transform/rotation/roll,/world_to_torch/transform/rotation/w,/world_to_torch/transform/rotation/x,/world_to_torch/transform/rotation/y,/world_to_torch/transform/rotation/yaw,/world_to_torch/transform/rotation/z,/world_to_torch/transform/translation/x,/world_to_torch/transform/translation/y,/world_to_torch/transform/translation/z
1720621883.696500,,,,,,,,,,,,,,,,,,,,1720621883.372594595,-1.186824000,3.141592654,0.000000015,0.829037542,-0.000000022,-0.000000054,0.559192949,1.395152983,0.001110973,1.481517837
1720621883.696551,,,,,,,,,,,,,,,,,,,,1720621883.428594589,-1.186824000,3.141592654,0.000000015,0.829037542,-0.000000022,-0.000000054,0.559192949,1.395152983,0.001110973,1.481517837
1720621883.696575,,,,,,,,,,,,,,,,,,,,1720621883.480594397,-1.186824000,3.141592654,0.000000015,0.829037542,-0.000000022,-0.000000054,0.559192949,1.395152983,0.001110973,1.481517837
1720621883.696601,,,,,,,,,,,,,,,,,,,,1720621883.540594578,-1.186824000,3.141592654,0.000000015,0.829037542,-0.000000022,-0.000000054,0.559192949,1.395152983,0.001110973,1.481517837
1720621883.696623,,,,,,,,,,,,,,,,,,,,1720621883.595594406,-1.186824000,3.141592654,0.000000015,0.829037542,-0.000000022,-0.000000054,0.559192949,1.395152983,0.001110973,1.481517837
1720621883.696645,,,,,,,,,,,,,,,,,,,,1720621883.648594379,-1.186824000,3.141592654,0.000000015,0.829037542,-0.000000022,-0.000000054,0.559192949,1.395152983,0.001110973,1.481517837
1720621883.715846,,,,,,,,,,,,,,,,,,,,1720621883.703594446,-1.186824000,3.141592654,0.000000015,0.829037542,-0.000000022,-0.000000054,0.559192949,1.395152983,0.001110973,1.481517837
1720621883.776161,,,,,,,,,,,,,,,,,,,,1720621883.755594492,-1.186824000,3.141592654,0.000000015,0.829037542,-0.000000022,-0.000000054,0.559192949,1.395152983,0.001110973,1.481517837
1720621883.826230,,,,,,,,,,,,,,,,,,,,1720621883.806594372,-1.186824000,3.141592654,0.000000015,0.829037542,-0.000000022,-0.000000054,0.559192949,1.395152983,0.001110973,1.481517837
1720621883.875937,,,,,,,,,,,,,,,,,,,,1720621883.863594532,-1.186824000,3.141592654,0.000000015,0.829037542,-0.000000022,-0.000000054,0.559192949,1.395152983,0.001110973,1.481517837
1720621883.935994,,,,,,,,,,,,,,,,,,,,1720621883.914594412,-1.186824000,3.141592654,0.000000015,0.829037542,-0.000000022,-0.000000054,0.559192949,1.395152983,0.001110973,1.481517837
1720621883.985953,,,,,,,,,,,,,,,,,,,,1720621883.964594364,-1.186824000,3.141592654,0.000000015,0.829037542,-0.000000022,-0.000000054,0.559192949,1.395152983,0.001110973,1.481517837
1720621884.036048,,,,,,,,,,,,,,,,,,,,1720621884.026561260,-1.186824000,3.141592654,0.000000015,0.829037542,-0.000000022,-0.000000054,0.559192949,1.395152983,0.001110973,1.481517837
1720621884.086090,,,,,,,,,,,,,,,,,,,,1720621884.076561213,-1.186824000,3.141592654,0.000000015,0.829037542,-0.000000022,-0.000000054,0.559192949,1.395152983,0.001110973,1.481517837
1720621884.135969,,,,,,,,,,,,,,,,,,,,1720621884.129561186,-1.186824000,3.141592654,0.000000015,0.829037542,-0.000000022,-0.000000054,0.559192949,1.395152983,0.001110973,1.481517837
1720621884.186091,,,,,,,,,,,,,,,,,,,,1720621884.180561066,-1.186824000,3.141592654,0.000000015,0.829037542,-0.000000022,-0.000000054,0.559192949,1.395152983,0.001110973,1.481517837
1720621884.245966,,,,,,,,,,,,,,,,,,,,1720621884.236561060,-1.186824000,3.141592654,0.000000015,0.829037542,-0.000000022,-0.000000054,0.559192949,1.395152983,0.001110973,1.481517837
1720621884.294010,-0.057486000,0.000000000,0.000000000,-1.141602000,0.000000000,0.000000000,1.023308000,0.000000000,0.000000000,-0.025920000,0.000000000,0.000000000,0.234944000,0.000000000,0.000000000,0.034816000,0.000000000,0.000000000,1720621884.292561293,,,,,,,,,,,
1720621884.295819,,,,,,,,,,,,,,,,,,,,1720621884.288561106,-1.186824000,3.141592654,0.000000015,0.829037542,-0.000000022,-0.000000054,0.559192949,1.395152983,0.001110973,1.481517837
1720621884.302526,-0.057486000,0.000000000,0.000000000,-1.141063000,0.000000000,0.000000000,1.023308000,0.000000000,0.000000000,-0.025920000,0.000000000,0.000000000,0.234080000,0.000000000,0.000000000,0.033888000,0.000000000,0.000000000,1720621884.300561190,,,,,,,,,,,
1720621884.305413,-0.057486000,0.000000000,0.000000000,-1.143758000,0.000000000,0.000000000,1.023308000,0.000000000,0.000000000,-0.025920000,0.000000000,0.000000000,0.234528000,0.000000000,0.000000000,0.033760000,0.000000000,0.000000000,1720621884.303561211,,,,,,,,,,,
1720621884.313763,-0.057486000,0.000000000,0.000000000,-1.141602000,0.000000000,0.000000000,1.023022000,0.000000000,0.000000000,-0.025600000,0.000000000,0.000000000,0.235008000,0.000000000,0.000000000,0.033952000,0.000000000,0.000000000,1720621884.311561108,,,,,,,,,,,
1720621884.317935,-0.057486000,0.000000000,0.000000000,-1.151304000,0.000000000,0.000000000,1.023022000,0.000000000,0.000000000,-0.025920000,0.000000000,0.000000000,0.234336000,0.000000000,0.000000000,0.034304000,0.000000000,0.000000000,1720621884.315561056,,,,,,,,,,,
1720621884.325527,-0.057486000,0.000000000,0.000000000,-1.146992000,0.000000000,0.000000000,1.023308000,0.000000000,0.000000000,-0.025920000,0.000000000,0.000000000,0.234464000,0.000000000,0.000000000,0.034048000,0.000000000,0.000000000,1720621884.323561192,,,,,,,,,,,
1720621884.338094,-0.057486000,0.000000000,0.000000000,-1.142680000,0.000000000,0.000000000,1.023308000,0.000000000,0.000000000,-0.025920000,0.000000000,0.000000000,0.234272000,0.000000000,0.000000000,0.032512000,0.000000000,0.000000000,1720621884.335561275,,,,,,,,,,,
1720621884.345479,-0.057486000,0.000000000,0.000000000,-1.141602000,0.000000000,0.000000000,1.023308000,0.000000000,0.000000000,-0.025920000,0.000000000,0.000000000,0.234816000,0.000000000,0.000000000,0.032576000,0.000000000,0.000000000,1720621884.343561172,,,,,,,,,,,
1720621884.345917,,,,,,,,,,,,,,,,,,,,1720621884.343561172,-1.186824000,3.141592654,0.000000015,0.829037542,-0.000000022,-0.000000054,0.559192949,1.395152983,0.001110973,1.481517837
1720621884.355018,-0.057486000,0.000000000,0.000000000,-1.142680000,0.000000000,0.000000000,1.023308000,0.000000000,0.000000000,-0.025920000,0.000000000,0.000000000,0.234816000,0.000000000,0.000000000,0.033440000,0.000000000,0.000000000,1720621884.352561235,,,,,,,,,,,
1720621884.355300,-0.057486000,0.000000000,0.000000000,-1.142680000,0.000000000,0.000000000,1.023308000,0.000000000,0.000000000,-0.025920000,0.000000000,0.000000000,0.234816000,0.000000000,0.000000000,0.033440000,0.000000000,0.000000000,1720621884.353561163,,,,,,,,,,,
1720621884.360004,-0.057486000,0.000000000,0.000000000,-1.136751000,0.000000000,0.000000000,1.023308000,0.000000000,0.000000000,-0.025920000,0.000000000,0.000000000,0.234144000,0.000000000,0.000000000,0.034048000,0.000000000,0.000000000,1720621884.355561256,,,,,,,,,,,
1720621884.366711,-0.057486000,0.000000000,0.000000000,-1.138907000,0.000000000,0.000000000,1.023308000,0.000000000,0.000000000,-0.025920000,0.000000000,0.000000000,0.234272000,0.000000000,0.000000000,0.033952000,0.000000000,0.000000000,1720621884.364561081,,,,,,,,,,,
1720621884.367638,-0.057486000,0.000000000,0.000000000,-1.138907000,0.000000000,0.000000000,1.023308000,0.000000000,0.000000000,-0.025920000,0.000000000,0.000000000,0.234272000,0.000000000,0.000000000,0.033952000,0.000000000,0.000000000,1720621884.365561247,,,,,,,,,,,
1720621884.368983,-0.057486000,0.000000000,0.000000000,-1.141063000,0.000000000,0.000000000,1.023308000,0.000000000,0.000000000,-0.025920000,0.000000000,0.000000000,0.234464000,0.000000000,0.000000000,0.034240000,0.000000000,0.000000000,1720621884.367561102,,,,,,,,,,,
1720621884.378940,-0.057486000,0.000000000,0.000000000,-1.141063000,0.000000000,0.000000000,1.023308000,0.000000000,0.000000000,-0.025920000,0.000000000,0.000000000,0.234464000,0.000000000,0.000000000,0.035680000,0.000000000,0.000000000,1720621884.376561165,,,,,,,,,,,
1720621884.379554,-0.057486000,0.000000000,0.000000000,-1.141063000,0.000000000,0.000000000,1.023308000,0.000000000,0.000000000,-0.025920000,0.000000000,0.000000000,0.234464000,0.000000000,0.000000000,0.035680000,0.000000000,0.000000000,1720621884.377561092,,,,,,,,,,,
1720621884.382879,-0.057486000,0.000000000,0.000000000,-1.141063000,0.000000000,0.000000000,1.023308000,0.000000000,0.000000000,-0.025920000,0.000000000,0.000000000,0.234656000,0.000000000,0.000000000,0.032576000,0.000000000,0.000000000,1720621884.380561113,,,,,,,,,,,
1720621884.391027,-0.057486000,0.000000000,0.000000000,-1.141063000,0.000000000,0.000000000,1.023308000,0.000000000,0.000000000,-0.025920000,0.000000000,0.000000000,0.234272000,0.000000000,0.000000000,0.033440000,0.000000000,0.000000000,1720621884.388561249,,,,,,,,,,,
1720621884.391296,-0.057486000,0.000000000,0.000000000,-1.141063000,0.000000000,0.000000000,1.023308000,0.000000000,0.000000000,-0.025920000,0.000000000,0.000000000,0.234272000,0.000000000,0.000000000,0.033440000,0.000000000,0.000000000,1720621884.389561176,,,,,,,,,,,
1720621884.393261,-0.057486000,0.000000000,0.000000000,-1.139985000,0.000000000,0.000000000,1.023308000,0.000000000,0.000000000,-0.025920000,0.000000000,0.000000000,0.234272000,0.000000000,0.000000000,0.034880000,0.000000000,0.000000000,1720621884.391561270,,,,,,,,,,,
1720621884.402842,-0.058344000,0.000000000,0.000000000,-1.138368000,0.000000000,0.000000000,1.023308000,0.000000000,0.000000000,-0.025920000,0.000000000,0.000000000,0.234080000,0.000000000,0.000000000,0.035040000,0.000000000,0.000000000,1720621884.400561094,,,,,,,,,,,
1720621884.403698,-0.058344000,0.000000000,0.000000000,-1.138368000,0.000000000,0.000000000,1.023308000,0.000000000,0.000000000,-0.025920000,0.000000000,0.000000000,0.234080000,0.000000000,0.000000000,0.035040000,0.000000000,0.000000000,1720621884.401561260,,,,,,,,,,,
1720621884.405891,,,,,,,,,,,,,,,,,,,,1720621884.400561094,-1.186824000,3.141592654,0.000000015,0.829037542,-0.000000022,-0.000000054,0.559192949,1.395152983,0.001110973,1.481517837
1720621884.406687,-0.058344000,0.000000000,0.000000000,-1.160467000,0.000000000,0.000000000,1.023308000,0.000000000,0.000000000,-0.025920000,0.000000000,0.000000000,0.234656000,0.000000000,0.000000000,0.033088000,0.000000000,0.000000000,1720621884.402561188,,,,,,,,,,,
1720621884.415010,-0.057772000,0.000000000,0.000000000,-1.138907000,0.000000000,0.000000000,1.023308000,0.000000000,0.000000000,-0.025920000,0.000000000,0.000000000,0.233792000,0.000000000,0.000000000,0.032832000,0.000000000,0.000000000,1720621884.412561178,,,,,,,,,,,
1720621884.415752,-0.057772000,0.000000000,0.000000000,-1.138907000,0.000000000,0.000000000,1.023308000,0.000000000,0.000000000,-0.025920000,0.000000000,0.000000000,0.233792000,0.000000000,0.000000000,0.032832000,0.000000000,0.000000000,1720621884.413561106,,,,,,,,,,,
1720621884.417469,-0.057772000,0.000000000,0.000000000,-1.138907000,0.000000000,0.000000000,1.023308000,0.000000000,0.000000000,-0.025920000,0.000000000,0.000000000,0.234592000,0.000000000,0.000000000,0.035296000,0.000000000,0.000000000,1720621884.414561272,,,,,,,,,,,
1720621884.426907,-0.057772000,0.000000000,0.000000000,-1.106567000,0.000000000,0.000000000,1.023308000,0.000000000,0.000000000,-0.026016000,0.000000000,0.000000000,0.235136000,0.000000000,0.000000000,0.034976000,0.000000000,0.000000000,1720621884.424561262,,,,,,,,,,,
1720621884.429752,-0.057772000,0.000000000,0.000000000,-1.171786000,0.000000000,0.000000000,1.023308000,0.000000000,0.000000000,-0.026016000,0.000000000,0.000000000,0.234208000,0.000000000,0.000000000,0.033248000,0.000000000,0.000000000,1720621884.427561283,,,,,,,,,,,
1720621884.433881,-0.057772000,0.000000000,0.000000000,-1.139985000,0.000000000,0.000000000,1.023308000,0.000000000,0.000000000,-0.026016000,0.000000000,0.000000000,0.234080000,0.000000000,0.000000000,0.033824000,0.000000000,0.000000000,1720621884.431561232,,,,,,,,,,,
1720621884.441869,-0.057772000,0.000000000,0.000000000,-1.139985000,0.000000000,0.000000000,1.023308000,0.000000000,0.000000000,-0.026016000,0.000000000,0.000000000,0.234528000,0.000000000,0.000000000,0.033696000,0.000000000,0.000000000,1720621884.439561129,,,,,,,,,,,
1720621884.446709,-0.057772000,0.000000000,0.000000000,-1.139985000,0.000000000,0.000000000,1.023308000,0.000000000,0.000000000,-0.026016000,0.000000000,0.000000000,0.234656000,0.000000000,0.000000000,0.034496000,0.000000000,0.000000000,1720621884.444561243,,,,,,,,,,,
1720621884.454010,-0.057772000,0.000000000,0.000000000,-1.139985000,0.000000000,0.000000000,1.023308000,0.000000000,0.000000000,-0.026016000,0.000000000,0.000000000,0.234464000,0.000000000,0.000000000,0.034560000,0.000000000,0.000000000,1720621884.451561213,,,,,,,,,,,
1720621884.454716,-0.057772000,0.000000000,0.000000000,-1.139985000,0.000000000,0.000000000,1.023308000,0.000000000,0.000000000,-0.026016000,0.000000000,0.000000000,0.234464000,0.000000000,0.000000000,0.034560000,0.000000000,0.000000000,1720621884.452561140,,,,,,,,,,,
1720621884.455841,,,,,,,,,,,,,,,,,,,,1720621884.451561213,-1.186824000,3.141592654,0.000000015,0.829037542,-0.000000022,-0.000000054,0.559192949,1.395152983,0.001110973,1.481517837
1720621884.458659,-0.057772000,0.000000000,0.000000000,-1.131900000,0.000000000,0.000000000,1.023308000,0.000000000,0.000000000,-0.026016000,0.000000000,0.000000000,0.233536000,0.000000000,0.000000000,0.033824000,0.000000000,0.000000000,1720621884.456561089,,,,,,,,,,,
1720621884.465956,-0.058344000,0.000000000,0.000000000,-1.138368000,0.000000000,0.000000000,1.023308000,0.000000000,0.000000000,-0.026016000,0.000000000,0.000000000,0.234272000,0.000000000,0.000000000,0.034432000,0.000000000,0.000000000,1720621884.463561058,,,,,,,,,,,
1720621884.466852,-0.058344000,0.000000000,0.000000000,-1.138368000,0.000000000,0.000000000,1.023308000,0.000000000,0.000000000,-0.026016000,0.000000000,0.000000000,0.234272000,0.000000000,0.000000000,0.034432000,0.000000000,0.000000000,1720621884.464561224,,,,,,,,,,,
1720621884.470746,-0.058344000,0.000000000,0.000000000,-1.138368000,0.000000000,0.000000000,1.023308000,0.000000000,0.000000000,-0.026016000,0.000000000,0.000000000,0.234656000,0.000000000,0.000000000,0.033248000,0.000000000,0.000000000,1720621884.468561172,,,,,,,,,,,
1720621884.477897,-0.057772000,0.000000000,0.000000000,-1.126510000,0.000000000,0.000000000,1.023308000,0.000000000,0.000000000,-0.026016000,0.000000000,0.000000000,0.233536000,0.000000000,0.000000000,0.033184000,0.000000000,0.000000000,1720621884.475561142,,,,,,,,,,,
1720621884.478717,-0.057772000,0.000000000,0.000000000,-1.126510000,0.000000000,0.000000000,1.023308000,0.000000000,0.000000000,-0.026016000,0.000000000,0.000000000,0.233536000,0.000000000,0.000000000,0.033184000,0.000000000,0.000000000,1720621884.476561069,,,,,,,,,,,
1720621884.483911,-0.057486000,0.000000000,0.000000000,-1.143758000,0.000000000,0.000000000,1.023308000,0.000000000,0.000000000,-0.026016000,0.000000000,0.000000000,0.234400000,0.000000000,0.000000000,0.034976000,0.000000000,0.000000000,1720621884.481561184,,,,,,,,,,,
1720621884.490993,-0.057486000,0.000000000,0.000000000,-1.138368000,0.000000000,0.000000000,1.023308000,0.000000000,0.000000000,-0.026016000,0.000000000,0.000000000,0.234400000,0.000000000,0.000000000,0.035232000,0.000000000,0.000000000,1720621884.488561153,,,,,,,,,,,
1720621884.491447,-0.057486000,0.000000000,0.000000000,-1.138368000,0.000000000,0.000000000,1.023308000,0.000000000,0.000000000,-0.026016000,0.000000000,0.000000000,0.234400000,0.000000000,0.000000000,0.035232000,0.000000000,0.000000000,1720621884.489561081,,,,,,,,,,,
1720621884.497564,-0.057486000,0.000000000,0.000000000,-1.144297000,0.000000000,0.000000000,1.023308000,0.000000000,0.000000000,-0.026016000,0.000000000,0.000000000,0.234016000,0.000000000,0.000000000,0.034976000,0.000000000,0.000000000,1720621884.495561123,,,,,,,,,,,
1720621884.505061,-0.057772000,0.000000000,0.000000000,-1.141602000,0.000000000,0.000000000,1.023308000,0.000000000,0.000000000,-0.026016000,0.000000000,0.000000000,0.234272000,0.000000000,0.000000000,0.035296000,0.000000000,0.000000000,1720621884.502561092,,,,,,,,,,,
1720621884.514166,-0.057772000,0.000000000,0.000000000,-1.141602000,0.000000000,0.000000000,1.023308000,0.000000000,0.000000000,-0.026016000,0.000000000,0.000000000,0.234400000,0.000000000,0.000000000,0.035104000,0.000000000,0.000000000,1720621884.511561155,,,,,,,,,,,
1720621884.514725,-0.057772000,0.000000000,0.000000000,-1.141602000,0.000000000,0.000000000,1.023308000,0.000000000,0.000000000,-0.026016000,0.000000000,0.000000000,0.234400000,0.000000000,0.000000000,0.035104000,0.000000000,0.000000000,1720621884.512561083,,,,,,,,,,,
1720621884.515850,,,,,,,,,,,,,,,,,,,,1720621884.502561092,-1.186824000,3.141592654,0.000000015,0.829037542,-0.000000022,-0.000000054,0.559192949,1.395152983,0.001110973,1.481517837
1720621884.515856,-0.057772000,0.000000000,0.000000000,-1.141602000,0.000000000,0.000000000,1.023308000,0.000000000,0.000000000,-0.026016000,0.000000000,0.000000000,0.234400000,0.000000000,0.000000000,0.035104000,0.000000000,0.000000000,1720621884.513561249,,,,,,,,,,,
1720621884.517768,-0.057772000,0.000000000,0.000000000,-1.141602000,0.000000000,0.000000000,1.023308000,0.000000000,0.000000000,-0.026016000,0.000000000,0.000000000,0.234144000,0.000000000,0.000000000,0.033024000,0.000000000,0.000000000,1720621884.515561104,,,,,,,,,,,
1720621884.521646,-0.057772000,0.000000000,0.000000000,-1.146453000,0.000000000,0.000000000,1.023308000,0.000000000,0.000000000,-0.026016000,0.000000000,0.000000000,0.234144000,0.000000000,0.000000000,0.034624000,0.000000000,0.000000000,1720621884.519561291,,,,,,,,,,,
1720621884.530939,-0.057772000,0.000000000,0.000000000,-1.141063000,0.000000000,0.000000000,1.023308000,0.000000000,0.000000000,-0.026016000,0.000000000,0.000000000,0.234880000,0.000000000,0.000000000,0.035296000,0.000000000,0.000000000,1720621884.528561115,,,,,,,,,,,
1720621884.541660,-0.057772000,0.000000000,0.000000000,-1.135673000,0.000000000,0.000000000,1.023308000,0.000000000,0.000000000,-0.026016000,0.000000000,0.000000000,0.235328000,0.000000000,0.000000000,0.033568000,0.000000000,0.000000000,1720621884.538561106,,,,,,,,,,,
1720621884.550980,-0.057772000,0.000000000,0.000000000,-1.135673000,0.000000000,0.000000000,1.023308000,0.000000000,0.000000000,-0.026016000,0.000000000,0.000000000,0.234464000,0.000000000,0.000000000,0.033696000,0.000000000,0.000000000,1720621884.548561096,,,,,,,,,,,
1720621884.561455,-0.057772000,0.000000000,0.000000000,-1.137290000,0.000000000,0.000000000,1.023308000,0.000000000,0.000000000,-0.026016000,0.000000000,0.000000000,0.234752000,0.000000000,0.000000000,0.032896000,0.000000000,0.000000000,1720621884.558561087,,,,,,,,,,,
1720621884.561490,-0.057772000,0.000000000,0.000000000,-1.137290000,0.000000000,0.000000000,1.023308000,0.000000000,0.000000000,-0.026016000,0.000000000,0.000000000,0.234752000,0.000000000,0.000000000,0.032896000,0.000000000,0.000000000,1720621884.559561253,,,,,,,,,,,
1720621884.562881,-0.057772000,0.000000000,0.000000000,-1.137290000,0.000000000,0.000000000,1.023308000,0.000000000,0.000000000,-0.026016000,0.000000000,0.000000000,0.234752000,0.000000000,0.000000000,0.032896000,0.000000000,0.000000000,1720621884.560561180,,,,,,,,,,,
1720621884.564985,-0.057772000,0.000000000,0.000000000,-1.137290000,0.000000000,0.000000000,1.023308000,0.000000000,0.000000000,-0.026016000,0.000000000,0.000000000,0.234528000,0.000000000,0.000000000,0.035360000,0.000000000,0.000000000,1720621884.562561274,,,,,,,,,,,
1720621884.565981,,,,,,,,,,,,,,,,,,,,1720621884.558561087,-1.186824000,3.141592654,0.000000015,0.829037542,-0.000000022,-0.000000054,0.559192949,1.395152983,0.001110973,1.481517837
1720621884.574476,-0.057772000,0.000000000,0.000000000,-1.137290000,0.000000000,0.000000000,1.023308000,0.000000000,0.000000000,-0.026016000,0.000000000,0.000000000,0.234528000,0.000000000,0.000000000,0.035168000,0.000000000,0.000000000,1720621884.571561098,,,,,,,,,,,
1720621884.574493,-0.057772000,0.000000000,0.000000000,-1.137290000,0.000000000,0.000000000,1.023308000,0.000000000,0.000000000,-0.026016000,0.000000000,0.000000000,0.234528000,0.000000000,0.000000000,0.035168000,0.000000000,0.000000000,1720621884.572561264,,,,,,,,,,,
1720621884.575783,-0.057772000,0.000000000,0.000000000,-1.137290000,0.000000000,0.000000000,1.023308000,0.000000000,0.000000000,-0.026016000,0.000000000,0.000000000,0.234528000,0.000000000,0.000000000,0.035168000,0.000000000,0.000000000,1720621884.573561192,,,,,,,,,,,
1720621884.577940,-0.057772000,0.000000000,0.000000000,-1.138368000,0.000000000,0.000000000,1.023308000,0.000000000,0.000000000,-0.026016000,0.000000000,0.000000000,0.234880000,0.000000000,0.000000000,0.032256000,0.000000000,0.000000000,1720621884.575561285,,,,,,,,,,,
1720621884.578928,-0.057772000,0.000000000,0.000000000,-1.138368000,0.000000000,0.000000000,1.023308000,0.000000000,0.000000000,-0.026016000,0.000000000,0.000000000,0.234880000,0.000000000,0.000000000,0.032256000,0.000000000,0.000000000,1720621884.576561213,,,,,,,,,,,
1720621884.584030,-0.057772000,0.000000000,0.000000000,-1.138907000,0.000000000,0.000000000,1.023308000,0.000000000,0.000000000,-0.026016000,0.000000000,0.000000000,0.234144000,0.000000000,0.000000000,0.035488000,0.000000000,0.000000000,1720621884.581561089,,,,,,,,,,,
1720621884.589860,-0.057772000,0.000000000,0.000000000,-1.139985000,0.000000000,0.000000000,1.023308000,0.000000000,0.000000000,-0.026016000,0.000000000,0.000000000,0.234400000,0.000000000,0.000000000,0.035616000,0.000000000,0.000000000,1720621884.587561131,,,,,,,,,,,
1720621884.590947,-0.057772000,0.000000000,0.000000000,-1.139985000,0.000000000,0.000000000,1.023308000,0.000000000,0.000000000,-0.026016000,0.000000000,0.000000000,0.234400000,0.000000000,0.000000000,0.035616000,0.000000000,0.000000000,1720621884.588561058,,,,,,,,,,,
1720621884.593159,-0.057772000,0.000000000,0.000000000,-1.139985000,0.000000000,0.000000000,1.023308000,0.000000000,0.000000000,-0.026016000,0.000000000,0.000000000,0.234752000,0.000000000,0.000000000,0.032256000,0.000000000,0.000000000,1720621884.590561152,,,,,,,,,,,
1720621884.595647,-0.057772000,0.000000000,0.000000000,-1.139985000,0.000000000,0.000000000,1.023308000,0.000000000,0.000000000,-0.026016000,0.000000000,0.000000000,0.234752000,0.000000000,0.000000000,0.032256000,0.000000000,0.000000000,1720621884.593561172,,,,,,,,,,,
1720621884.605217,-0.057772000,0.000000000,0.000000000,-1.131900000,0.000000000,0.000000000,1.023308000,0.000000000,0.000000000,-0.026016000,0.000000000,0.000000000,0.234272000,0.000000000,0.000000000,0.034624000,0.000000000,0.000000000,1720621884.602561235,,,,,,,,,,,
1720621884.614494,-0.057772000,0.000000000,0.000000000,-1.139985000,0.000000000,0.000000000,1.023308000,0.000000000,0.000000000,-0.026016000,0.000000000,0.000000000,0.234816000,0.000000000,0.000000000,0.034304000,0.000000000,0.000000000,1720621884.611561060,,,,,,,,,,,
1720621884.614531,-0.057772000,0.000000000,0.000000000,-1.139985000,0.000000000,0.000000000,1.023308000,0.000000000,0.000000000,-0.026016000,0.000000000,0.000000000,0.234816000,0.000000000,0.000000000,0.034304000,0.000000000,0.000000000,1720621884.612561226,,,,,,,,,,,
1720621884.616042,,,,,,,,,,,,,,,,,,,,1720621884.611561060,-1.186824000,3.141592654,0.000000015,0.829037542,-0.000000022,-0.000000054,0.559192949,1.395152983,0.001110973,1.481517837
1720621884.616048,-0.057772000,0.000000000,0.000000000,-1.139985000,0.000000000,0.000000000,1.023308000,0.000000000,0.000000000,-0.026016000,0.000000000,0.000000000,0.234816000,0.000000000,0.000000000,0.034304000,0.000000000,0.000000000,1720621884.613561153,,,,,,,,,,,
1720621884.617845,-0.057772000,0.000000000,0.000000000,-1.139985000,0.000000000,0.000000000,1.023308000,0.000000000,0.000000000,-0.026016000,0.000000000,0.000000000,0.234208000,0.000000000,0.000000000,0.033312000,0.000000000,0.000000000,1720621884.615561247,,,,,,,,,,,
1720621884.621806,-0.057772000,0.000000000,0.000000000,-1.139985000,0.000000000,0.000000000,1.023308000,0.000000000,0.000000000,-0.026016000,0.000000000,0.000000000,0.234656000,0.000000000,0.000000000,0.033952000,0.000000000,0.000000000,1720621884.619561195,,,,,,,,,,,
1720621884.630118,-0.058344000,0.000000000,0.000000000,-1.136751000,0.000000000,0.000000000,1.023308000,0.000000000,0.000000000,-0.026016000,0.000000000,0.000000000,0.233952000,0.000000000,0.000000000,0.033632000,0.000000000,0.000000000,1720621884.627561092,,,,,,,,,,,
1720621884.634115,-0.057772000,0.000000000,0.000000000,-1.137290000,0.000000000,0.000000000,1.023308000,0.000000000,0.000000000,-0.026016000,0.000000000,0.000000000,0.234656000,0.000000000,0.000000000,0.034176000,0.000000000,0.000000000,1720621884.631561279,,,,,,,,,,,
1720621884.642084,-0.057486000,0.000000000,0.000000000,-1.138368000,0.000000000,0.000000000,1.023308000,0.000000000,0.000000000,-0.026016000,0.000000000,0.000000000,0.234880000,0.000000000,0.000000000,0.034432000,0.000000000,0.000000000,1720621884.639561176,,,,,,,,,,,
1720621884.645165,-0.057486000,0.000000000,0.000000000,-1.138907000,0.000000000,0.000000000,1.023308000,0.000000000,0.000000000,-0.026016000,0.000000000,0.000000000,0.234272000,0.000000000,0.000000000,0.033568000,0.000000000,0.000000000,1720621884.642561197,,,,,,,,,,,
1720621884.654668,-0.057486000,0.000000000,0.000000000,-1.139985000,0.000000000,0.000000000,1.023308000,0.000000000,0.000000000,-0.026016000,0.000000000,0.000000000,0.234336000,0.000000000,0.000000000,0.033376000,0.000000000,0.000000000,1720621884.651561260,,,,,,,,,,,
1720621884.658080,-0.057486000,0.000000000,0.000000000,-1.139985000,0.000000000,0.000000000,1.023308000,0.000000000,0.000000000,-0.026016000,0.000000000,0.000000000,0.233952000,0.000000000,0.000000000,0.034752000,0.000000000,0.000000000,1720621884.655561209,,,,,,,,,,,
1720621884.661731,-0.057486000,0.000000000,0.000000000,-1.139985000,0.000000000,0.000000000,1.023308000,0.000000000,0.000000000,-0.026016000,0.000000000,0.000000000,0.234080000,0.000000000,0.000000000,0.033248000,0.000000000,0.000000000,1720621884.659561157,,,,,,,,,,,
1720621884.674924,-0.057486000,0.000000000,0.000000000,-1.136751000,0.000000000,0.000000000,1.023308000,0.000000000,0.000000000,-0.026016000,0.000000000,0.000000000,0.235264000,0.000000000,0.000000000,0.034240000,0.000000000,0.000000000,1720621884.668561220,,,,,,,,,,,
1720621884.675977,,,,,,,,,,,,,,,,,,,,1720621884.668561220,-1.186824000,3.141592654,0.000000015,0.829037542,-0.000000022,-0.000000054,0.559192949,1.395152983,0.001110973,1.481517837
1720621884.683656,-0.057486000,0.000000000,0.000000000,-1.142680000,0.000000000,0.000000000,1.023308000,0.000000000,0.000000000,-0.026016000,0.000000000,0.000000000,0.234464000,0.000000000,0.000000000,0.034048000,0.000000000,0.000000000,1720621884.680561066,,,,,,,,,,,
1720621884.690038,-0.057486000,0.000000000,0.000000000,-1.141602000,0.000000000,0.000000000,1.023308000,0.000000000,0.000000000,-0.026016000,0.000000000,0.000000000,0.234464000,0.000000000,0.000000000,0.034240000,0.000000000,0.000000000,1720621884.687561274,,,,,,,,,,,
1720621884.691036,-0.057486000,0.000000000,0.000000000,-1.141602000,0.000000000,0.000000000,1.023308000,0.000000000,0.000000000,-0.026016000,0.000000000,0.000000000,0.234464000,0.000000000,0.000000000,0.034240000,0.000000000,0.000000000,1720621884.688561201,,,,,,,,,,,
1720621884.695034,-0.057486000,0.000000000,0.000000000,-1.122198000,0.000000000,0.000000000,1.023308000,0.000000000,0.000000000,-0.026016000,0.000000000,0.000000000,0.233664000,0.000000000,0.000000000,0.033888000,0.000000000,0.000000000,1720621884.692561150,,,,,,,,,,,
1720621884.702312,-0.057486000,0.000000000,0.000000000,-1.141063000,0.000000000,0.000000000,1.023308000,0.000000000,0.000000000,-0.026016000,0.000000000,0.000000000,0.234272000,0.000000000,0.000000000,0.033824000,0.000000000,0.000000000,1720621884.699561119,,,,,,,,,,,
1720621884.703751,-0.057486000,0.000000000,0.000000000,-1.141063000,0.000000000,0.000000000,1.023308000,0.000000000,0.000000000,-0.026016000,0.000000000,0.000000000,0.234272000,0.000000000,0.000000000,0.033824000,0.000000000,0.000000000,1720621884.700561285,,,,,,,,,,,
1720621884.707841,-0.057486000,0.000000000,0.000000000,-1.141063000,0.000000000,0.000000000,1.023308000,0.000000000,0.000000000,-0.026016000,0.000000000,0.000000000,0.234144000,0.000000000,0.000000000,0.033632000,0.000000000,0.000000000,1720621884.705561161,,,,,,,,,,,
1720621884.715440,-0.057486000,0.000000000,0.000000000,-1.143758000,0.000000000,0.000000000,1.023308000,0.000000000,0.000000000,-0.026016000,0.000000000,0.000000000,0.234592000,0.000000000,0.000000000,0.033568000,0.000000000,0.000000000,1720621884.712561131,,,,,,,,,,,
1720621884.717165,-0.057486000,0.000000000,0.000000000,-1.141063000,0.000000000,0.000000000,1.023308000,0.000000000,0.000000000,-0.026016000,0.000000000,0.000000000,0.233792000,0.000000000,0.000000000,0.034304000,0.000000000,0.000000000,1720621884.714561224,,,,,,,,,,,
1720621884.727087,-0.057486000,0.000000000,0.000000000,-1.148070000,0.000000000,0.000000000,1.023308000,0.000000000,0.000000000,-0.026016000,0.000000000,0.000000000,0.234656000,0.000000000,0.000000000,0.034816000,0.000000000,0.000000000,1720621884.723561287,,,,,,,,,,,
1720621884.727174,-0.057486000,0.000000000,0.000000000,-1.148070000,0.000000000,0.000000000,1.023308000,0.000000000,0.000000000,-0.026016000,0.000000000,0.000000000,0.234656000,0.000000000,0.000000000,0.034816000,0.000000000,0.000000000,1720621884.724561214,,,,,,,,,,,
1720621884.728163,-0.057486000,0.000000000,0.000000000,-1.148070000,0.000000000,0.000000000,1.023308000,0.000000000,0.000000000,-0.026016000,0.000000000,0.000000000,0.234656000,0.000000000,0.000000000,0.034816000,0.000000000,0.000000000,1720621884.725561142,,,,,,,,,,,
1720621884.730017,-0.057486000,0.000000000,0.000000000,-1.141063000,0.000000000,0.000000000,1.023308000,0.000000000,0.000000000,-0.026016000,0.000000000,0.000000000,0.234464000,0.000000000,0.000000000,0.033184000,0.000000000,0.000000000,1720621884.727561235,,,,,,,,,,,
1720621884.734199,-0.057486000,0.000000000,0.000000000,-1.141063000,0.000000000,0.000000000,1.023308000,0.000000000,0.000000000,-0.026016000,0.000000000,0.000000000,0.234464000,0.000000000,0.000000000,0.034304000,0.000000000,0.000000000,1720621884.731561184,,,,,,,,,,,
1720621884.735924,,,,,,,,,,,,,,,,,,,,1720621884.723561287,-1.186824000,3.141592654,0.000000015,0.829037542,-0.000000022,-0.000000054,0.559192949,1.395152983,0.001110973,1.481517837
1720621884.742580,-0.057486000,0.000000000,0.000000000,-1.141063000,0.000000000,0.000000000,1.023308000,0.000000000,0.000000000,-0.026016000,0.000000000,0.000000000,0.233952000,0.000000000,0.000000000,0.033888000,0.000000000,0.000000000,1720621884.739561081,,,,,,,,,,,
1720621884.746267,-0.057486000,0.000000000,0.000000000,-1.141063000,0.000000000,0.000000000,1.023308000,0.000000000,0.000000000,-0.026016000,0.000000000,0.000000000,0.234208000,0.000000000,0.000000000,0.033952000,0.000000000,0.000000000,1720621884.743561268,,,,,,,,,,,
1720621884.754562,-0.057486000,0.000000000,0.000000000,-1.141063000,0.000000000,0.000000000,1.023308000,0.000000000,0.000000000,-0.026016000,0.000000000,0.000000000,0.234080000,0.000000000,0.000000000,0.034816000,0.000000000,0.000000000,1720621884.751561165,,,,,,,,,,,
1720621884.758143,-0.057486000,0.000000000,0.000000000,-1.139985000,0.000000000,0.000000000,1.023308000,0.000000000,0.000000000,-0.026016000,0.000000000,0.000000000,0.233952000,0.000000000,0.000000000,0.032320000,0.000000000,0.000000000,1720621884.755561113,,,,,,,,,,,
1720621884.766799,-0.057486000,0.000000000,0.000000000,-1.137290000,0.000000000,0.000000000,1.023308000,0.000000000,0.000000000,-0.026016000,0.000000000,0.000000000,0.234656000,0.000000000,0.000000000,0.032384000,0.000000000,0.000000000,1720621884.763561249,,,,,,,,,,,
1720621884.770196,-0.057486000,0.000000000,0.000000000,-1.137290000,0.000000000,0.000000000,1.023308000,0.000000000,0.000000000,-0.026016000,0.000000000,0.000000000,0.234336000,0.000000000,0.000000000,0.035360000,0.000000000,0.000000000,1720621884.767561197,,,,,,,,,,,
1720621884.778751,-0.057486000,0.000000000,0.000000000,-1.137290000,0.000000000,0.000000000,1.023308000,0.000000000,0.000000000,-0.026016000,0.000000000,0.000000000,0.233728000,0.000000000,0.000000000,0.036160000,-0.000038380,0.009134350,1720621884.775561094,,,,,,,,,,,
1720621884.782007,-0.057486000,0.000000000,0.000000000,-1.138368000,0.000000000,0.000000000,1.023308000,0.000000000,0.000000000,-0.026016000,0.000000000,0.000000000,0.235008000,0.000000000,0.000000000,0.032320000,0.000000000,0.009134350,1720621884.779561281,,,,,,,,,,,
1720621884.785825,,,,,,,,,,,,,,,,,,,,1720621884.775561094,-1.186823998,-3.141490200,-0.000015894,0.829037542,-0.000010753,-0.000095047,0.559192948,1.395152983,0.001112987,1.481517879
1720621884.790688,-0.057486000,0.000000000,0.000000000,-1.138907000,0.000000000,0.000000000,1.023308000,0.000000000,0.000000000,-0.026016000,0.000000000,0.000000000,0.233952000,0.000000000,0.000000000,0.033088000,0.000000000,0.000000000,1720621884.787561178,,,,,,,,,,,
1720621884.794312,-0.057486000,0.000000000,0.000000000,-1.138907000,0.000000000,0.000000000,1.023308000,0.000000000,0.000000000,-0.026016000,0.000000000,0.000000000,0.234592000,0.000000000,0.000000000,0.034304000,0.000000000,0.000000000,1720621884.791561127,,,,,,,,,,,
1720621884.801401,-0.057486000,0.000000000,0.000000000,-1.138907000,0.000000000,0.000000000,1.023308000,0.000000000,0.000000000,-0.026016000,0.000000000,0.000000000,0.234816000,0.000000000,0.000000000,0.034240000,0.000000000,0.000000000,1720621884.798561096,,,,,,,,,,,
1720621884.806732,-0.057486000,0.000000000,0.000000000,-1.138907000,0.000000000,0.000000000,1.023308000,0.000000000,0.000000000,-0.026016000,0.000000000,0.000000000,0.234080000,0.000000000,0.000000000,0.034112000,0.000000000,0.000000000,1720621884.803561211,,,,,,,,,,,
1720621884.813900,-0.057486000,0.000000000,0.000000000,-1.138907000,0.000000000,0.000000000,1.023308000,0.000000000,0.000000000,-0.026016000,0.000000000,0.000000000,0.233952000,0.000000000,0.000000000,0.034560000,0.000000000,0.000000000,1720621884.810561180,,,,,,,,,,,
1720621884.822683,-0.057486000,0.000000000,0.000000000,-1.138907000,0.000000000,0.000000000,1.023308000,0.000000000,0.000000000,-0.026016000,0.000000000,0.000000000,0.234656000,0.000000000,0.000000000,0.034976000,0.000000000,0.000000000,1720621884.819561243,,,,,,,,,,,
1720621884.823826,-0.057486000,0.000000000,0.000000000,-1.138907000,0.000000000,0.000000000,1.023308000,0.000000000,0.000000000,-0.026016000,0.000000000,0.000000000,0.234656000,0.000000000,0.000000000,0.034976000,0.000000000,0.000000000,1720621884.820561171,,,,,,,,,,,
1720621884.825715,-0.057486000,0.000000000,0.000000000,-1.144297000,0.000000000,0.000000000,1.023308000,0.000000000,0.000000000,-0.026016000,0.000000000,0.000000000,0.234400000,0.000000000,0.000000000,0.033184000,0.000000000,0.000000000,1720621884.822561264,,,,,,,,,,,
1720621884.826695,-0.057486000,0.000000000,0.000000000,-1.144297000,0.000000000,0.000000000,1.023308000,0.000000000,0.000000000,-0.026016000,0.000000000,0.000000000,0.234400000,0.000000000,0.000000000,0.033184000,0.000000000,0.000000000,1720621884.823561192,,,,,,,,,,,
1720621884.827419,-0.057486000,0.000000000,0.000000000,-1.144297000,0.000000000,0.000000000,1.023308000,0.000000000,0.000000000,-0.026016000,0.000000000,0.000000000,0.234400000,0.000000000,0.000000000,0.033184000,0.000000000,0.000000000,1720621884.824561119,,,,,,,,,,,
1720621884.831444,-0.057486000,0.000000000,0.000000000,-1.138907000,0.000000000,0.000000000,1.023308000,0.000000000,0.000000000,-0.026016000,0.000000000,0.000000000,0.234144000,0.000000000,0.000000000,0.033952000,0.000000000,0.000000000,1720621884.828561068,,,,,,,,,,,
1720621884.836084,,,,,,,,,,,,,,,,,,,,1720621884.828561068,-1.186824000,3.141592654,0.000000015,0.829037542,-0.000000022,-0.000000054,0.559192949,1.395152983,0.001110973,1.481517837
1720621884.838885,-0.057486000,0.000000000,0.000000000,-1.138907000,0.000000000,0.000000000,1.023308000,0.000000000,0.000000000,-0.026016000,0.000000000,0.000000000,0.234272000,0.000000000,0.000000000,0.034048000,0.000000000,0.000000000,1720621884.835561275,,,,,,,,,,,
1720621884.839549,-0.057486000,0.000000000,0.000000000,-1.138907000,0.000000000,0.000000000,1.023308000,0.000000000,0.000000000,-0.026016000,0.000000000,0.000000000,0.234272000,0.000000000,0.000000000,0.034048000,0.000000000,0.000000000,1720621884.836561203,,,,,,,,,,,
1720621884.843754,-0.057486000,0.000000000,0.000000000,-1.138907000,0.000000000,0.000000000,1.023308000,0.000000000,0.000000000,-0.026016000,0.000000000,0.000000000,0.235008000,0.000000000,0.000000000,0.033696000,0.000000000,0.000000000,1720621884.840561152,,,,,,,,,,,
1720621884.850555,-0.057486000,0.000000000,0.000000000,-1.138907000,0.000000000,0.000000000,1.023308000,0.000000000,0.000000000,-0.026016000,0.000000000,0.000000000,0.234400000,0.000000000,0.000000000,0.032768000,0.000000000,0.000000000,1720621884.847561121,,,,,,,,,,,
1720621884.851384,-0.057486000,0.000000000,0.000000000,-1.138907000,0.000000000,0.000000000,1.023308000,0.000000000,0.000000000,-0.026016000,0.000000000,0.000000000,0.234400000,0.000000000,0.000000000,0.032768000,0.000000000,0.000000000,1720621884.848561287,,,,,,,,,,,
1720621884.862510,-0.057486000,0.000000000,0.000000000,-1.138907000,0.000000000,0.000000000,1.023308000,0.000000000,0.000000000,-0.026016000,0.000000000,0.000000000,0.234880000,0.000000000,0.000000000,0.032960000,0.000000000,0.000000000,1720621884.855561256,,,,,,,,,,,
1720621884.864186,-0.057486000,0.000000000,0.000000000,-1.138907000,0.000000000,0.000000000,1.023308000,0.000000000,0.000000000,-0.026016000,0.000000000,0.000000000,0.234144000,0.000000000,0.000000000,0.034816000,0.000000000,0.000000000,1720621884.860561132,,,,,,,,,,,
1720621884.865658,-0.057486000,0.000000000,0.000000000,-1.138907000,0.000000000,0.000000000,1.023308000,0.000000000,0.000000000,-0.026016000,0.000000000,0.000000000,0.233664000,0.000000000,0.000000000,0.033088000,0.000000000,0.000000000,1720621884.862561226,,,,,,,,,,,
1720621884.874692,-0.057486000,0.000000000,0.000000000,-1.138907000,0.000000000,0.000000000,1.023308000,0.000000000,0.000000000,-0.026016000,0.000000000,0.000000000,0.234144000,0.000000000,0.000000000,0.032960000,0.000000000,0.000000000,1720621884.871561289,,,,,,,,,,,
1720621884.875822,-0.057486000,0.000000000,0.000000000,-1.138907000,0.000000000,0.000000000,1.023308000,0.000000000,0.000000000,-0.026016000,0.000000000,0.000000000,0.234144000,0.000000000,0.000000000,0.032960000,0.000000000,0.000000000,1720621884.872561216,,,,,,,,,,,
1720621884.878806,-0.057486000,0.000000000,0.000000000,-1.138907000,0.000000000,0.000000000,1.023308000,0.000000000,0.000000000,-0.026016000,0.000000000,0.000000000,0.234336000,0.000000000,0.000000000,0.034496000,0.000000000,0.000000000,1720621884.875561237,,,,,,,,,,,
1720621884.887069,-0.057486000,0.000000000,0.000000000,-1.104950000,0.000000000,0.000000000,1.023308000,0.000000000,0.000000000,-0.026016000,0.000000000,0.000000000,0.234144000,0.000000000,0.000000000,0.033504000,0.000000000,0.000000000,1720621884.883561134,,,,,,,,,,,
1720621884.887604,-0.057486000,0.000000000,0.000000000,-1.104950000,0.000000000,0.000000000,1.023308000,0.000000000,0.000000000,-0.026016000,0.000000000,0.000000000,0.234144000,0.000000000,0.000000000,0.033504000,0.000000000,0.000000000,1720621884.884561062,,,,,,,,,,,
1720621884.889212,-0.057486000,0.000000000,0.000000000,-1.166396000,0.000000000,0.000000000,1.023308000,0.000000000,0.000000000,-0.026016000,0.000000000,0.000000000,0.234880000,0.000000000,0.000000000,0.034432000,0.000000000,0.000000000,1720621884.886561155,,,,,,,,,,,
1720621884.896014,,,,,,,,,,,,,,,,,,,,1720621884.883561134,-1.186824000,3.141592654,0.000000015,0.829037542,-0.000000022,-0.000000054,0.559192949,1.395152983,0.001110973,1.481517837
1720621884.898768,-0.057486000,0.000000000,0.000000000,-1.138907000,0.000000000,0.000000000,1.023308000,0.000000000,0.000000000,-0.026016000,0.000000000,0.000000000,0.234272000,0.000000000,0.000000000,0.034688000,0.000000000,0.000000000,1720621884.895561218,,,,,,,,,,,
1720621884.899565,-0.057486000,0.000000000,0.000000000,-1.138907000,0.000000000,0.000000000,1.023308000,0.000000000,0.000000000,-0.026016000,0.000000000,0.000000000,0.234272000,0.000000000,0.000000000,0.034688000,0.000000000,0.000000000,1720621884.896561146,,,,,,,,,,,
1720621884.902453,-0.057486000,0.000000000,0.000000000,-1.117886000,0.000000000,0.000000000,1.023308000,0.000000000,0.000000000,-0.026016000,0.000000000,0.000000000,0.234464000,0.000000000,0.000000000,0.033504000,0.000000000,0.000000000,1720621884.897561073,,,,,,,,,,,
1720621884.910765,-0.057486000,0.000000000,0.000000000,-1.141063000,0.000000000,0.000000000,1.023308000,0.000000000,0.000000000,-0.026016000,0.000000000,0.000000000,0.234592000,0.000000000,0.000000000,0.033088000,0.000000000,0.000000000,1720621884.907561064,,,,,,,,,,,
1720621884.911669,-0.057486000,0.000000000,0.000000000,-1.141063000,0.000000000,0.000000000,1.023308000,0.000000000,0.000000000,-0.026016000,0.000000000,0.000000000,0.234592000,0.000000000,0.000000000,0.033088000,0.000000000,0.000000000,1720621884.908561230,,,,,,,,,,,
1720621884.913846,-0.057486000,0.000000000,0.000000000,-1.141063000,0.000000000,0.000000000,1.023308000,0.000000000,0.000000000,-0.026016000,0.000000000,0.000000000,0.234592000,0.000000000,0.000000000,0.034688000,0.000000000,0.000000000,1720621884.910561085,,,,,,,,,,,
1720621884.918653,-0.057486000,0.000000000,0.000000000,-1.120581000,0.000000000,0.000000000,1.023308000,0.000000000,0.000000000,-0.026016000,0.000000000,0.000000000,0.234080000,0.000000000,0.000000000,0.033568000,0.000000000,0.000000000,1720621884.915561199,,,,,,,,,,,
1720621884.926915,-0.057486000,0.000000000,0.000000000,-1.150765000,0.000000000,0.000000000,1.023308000,0.000000000,0.000000000,-0.026016000,0.000000000,0.000000000,0.234944000,0.000000000,0.000000000,0.032832000,0.000000000,0.000000000,1720621884.923561096,,,,,,,,,,,
1720621884.930682,-0.057486000,0.000000000,0.000000000,-1.142680000,0.000000000,0.000000000,1.023308000,0.000000000,0.000000000,-0.026016000,0.000000000,0.000000000,0.233536000,0.000000000,0.000000000,0.035104000,0.000000000,0.000000000,1720621884.927561283,,,,,,,,,,,
1720621884.937778,-0.057486000,0.000000000,0.000000000,-1.135673000,0.000000000,0.000000000,1.023308000,0.000000000,0.000000000,-0.026016000,0.000000000,0.000000000,0.234752000,0.000000000,0.000000000,0.034752000,0.000000000,0.000000000,1720621884.934561253,,,,,,,,,,,
1720621884.940010,-0.057486000,0.000000000,0.000000000,-1.135673000,0.000000000,0.000000000,1.023308000,0.000000000,0.000000000,-0.026016000,0.000000000,0.000000000,0.234752000,0.000000000,0.000000000,0.034752000,0.000000000,0.000000000,1720621884.936561108,,,,,,,,,,,
1720621884.942629,-0.057486000,0.000000000,0.000000000,-1.144297000,0.000000000,0.000000000,1.023308000,0.000000000,0.000000000,-0.026016000,0.000000000,0.000000000,0.233664000,0.000000000,0.000000000,0.033696000,0.000000000,0.000000000,1720621884.939561129,,,,,,,,,,,
1720621884.945861,,,,,,,,,,,,,,,,,,,,1720621884.934561253,-1.186824000,3.141592654,0.000000015,0.829037542,-0.000000022,-0.000000054,0.559192949,1.395152983,0.001110973,1.481517837
1720621884.954619,-0.057486000,0.000000000,0.000000000,-1.131361000,0.000000000,0.000000000,1.023308000,0.000000000,0.000000000,-0.026016000,0.000000000,0.000000000,0.233888000,0.000000000,0.000000000,0.033248000,0.000000000,0.000000000,1720621884.951561213,,,,,,,,,,,
1720621884.961897,-0.057486000,0.000000000,0.000000000,-1.135673000,0.000000000,0.000000000,1.023308000,0.000000000,0.000000000,-0.026016000,0.000000000,0.000000000,0.234752000,0.000000000,0.000000000,0.032704000,0.000000000,0.000000000,1720621884.958561182,,,,,,,,,,,
1720621884.963502,-0.057486000,0.000000000,0.000000000,-1.135673000,0.000000000,0.000000000,1.023308000,0.000000000,0.000000000,-0.026016000,0.000000000,0.000000000,0.234752000,0.000000000,0.000000000,0.032704000,0.000000000,0.000000000,1720621884.960561275,,,,,,,,,,,
1720621884.966484,-0.057486000,0.000000000,0.000000000,-1.141063000,0.000000000,0.000000000,1.023308000,0.000000000,0.000000000,-0.026016000,0.000000000,0.000000000,0.234464000,0.000000000,0.000000000,0.035232000,0.000000000,0.000000000,1720621884.963561058,,,,,,,,,,,
1720621884.978717,-0.057486000,0.000000000,0.000000000,-1.139985000,0.000000000,0.000000000,1.023308000,0.000000000,0.000000000,-0.025664000,0.000000000,0.000000000,0.234656000,0.000000000,0.000000000,0.033024000,0.000000000,0.000000000,1720621884.975561142,,,,,,,,,,,
1720621884.986167,-0.057486000,0.000000000,0.000000000,-1.142680000,0.000000000,0.000000000,1.023308000,0.000000000,0.000000000,-0.026016000,0.000000000,0.000000000,0.234208000,0.000000000,0.000000000,0.033024000,0.000000000,0.000000000,1720621884.982561111,,,,,,,,,,,
1720621884.986893,-0.057486000,0.000000000,0.000000000,-1.142680000,0.000000000,0.000000000,1.023308000,0.000000000,0.000000000,-0.026016000,0.000000000,0.000000000,0.234208000,0.000000000,0.000000000,0.033024000,0.000000000,0.000000000,1720621884.983561277,,,,,,,,,,,
1720621884.991792,-0.057486000,0.000000000,0.000000000,-1.141602000,0.000000000,0.000000000,1.023308000,0.000000000,0.000000000,-0.026016000,0.000000000,0.000000000,0.234816000,0.000000000,0.000000000,0.034112000,0.000000000,0.000000000,1720621884.988561153,,,,,,,,,,,
1720621884.995917,,,,,,,,,,,,,,,,,,,,1720621884.988561153,-1.186824000,3.141592654,0.000000015,0.829037542,-0.000000022,-0.000000054,0.559192949,1.395152983,0.001110973,1.481517837
1720621884.998943,-0.057486000,0.000000000,0.000000000,-1.173403000,0.000000000,0.000000000,1.023308000,0.000000000,0.000000000,-0.026016000,0.000000000,0.000000000,0.234080000,0.000000000,0.000000000,0.033760000,0.000000000,0.000000000,1720621884.995561123,,,,,,,,,,,
1720621884.999719,-0.057486000,0.000000000,0.000000000,-1.173403000,0.000000000,0.000000000,1.023308000,0.000000000,0.000000000,-0.026016000,0.000000000,0.000000000,0.234080000,0.000000000,0.000000000,0.033760000,0.000000000,0.000000000,1720621884.996561289,,,,,,,,,,,
1720621885.005935,-0.057486000,0.000000000,0.000000000,-1.139985000,0.000000000,0.000000000,1.023308000,0.000000000,0.000000000,-0.026016000,0.000000000,0.000000000,0.234080000,0.000000000,0.000000000,0.033952000,0.000000000,0.000000000,1720621885.002561092,,,,,,,,,,,
1720621885.011792,-0.057486000,0.000000000,0.000000000,-1.110879000,0.000000000,0.000000000,1.023308000,0.000000000,0.000000000,-0.026016000,0.000000000,0.000000000,0.234464000,0.000000000,0.000000000,0.033088000,0.000000000,0.000000000,1720621885.008561134,,,,,,,,,,,
1720621885.013766,-0.057486000,0.000000000,0.000000000,-1.131900000,0.000000000,0.000000000,1.023308000,0.000000000,0.000000000,-0.026016000,0.000000000,0.000000000,0.234016000,0.000000000,0.000000000,0.034560000,0.000000000,0.000000000,1720621885.010561228,,,,,,,,,,,
1720621885.017929,-0.057486000,0.000000000,0.000000000,-1.149687000,0.000000000,0.000000000,1.023308000,0.000000000,0.000000000,-0.026016000,0.000000000,0.000000000,0.234656000,0.000000000,0.000000000,0.033024000,0.000000000,0.000000000,1720621885.014561176,,,,,,,,,,,
1720621885.026471,-0.057486000,0.000000000,0.000000000,-1.149687000,0.000000000,0.000000000,1.023308000,0.000000000,0.000000000,-0.026016000,0.000000000,0.000000000,0.234400000,0.000000000,0.000000000,0.032768000,0.000000000,0.000000000,1720621885.022561073,,,,,,,,,,,
1720621885.027721,-0.057486000,0.000000000,0.000000000,-1.149687000,0.000000000,0.000000000,1.023308000,0.000000000,0.000000000,-0.026016000,0.000000000,0.000000000,0.234400000,0.000000000,0.000000000,0.032768000,0.000000000,0.000000000,1720621885.024561167,,,,,,,,,,,
1720621885.031666,-0.057486000,0.000000000,0.000000000,-1.124893000,0.000000000,0.000000000,1.023308000,0.000000000,0.000000000,-0.026016000,0.000000000,0.000000000,0.234272000,0.000000000,0.000000000,0.034976000,0.000000000,0.000000000,1720621885.028561115,,,,,,,,,,,
1720621885.050723,-0.057486000,0.000000000,0.000000000,-1.146992000,0.000000000,0.000000000,1.023308000,0.000000000,0.000000000,-0.026016000,0.000000000,0.000000000,0.233888000,0.000000000,0.000000000,0.035840000,0.000000000,0.000000000,1720621885.042561293,,,,,,,,,,,
1720621885.051918,-0.057486000,0.000000000,0.000000000,-1.142680000,0.000000000,0.000000000,1.023308000,0.000000000,0.000000000,-0.026016000,0.000000000,0.000000000,0.234080000,0.000000000,0.000000000,0.032096000,0.000000000,0.000000000,1720621885.048561096,,,,,,,,,,,
1720621885.053955,-0.057486000,0.000000000,0.000000000,-1.141063000,0.000000000,0.000000000,1.023308000,0.000000000,0.000000000,-0.026016000,0.000000000,0.000000000,0.234272000,0.000000000,0.000000000,0.035168000,0.000000000,0.000000000,1720621885.050561190,,,,,,,,,,,
1720621885.055768,,,,,,,,,,,,,,,,,,,,1720621885.042561293,-1.186824000,3.141592654,0.000000015,0.829037542,-0.000000022,-0.000000054,0.559192949,1.395152983,0.001110973,1.481517837
1720621885.057786,-0.058344000,0.000000000,0.000000000,-1.139985000,0.000000000,0.000000000,1.023308000,0.000000000,0.000000000,-0.026016000,0.000000000,0.000000000,0.234656000,0.000000000,0.000000000,0.032448000,0.000000000,0.000000000,1720621885.054561138,,,,,,,,,,,
1720621885.066391,-0.058344000,0.000000000,0.000000000,-1.138368000,0.000000000,0.000000000,1.023308000,0.000000000,0.000000000,-0.026016000,0.000000000,0.000000000,0.234208000,0.000000000,0.000000000,0.032320000,0.000000000,0.000000000,1720621885.062561274,,,,,,,,,,,
1720621885.071324,-0.058344000,0.000000000,0.000000000,-1.137290000,0.000000000,0.000000000,1.023308000,0.000000000,0.000000000,-0.026016000,0.000000000,0.000000000,0.235200000,0.000000000,0.000000000,0.035424000,0.000000000,0.000000000,1720621885.067561150,,,,,,,,,,,
1720621885.078109,-0.057772000,0.000000000,0.000000000,-1.138368000,0.000000000,0.000000000,1.023308000,0.000000000,0.000000000,-0.026016000,0.000000000,0.000000000,0.234080000,0.000000000,0.000000000,0.035232000,0.000000000,0.000000000,1720621885.074561119,,,,,,,,,,,
1720621885.078839,-0.057772000,0.000000000,0.000000000,-1.138368000,0.000000000,0.000000000,1.023308000,0.000000000,0.000000000,-0.026016000,0.000000000,0.000000000,0.234080000,0.000000000,0.000000000,0.035232000,0.000000000,0.000000000,1720621885.075561285,,,,,,,,,,,
1720621885.082791,-0.057486000,0.000000000,0.000000000,-1.105489000,0.000000000,0.000000000,1.023308000,0.000000000,0.000000000,-0.026016000,0.000000000,0.000000000,0.233888000,0.000000000,0.000000000,0.032896000,0.000000000,0.000000000,1720621885.079561234,,,,,,,,,,,
1720621885.090143,-0.057486000,0.000000000,0.000000000,-1.138907000,0.000000000,0.000000000,1.023308000,0.000000000,0.000000000,-0.026016000,0.000000000,0.000000000,0.234400000,0.000000000,0.000000000,0.033632000,0.000000000,0.000000000,1720621885.086561203,,,,,,,,,,,
1720621885.091610,-0.057486000,0.000000000,0.000000000,-1.138907000,0.000000000,0.000000000,1.023308000,0.000000000,0.000000000,-0.026016000,0.000000000,0.000000000,0.234400000,0.000000000,0.000000000,0.033632000,0.000000000,0.000000000,1720621885.087561131,,,,,,,,,,,
1720621885.094776,-0.057486000,0.000000000,0.000000000,-1.139985000,0.000000000,0.000000000,1.023308000,0.000000000,0.000000000,-0.026016000,0.000000000,0.000000000,0.234752000,0.000000000,0.000000000,0.033888000,0.000000000,0.000000000,1720621885.091561079,,,,,,,,,,,
1720621885.102149,-0.057772000,0.000000000,0.000000000,-1.139985000,0.000000000,0.000000000,1.023308000,0.000000000,0.000000000,-0.026016000,0.000000000,0.000000000,0.234208000,0.000000000,0.000000000,0.032704000,0.000000000,0.000000000,1720621885.098561287,,,,,,,,,,,
1720621885.103132,-0.057772000,0.000000000,0.000000000,-1.139985000,0.000000000,0.000000000,1.023308000,0.000000000,0.000000000,-0.026016000,0.000000000,0.000000000,0.234208000,0.000000000,0.000000000,0.032704000,0.000000000,0.000000000,1720621885.099561214,,,,,,,,,,,
1720621885.105799,,,,,,,,,,,,,,,,,,,,1720621885.098561287,-1.186824000,3.141592654,0.000000015,0.829037542,-0.000000022,-0.000000054,0.559192949,1.395152983,0.001110973,1.481517837
1720621885.106778,-0.057772000,0.000000000,0.000000000,-1.139985000,0.000000000,0.000000000,1.023308000,0.000000000,0.000000000,-0.026016000,0.000000000,0.000000000,0.234400000,0.000000000,0.000000000,0.035296000,0.000000000,0.000000000,1720621885.103561163,,,,,,,,,,,
1720621885.114144,-0.057772000,0.000000000,0.000000000,-1.139985000,0.000000000,0.000000000,1.023308000,0.000000000,0.000000000,-0.026016000,0.000000000,0.000000000,0.234464000,0.000000000,0.000000000,0.035104000,0.000000000,0.000000000,1720621885.110561132,,,,,,,,,,,
1720621885.114687,-0.057772000,0.000000000,0.000000000,-1.139985000,0.000000000,0.000000000,1.023308000,0.000000000,0.000000000,-0.026016000,0.000000000,0.000000000,0.234464000,0.000000000,0.000000000,0.035104000,0.000000000,0.000000000,1720621885.111561060,,,,,,,,,,,
1720621885.118807,-0.057772000,0.000000000,0.000000000,-1.139985000,0.000000000,0.000000000,1.023308000,0.000000000,0.000000000,-0.026016000,0.000000000,0.000000000,0.234272000,0.000000000,0.000000000,0.032384000,0.000000000,0.000000000,1720621885.115561247,,,,,,,,,,,
1720621885.126910,-0.057772000,0.000000000,0.000000000,-1.138907000,0.000000000,0.000000000,1.023308000,0.000000000,0.000000000,-0.026016000,0.000000000,0.000000000,0.234144000,0.000000000,0.000000000,0.031840000,0.000000000,0.000000000,1720621885.122561216,,,,,,,,,,,
1720621885.126951,-0.057772000,0.000000000,0.000000000,-1.138907000,0.000000000,0.000000000,1.023308000,0.000000000,0.000000000,-0.026016000,0.000000000,0.000000000,0.234144000,0.000000000,0.000000000,0.031840000,0.000000000,0.000000000,1720621885.123561144,,,,,,,,,,,
1720621885.131282,-0.057772000,0.000000000,0.000000000,-1.138907000,0.000000000,0.000000000,1.023308000,0.000000000,0.000000000,-0.026016000,0.000000000,0.000000000,0.234464000,0.000000000,0.000000000,0.035968000,0.000000000,0.000000000,1720621885.127561092,,,,,,,,,,,
1720621885.138067,-0.057772000,0.000000000,0.000000000,-1.138907000,0.000000000,0.000000000,1.023308000,0.000000000,0.000000000,-0.026016000,0.000000000,0.000000000,0.234400000,0.000000000,0.000000000,0.035552000,0.000000000,0.000000000,1720621885.134561062,,,,,,,,,,,
1720621885.138985,-0.057772000,0.000000000,0.000000000,-1.138907000,0.000000000,0.000000000,1.023308000,0.000000000,0.000000000,-0.026016000,0.000000000,0.000000000,0.234400000,0.000000000,0.000000000,0.035552000,0.000000000,0.000000000,1720621885.135561228,,,,,,,,,,,
1720621885.142957,-0.057772000,0.000000000,0.000000000,-1.146992000,0.000000000,0.000000000,1.023308000,0.000000000,0.000000000,-0.026016000,0.000000000,0.000000000,0.234400000,0.000000000,0.000000000,0.032832000,0.000000000,0.000000000,1720621885.139561176,,,,,,,,,,,
1720621885.150161,-0.057772000,0.000000000,0.000000000,-1.172864000,0.000000000,0.000000000,1.023308000,0.000000000,0.000000000,-0.026016000,0.000000000,0.000000000,0.234464000,0.000000000,0.000000000,0.032576000,0.000000000,0.000000000,1720621885.146561146,,,,,,,,,,,
1720621885.151610,-0.057772000,0.000000000,0.000000000,-1.172864000,0.000000000,0.000000000,1.023308000,0.000000000,0.000000000,-0.026016000,0.000000000,0.000000000,0.234464000,0.000000000,0.000000000,0.032576000,0.000000000,0.000000000,1720621885.147561073,,,,,,,,,,,
1720621885.155039,-0.057772000,0.000000000,0.000000000,-1.138907000,0.000000000,0.000000000,1.023308000,0.000000000,0.000000000,-0.026016000,0.000000000,0.000000000,0.234400000,0.000000000,0.000000000,0.034880000,0.000000000,0.000000000,1720621885.151561260,,,,,,,,,,,
1720621885.155753,,,,,,,,,,,,,,,,,,,,1720621885.151561260,-1.186824000,3.141592654,0.000000015,0.829037542,-0.000000022,-0.000000054,0.559192949,1.395152983,0.001110973,1.481517837
1720621885.162527,-0.057772000,0.000000000,0.000000000,-1.138907000,0.000000000,0.000000000,1.023308000,0.000000000,0.000000000,-0.026016000,0.000000000,0.000000000,0.234752000,0.000000000,0.000000000,0.034976000,0.000000000,0.000000000,1720621885.158561230,,,,,,,,,,,
1720621885.163136,-0.057772000,0.000000000,0.000000000,-1.138907000,0.000000000,0.000000000,1.023308000,0.000000000,0.000000000,-0.026016000,0.000000000,0.000000000,0.234752000,0.000000000,0.000000000,0.034976000,0.000000000,0.000000000,1720621885.159561157,,,,,,,,,,,
1720621885.167059,-0.057772000,0.000000000,0.000000000,-1.138907000,0.000000000,0.000000000,1.023308000,0.000000000,0.000000000,-0.026016000,0.000000000,0.000000000,0.234944000,0.000000000,0.000000000,0.032256000,0.000000000,0.000000000,1720621885.163561106,,,,,,,,,,,
1720621885.174020,-0.057772000,0.000000000,0.000000000,-1.136751000,0.000000000,0.000000000,1.023308000,0.000000000,0.000000000,-0.026016000,0.000000000,0.000000000,0.234272000,0.000000000,0.000000000,0.033248000,0.000000000,0.000000000,1720621885.170561075,,,,,,,,,,,
1720621885.174972,-0.057772000,0.000000000,0.000000000,-1.136751000,0.000000000,0.000000000,1.023308000,0.000000000,0.000000000,-0.026016000,0.000000000,0.000000000,0.234272000,0.000000000,0.000000000,0.033248000,0.000000000,0.000000000,1720621885.171561241,,,,,,,,,,,
1720621885.180088,-0.057772000,0.000000000,0.000000000,-1.138368000,0.000000000,0.000000000,1.023308000,0.000000000,0.000000000,-0.026016000,0.000000000,0.000000000,0.234464000,0.000000000,0.000000000,0.033504000,0.000000000,0.000000000,1720621885.176561117,,,,,,,,,,,
1720621885.187471,-0.057772000,0.000000000,0.000000000,-1.137290000,0.000000000,0.000000000,1.023308000,0.000000000,0.000000000,-0.026016000,0.000000000,0.000000000,0.234752000,0.000000000,0.000000000,0.033568000,0.000000000,0.000000000,1720621885.183561087,,,,,,,,,,,
1720621885.189244,-0.057772000,0.000000000,0.000000000,-1.134056000,0.000000000,0.000000000,1.023308000,0.000000000,0.000000000,-0.026016000,0.000000000,0.000000000,0.234400000,0.000000000,0.000000000,0.033504000,0.000000000,0.000000000,1720621885.185561180,,,,,,,,,,,
1720621885.198231,-0.057772000,0.000000000,0.000000000,-1.131900000,0.000000000,0.000000000,1.023308000,0.000000000,0.000000000,-0.026016000,0.000000000,0.000000000,0.234336000,0.000000000,0.000000000,0.033376000,0.000000000,0.000000000,1720621885.194561243,,,,,,,,,,,
1720621885.199117,-0.057772000,0.000000000,0.000000000,-1.131900000,0.000000000,0.000000000,1.023308000,0.000000000,0.000000000,-0.026016000,0.000000000,0.000000000,0.234336000,0.000000000,0.000000000,0.033376000,0.000000000,0.000000000,1720621885.195561171,,,,,,,,,,,
1720621885.200132,-0.057772000,0.000000000,0.000000000,-1.131900000,0.000000000,0.000000000,1.023308000,0.000000000,0.000000000,-0.026016000,0.000000000,0.000000000,0.234336000,0.000000000,0.000000000,0.033376000,0.000000000,0.000000000,1720621885.196561098,,,,,,,,,,,
1720621885.202227,-0.057772000,0.000000000,0.000000000,-1.135673000,0.000000000,0.000000000,1.023308000,0.000000000,0.000000000,-0.025664000,0.000000000,0.000000000,0.234816000,0.000000000,0.000000000,0.034688000,0.000000000,0.000000000,1720621885.198561192,,,,,,,,,,,
1720621885.206525,-0.057772000,0.000000000,0.000000000,-1.135673000,0.000000000,0.000000000,1.023308000,0.000000000,0.000000000,-0.026016000,0.000000000,0.000000000,0.234656000,0.000000000,0.000000000,0.033024000,0.000000000,0.000000000,1720621885.202561140,,,,,,,,,,,
1720621885.214309,-0.057772000,0.000000000,0.000000000,-1.131361000,0.000000000,0.000000000,1.023308000,0.000000000,0.000000000,-0.026016000,0.000000000,0.000000000,0.234208000,0.000000000,0.000000000,0.033376000,0.000000000,0.000000000,1720621885.210561275,,,,,,,,,,,
1720621885.215917,,,,,,,,,,,,,,,,,,,,1720621885.202561140,-1.186824000,3.141592654,0.000000015,0.829037542,-0.000000022,-0.000000054,0.559192949,1.395152983,0.001110973,1.481517837
1720621885.218066,-0.057772000,0.000000000,0.000000000,-1.137290000,0.000000000,0.000000000,1.023308000,0.000000000,0.000000000,-0.026016000,0.000000000,0.000000000,0.234944000,0.000000000,0.000000000,0.033888000,0.000000000,0.000000000,1720621885.214561224,,,,,,,,,,,
1720621885.226190,-0.059488000,0.000000000,0.000000000,-1.138368000,0.000000000,0.000000000,1.023308000,0.000000000,0.000000000,-0.026016000,0.000000000,0.000000000,0.234592000,0.000000000,0.000000000,0.034176000,0.000000000,0.000000000,1720621885.222561121,,,,,,,,,,,
1720621885.231617,-0.058344000,0.000000000,0.000000000,-1.138368000,0.000000000,0.000000000,1.023308000,0.000000000,0.000000000,-0.026016000,0.000000000,0.000000000,0.234592000,0.000000000,0.000000000,0.033024000,0.000000000,0.000000000,1720621885.227561235,,,,,,,,,,,
1720621885.238577,-0.057486000,0.000000000,0.000000000,-1.137290000,0.000000000,0.000000000,1.023308000,0.000000000,0.000000000,-0.026016000,0.000000000,0.000000000,0.233664000,0.000000000,0.000000000,0.032512000,0.000000000,0.000000000,1720621885.234561205,,,,,,,,,,,
1720621885.239203,-0.057486000,0.000000000,0.000000000,-1.137290000,0.000000000,0.000000000,1.023308000,0.000000000,0.000000000,-0.026016000,0.000000000,0.000000000,0.233664000,0.000000000,0.000000000,0.032512000,0.000000000,0.000000000,1720621885.235561132,,,,,,,,,,,
1720621885.243109,-0.056914000,0.000000000,0.000000000,-1.138368000,0.000000000,0.000000000,1.023308000,0.000000000,0.000000000,-0.026016000,0.000000000,0.000000000,0.235008000,0.000000000,0.000000000,0.035168000,0.000000000,0.000000000,1720621885.239561081,,,,,,,,,,,
1720621885.250622,-0.056914000,0.000000000,0.000000000,-1.138907000,0.000000000,0.000000000,1.023308000,0.000000000,0.000000000,-0.026016000,0.000000000,0.000000000,0.233728000,0.000000000,0.000000000,0.034752000,0.000000000,0.000000000,1720621885.246561289,,,,,,,,,,,
1720621885.251592,-0.056914000,0.000000000,0.000000000,-1.138907000,0.000000000,0.000000000,1.023308000,0.000000000,0.000000000,-0.026016000,0.000000000,0.000000000,0.233728000,0.000000000,0.000000000,0.034752000,0.000000000,0.000000000,1720621885.247561216,,,,,,,,,,,
1720621885.264078,-0.057486000,0.000000000,0.000000000,-1.138907000,0.000000000,0.000000000,1.023308000,0.000000000,0.000000000,-0.026016000,0.000000000,0.000000000,0.234816000,0.000000000,0.000000000,0.034496000,0.000000000,0.000000000,1720621885.254561186,,,,,,,,,,,
1720621885.265994,,,,,,,,,,,,,,,,,,,,1720621885.254561186,-1.186824000,3.141592654,0.000000015,0.829037542,-0.000000022,-0.000000054,0.559192949,1.395152983,0.001110973,1.481517837
1720621885.266345,-0.057486000,0.000000000,0.000000000,-1.138907000,0.000000000,0.000000000,1.023308000,0.000000000,0.000000000,-0.026016000,0.000000000,0.000000000,0.235200000,0.000000000,0.000000000,0.033440000,0.000000000,0.000000000,1720621885.262561083,,,,,,,,,,,
1720621885.270405,-0.057486000,0.000000000,0.000000000,-1.137290000,0.000000000,0.000000000,1.023308000,0.000000000,0.000000000,-0.026016000,0.000000000,0.000000000,0.233952000,0.000000000,0.000000000,0.034688000,0.000000000,0.000000000,1720621885.266561270,,,,,,,,,,,
1720621885.278576,-0.057486000,0.000000000,0.000000000,-1.138907000,0.000000000,0.000000000,1.023308000,0.000000000,0.000000000,-0.026016000,0.000000000,0.000000000,0.234752000,0.000000000,0.000000000,0.034048000,0.000000000,0.000000000,1720621885.274561167,,,,,,,,,,,
1720621885.282179,-0.057486000,0.000000000,0.000000000,-1.138907000,0.000000000,0.000000000,1.023308000,0.000000000,0.000000000,-0.026016000,0.000000000,0.000000000,0.234816000,0.000000000,0.000000000,0.033824000,0.000000000,0.000000000,1720621885.278561115,,,,,,,,,,,
1720621885.290547,-0.057486000,0.000000000,0.000000000,-1.138907000,0.000000000,0.000000000,1.023308000,0.000000000,0.000000000,-0.026016000,0.000000000,0.000000000,0.234656000,0.000000000,0.000000000,0.032960000,0.000000000,0.000000000,1720621885.286561251,,,,,,,,,,,
1720621885.293796,-0.057486000,0.000000000,0.000000000,-1.145375000,0.000000000,0.000000000,1.023308000,0.000000000,0.000000000,-0.026016000,0.000000000,0.000000000,0.234400000,0.000000000,0.000000000,0.034176000,0.000000000,0.000000000,1720621885.289561272,,,,,,,,,,,
1720621885.301452,-0.057486000,0.000000000,0.000000000,-1.146992000,0.000000000,0.000000000,1.023308000,0.000000000,0.000000000,-0.026016000,0.000000000,0.000000000,0.234272000,0.000000000,0.000000000,0.034304000,0.000000000,0.000000000,1720621885.297561169,,,,,,,,,,,
1720621885.305251,-0.057486000,0.000000000,0.000000000,-1.141063000,0.000000000,0.000000000,1.023308000,0.000000000,0.000000000,-0.026016000,0.000000000,0.000000000,0.234336000,0.000000000,0.000000000,0.034048000,0.000000000,0.000000000,1720621885.301561117,,,,,,,,,,,
1720621885.313926,-0.057486000,0.000000000,0.000000000,-1.141063000,0.000000000,0.000000000,1.023308000,0.000000000,0.000000000,-0.026016000,0.000000000,0.000000000,0.234080000,0.000000000,0.000000000,0.033088000,0.000000000,0.000000000,1720621885.309561253,,,,,,,,,,,
1720621885.316051,,,,,,,,,,,,,,,,,,,,1720621885.309561253,-1.186824000,3.141592654,0.000000015,0.829037542,-0.000000022,-0.000000054,0.559192949,1.395152983,0.001110973,1.481517837
1720621885.325157,-0.057486000,0.000000000,0.000000000,-1.141063000,0.000000000,0.000000000,1.023308000,0.000000000,0.000000000,-0.026016000,0.000000000,0.000000000,0.234336000,0.000000000,0.000000000,0.033440000,0.000000000,0.000000000,1720621885.321561098,,,,,,,,,,,
1720621885.334118,-0.057486000,0.000000000,0.000000000,-1.141602000,0.000000000,0.000000000,1.023308000,0.000000000,0.000000000,-0.026016000,0.000000000,0.000000000,0.233792000,0.000000000,0.000000000,0.033632000,0.000000000,0.000000000,1720621885.329561234,,,,,,,,,,,
1720621885.343116,-0.057486000,0.000000000,0.000000000,-1.141063000,0.000000000,0.000000000,1.023308000,0.000000000,0.000000000,-0.026016000,0.000000000,0.000000000,0.234208000,0.000000000,0.000000000,0.033024000,0.000000000,0.000000000,1720621885.338561058,,,,,,,,,,,
1720621885.343900,-0.057486000,0.000000000,0.000000000,-1.141063000,0.000000000,0.000000000,1.023308000,0.000000000,0.000000000,-0.026016000,0.000000000,0.000000000,0.234208000,0.000000000,0.000000000,0.033024000,0.000000000,0.000000000,1720621885.339561224,,,,,,,,,,,
1720621885.346679,-0.057486000,0.000000000,0.000000000,-1.139985000,0.000000000,0.000000000,1.023308000,0.000000000,0.000000000,-0.026016000,0.000000000,0.000000000,0.234272000,0.000000000,0.000000000,0.035168000,0.000000000,0.000000000,1720621885.342561245,,,,,,,,,,,
1720621885.354793,-0.057486000,0.000000000,0.000000000,-1.138907000,0.000000000,0.000000000,1.023308000,0.000000000,0.000000000,-0.026016000,0.000000000,0.000000000,0.234400000,0.000000000,0.000000000,0.035296000,0.000000000,0.000000000,1720621885.350561142,,,,,,,,,,,
1720621885.355369,-0.057486000,0.000000000,0.000000000,-1.138907000,0.000000000,0.000000000,1.023308000,0.000000000,0.000000000,-0.026016000,0.000000000,0.000000000,0.234400000,0.000000000,0.000000000,0.035296000,0.000000000,0.000000000,1720621885.351561069,,,,,,,,,,,
1720621885.357618,-0.057486000,0.000000000,0.000000000,-1.138907000,0.000000000,0.000000000,1.023308000,0.000000000,0.000000000,-0.026016000,0.000000000,0.000000000,0.233952000,0.000000000,0.000000000,0.032096000,0.000000000,0.000000000,1720621885.353561163,,,,,,,,,,,
1720621885.366795,-0.057486000,0.000000000,0.000000000,-1.129205000,0.000000000,0.000000000,1.023308000,0.000000000,0.000000000,-0.026016000,0.000000000,0.000000000,0.234816000,0.000000000,0.000000000,0.032896000,0.000000000,0.000000000,1720621885.362561226,,,,,,,,,,,
1720621885.367955,-0.057486000,0.000000000,0.000000000,-1.129205000,0.000000000,0.000000000,1.023308000,0.000000000,0.000000000,-0.026016000,0.000000000,0.000000000,0.234816000,0.000000000,0.000000000,0.032896000,0.000000000,0.000000000,1720621885.363561153,,,,,,,,,,,
1720621885.370595,-0.057486000,0.000000000,0.000000000,-1.144297000,0.000000000,0.000000000,1.023308000,0.000000000,0.000000000,-0.026016000,0.000000000,0.000000000,0.235008000,0.000000000,0.000000000,0.034496000,0.000000000,0.000000000,1720621885.366561174,,,,,,,,,,,
1720621885.376348,,,,,,,,,,,,,,,,,,,,1720621885.362561226,-1.186824000,3.141592654,0.000000015,0.829037542,-0.000000022,-0.000000054,0.559192949,1.395152983,0.001110973,1.481517837
1720621885.378801,-0.057486000,0.000000000,0.000000000,-1.137290000,0.000000000,0.000000000,1.023308000,0.000000000,0.000000000,-0.026016000,0.000000000,0.000000000,0.234208000,0.000000000,0.000000000,0.033632000,0.000000000,0.000000000,1720621885.374561071,,,,,,,,,,,
1720621885.379448,-0.057486000,0.000000000,0.000000000,-1.137290000,0.000000000,0.000000000,1.023308000,0.000000000,0.000000000,-0.026016000,0.000000000,0.000000000,0.234208000,0.000000000,0.000000000,0.033632000,0.000000000,0.000000000,1720621885.375561237,,,,,,,,,,,
1720621885.382657,-0.057486000,0.000000000,0.000000000,-1.127588000,0.000000000,0.000000000,1.023308000,0.000000000,0.000000000,-0.026016000,0.000000000,0.000000000,0.234464000,0.000000000,0.000000000,0.034176000,0.000000000,0.000000000,1720621885.378561258,,,,,,,,,,,
1720621885.390766,-0.057486000,0.000000000,0.000000000,-1.136751000,0.000000000,0.000000000,1.023308000,0.000000000,0.000000000,-0.026016000,0.000000000,0.000000000,0.234208000,0.000000000,0.000000000,0.034496000,0.000000000,0.000000000,1720621885.386561155,,,,,,,,,,,
1720621885.391760,-0.057486000,0.000000000,0.000000000,-1.136751000,0.000000000,0.000000000,1.023308000,0.000000000,0.000000000,-0.026016000,0.000000000,0.000000000,0.234208000,0.000000000,0.000000000,0.034496000,0.000000000,0.000000000,1720621885.387561083,,,,,,,,,,,
1720621885.394079,-0.057486000,0.000000000,0.000000000,-1.136751000,0.000000000,0.000000000,1.023308000,0.000000000,0.000000000,-0.026016000,0.000000000,0.000000000,0.234752000,0.000000000,0.000000000,0.033632000,0.000000000,0.000000000,1720621885.389561176,,,,,,,,,,,
1720621885.402881,-0.057486000,0.000000000,0.000000000,-1.136751000,0.000000000,0.000000000,1.023308000,0.000000000,0.000000000,-0.026016000,0.000000000,0.000000000,0.234752000,0.000000000,0.000000000,0.032960000,0.000000000,0.000000000,1720621885.398561239,,,,,,,,,,,
1720621885.405106,-0.057486000,0.000000000,0.000000000,-1.136751000,0.000000000,0.000000000,1.023308000,0.000000000,0.000000000,-0.026016000,0.000000000,0.000000000,0.234752000,0.000000000,0.000000000,0.032960000,0.000000000,0.000000000,1720621885.399561167,,,,,,,,,,,
1720621885.415483,-0.057486000,0.000000000,0.000000000,-1.136751000,0.000000000,0.000000000,1.023308000,0.000000000,0.000000000,-0.026016000,0.000000000,0.000000000,0.234208000,0.000000000,0.000000000,0.035040000,0.000000000,0.000000000,1720621885.409561157,,,,,,,,,,,
1720621885.426498,-0.057486000,0.000000000,0.000000000,-1.138907000,0.000000000,0.000000000,1.023308000,0.000000000,0.000000000,-0.026016000,0.000000000,0.000000000,0.234208000,0.000000000,0.000000000,0.033568000,0.000000000,0.000000000,1720621885.422561169,,,,,,,,,,,
1720621885.435641,-0.057486000,0.000000000,0.000000000,-1.139985000,0.000000000,0.000000000,1.023308000,0.000000000,0.000000000,-0.026016000,0.000000000,0.000000000,0.234336000,0.000000000,0.000000000,0.033184000,0.000000000,0.000000000,1720621885.431561232,,,,,,,,,,,
1720621885.435795,,,,,,,,,,,,,,,,,,,,1720621885.422561169,-1.186824000,3.141592654,0.000000015,0.829037542,-0.000000022,-0.000000054,0.559192949,1.395152983,0.001110973,1.481517837
1720621885.438479,-0.057486000,0.000000000,0.000000000,-1.144297000,0.000000000,0.000000000,1.023308000,0.000000000,0.000000000,-0.026016000,0.000000000,0.000000000,0.235200000,0.000000000,0.000000000,0.034496000,0.000000000,0.000000000,1720621885.434561253,,,,,,,,,,,
1720621885.446918,-0.057486000,0.000000000,0.000000000,-1.141602000,0.000000000,0.000000000,1.023308000,0.000000000,0.000000000,-0.026016000,0.000000000,0.000000000,0.234080000,0.000000000,0.000000000,0.034368000,0.000000000,0.000000000,1720621885.442561150,,,,,,,,,,,
1720621885.450483,-0.057486000,0.000000000,0.000000000,-1.141602000,0.000000000,0.000000000,1.023308000,0.000000000,0.000000000,-0.026016000,0.000000000,0.000000000,0.234400000,0.000000000,0.000000000,0.033632000,0.000000000,0.000000000,1720621885.446561098,,,,,,,,,,,
1720621885.466576,-0.057486000,0.000000000,0.000000000,-1.139985000,0.000000000,0.000000000,1.023308000,0.000000000,0.000000000,-0.026016000,0.000000000,0.000000000,0.234400000,0.000000000,0.000000000,0.033568000,0.000000000,0.000000000,1720621885.457561255,,,,,,,,,,,
1720621885.469038,-0.057486000,0.000000000,0.000000000,-1.138907000,0.000000000,0.000000000,1.023308000,0.000000000,0.000000000,-0.026016000,0.000000000,0.000000000,0.234336000,0.000000000,0.000000000,0.033312000,0.000000000,0.000000000,1720621885.463561058,,,,,,,,,,,
1720621885.479513,-0.057486000,0.000000000,0.000000000,-1.139985000,0.000000000,0.000000000,1.023308000,0.000000000,0.000000000,-0.026016000,0.000000000,0.000000000,0.233952000,0.000000000,0.000000000,0.034432000,0.000000000,0.000000000,1720621885.473561287,,,,,,,,,,,
1720621885.486024,,,,,,,,,,,,,,,,,,,,1720621885.473561287,-1.186824000,3.141592654,0.000000015,0.829037542,-0.000000022,-0.000000054,0.559192949,1.395152983,0.001110973,1.481517837
1720621885.490696,-0.057486000,0.000000000,0.000000000,-1.138907000,0.000000000,0.000000000,1.023308000,0.000000000,0.000000000,-0.026016000,0.000000000,0.000000000,0.234400000,0.000000000,0.000000000,0.033888000,0.000000000,0.000000000,1720621885.486561060,,,,,,,,,,,
1720621885.499598,-0.057486000,0.000000000,0.000000000,-1.138907000,0.000000000,0.000000000,1.023308000,0.000000000,0.000000000,-0.026016000,0.000000000,0.000000000,0.234880000,0.000000000,0.000000000,0.034432000,0.000000000,0.000000000,1720621885.493561268,,,,,,,,,,,
1720621885.509010,-0.057486000,0.000000000,0.000000000,-1.138907000,0.000000000,0.000000000,1.023308000,0.000000000,0.000000000,-0.026016000,0.000000000,0.000000000,0.234592000,0.000000000,0.000000000,0.032960000,0.000000000,0.000000000,1720621885.504561186,,,,,,,,,,,
1720621885.521817,-0.057486000,0.000000000,0.000000000,-1.138368000,0.000000000,0.000000000,1.023308000,0.000000000,0.000000000,-0.026016000,0.000000000,0.000000000,0.233728000,0.000000000,0.000000000,0.034816000,0.000000000,0.000000000,1720621885.517561197,,,,,,,,,,,
1720621885.529274,-0.057486000,0.000000000,0.000000000,-1.141602000,0.000000000,0.000000000,1.023308000,0.000000000,0.000000000,-0.026016000,0.000000000,0.000000000,0.234816000,0.000000000,0.000000000,0.034304000,0.000000000,0.000000000,1720621885.524561167,,,,,,,,,,,
1720621885.536060,,,,,,,,,,,,,,,,,,,,1720621885.524561167,-1.186824000,3.141592654,0.000000015,0.829037542,-0.000000022,-0.000000054,0.559192949,1.395152983,0.001110973,1.481517837
1720621885.539666,-0.057486000,0.000000000,0.000000000,-1.146453000,0.000000000,0.000000000,1.023308000,0.000000000,0.000000000,-0.026016000,0.000000000,0.000000000,0.233952000,0.000000000,0.000000000,0.033312000,0.000000000,0.000000000,1720621885.533561230,,,,,,,,,,,
1720621885.550878,-0.057486000,0.000000000,0.000000000,-1.141602000,0.000000000,0.000000000,1.023022000,0.000000000,0.000000000,-0.026016000,0.000000000,0.000000000,0.234336000,0.000000000,0.000000000,0.034816000,0.000000000,0.000000000,1720621885.546561241,,,,,,,,,,,
1720621885.559595,-0.057486000,0.000000000,0.000000000,-1.128666000,0.000000000,0.000000000,1.022450000,0.000000000,0.000000000,-0.026016000,0.000000000,0.000000000,0.233952000,0.000000000,0.000000000,0.035360000,0.000000000,0.000000000,1720621885.553561211,,,,,,,,,,,
1720621885.569387,-0.057486000,0.000000000,0.000000000,-1.136751000,0.000000000,0.000000000,1.023308000,0.000000000,0.000000000,-0.026016000,0.000000000,0.000000000,0.234336000,0.000000000,0.000000000,0.034112000,0.000000000,0.000000000,1720621885.564561129,,,,,,,,,,,
1720621885.581927,-0.057486000,0.000000000,0.000000000,-1.136751000,0.000000000,0.000000000,1.023880000,0.000000000,0.000000000,-0.026016000,0.000000000,0.000000000,0.234080000,0.000000000,0.000000000,0.033888000,0.000000000,0.000000000,1720621885.577561140,,,,,,,,,,,
1720621885.586024,,,,,,,,,,,,,,,,,,,,1720621885.577561140,-1.186824000,3.141592654,0.000000015,0.829037542,-0.000000022,-0.000000054,0.559192949,1.395152983,0.001110973,1.481517837
1720621885.589260,-0.057486000,0.000000000,0.000000000,-1.138907000,0.000000000,0.000000000,1.023308000,0.000000000,0.000000000,-0.026016000,0.000000000,0.000000000,0.234464000,0.000000000,0.000000000,0.032960000,0.000000000,0.000000000,1720621885.584561110,,,,,,,,,,,
1720621885.598829,-0.057486000,0.000000000,0.000000000,-1.141063000,0.000000000,0.000000000,1.023308000,0.000000000,0.000000000,-0.026016000,0.000000000,0.000000000,0.234464000,0.000000000,0.000000000,0.032512000,0.000000000,0.000000000,1720621885.594561100,,,,,,,,,,,
1720621885.611731,-0.057486000,0.000000000,0.000000000,-1.134595000,0.000000000,0.000000000,1.023308000,0.000000000,0.000000000,-0.026016000,0.000000000,0.000000000,0.235072000,0.000000000,0.000000000,0.034816000,0.000000000,0.000000000,1720621885.607561111,,,,,,,,,,,
1720621885.619057,-0.057486000,0.000000000,0.000000000,-1.141602000,0.000000000,0.000000000,1.023308000,0.000000000,0.000000000,-0.026016000,0.000000000,0.000000000,0.234208000,0.000000000,0.000000000,0.035360000,0.000000000,0.000000000,1720621885.614561081,,,,,,,,,,,
1720621885.621799,-0.057486000,0.000000000,0.000000000,-1.146992000,0.000000000,0.000000000,1.023308000,0.000000000,0.000000000,-0.026016000,0.000000000,0.000000000,0.235136000,0.000000000,0.000000000,0.033024000,0.000000000,0.000000000,1720621885.617561102,,,,,,,,,,,
1720621885.625790,-0.057486000,0.000000000,0.000000000,-1.141063000,0.000000000,0.000000000,1.023308000,0.000000000,0.000000000,-0.026016000,0.000000000,0.000000000,0.234208000,0.000000000,0.000000000,0.034496000,0.000000000,0.000000000,1720621885.621561289,,,,,,,,,,,
1720621885.634207,-0.057486000,0.000000000,0.000000000,-1.139985000,0.000000000,0.000000000,1.023308000,0.000000000,0.000000000,-0.026016000,0.000000000,0.000000000,0.233472000,0.000000000,0.000000000,0.034112000,0.000000000,0.000000000,1720621885.629561186,,,,,,,,,,,
1720621885.635853,,,,,,,,,,,,,,,,,,,,1720621885.629561186,-1.186824000,3.141592654,0.000000015,0.829037542,-0.000000022,-0.000000054,0.559192949,1.395152983,0.001110973,1.481517837
1720621885.638560,-0.057486000,0.000000000,0.000000000,-1.139985000,0.000000000,0.000000000,1.023308000,0.000000000,0.000000000,-0.026016000,0.000000000,0.000000000,0.235136000,0.000000000,0.000000000,0.033568000,0.000000000,0.000000000,1720621885.633561134,,,,,,,,,,,
1720621885.646036,-0.057486000,0.000000000,0.000000000,-1.139985000,0.000000000,0.000000000,1.023308000,0.000000000,0.000000000,-0.026016000,0.000000000,0.000000000,0.234208000,0.000000000,0.000000000,0.034304000,0.000000000,0.000000000,1720621885.641561270,,,,,,,,,,,
1720621885.649911,-0.057486000,0.000000000,0.000000000,-1.139985000,0.000000000,0.000000000,1.023308000,0.000000000,0.000000000,-0.026016000,0.000000000,0.000000000,0.234144000,0.000000000,0.000000000,0.033440000,0.000000000,0.000000000,1720621885.645561218,,,,,,,,,,,
1720621885.658196,-0.057486000,0.000000000,0.000000000,-1.139985000,0.000000000,0.000000000,1.023308000,0.000000000,0.000000000,-0.026016000,0.000000000,0.000000000,0.234272000,0.000000000,0.000000000,0.033824000,0.000000000,0.000000000,1720621885.653561115,,,,,,,,,,,
1720621885.667690,-0.057486000,0.000000000,0.000000000,-1.139985000,0.000000000,0.000000000,1.023308000,0.000000000,0.000000000,-0.026016000,0.000000000,0.000000000,0.234656000,0.000000000,0.000000000,0.033824000,0.000000000,0.000000000,1720621885.658561230,,,,,,,,,,,
1720621885.670189,-0.057486000,0.000000000,0.000000000,-1.143758000,0.000000000,0.000000000,1.023308000,0.000000000,0.000000000,-0.026016000,0.000000000,0.000000000,0.234816000,0.000000000,0.000000000,0.033088000,0.000000000,0.000000000,1720621885.665561199,,,,,,,,,,,
1720621885.671168,-0.057486000,0.000000000,0.000000000,-1.143758000,0.000000000,0.000000000,1.023308000,0.000000000,0.000000000,-0.026016000,0.000000000,0.000000000,0.234816000,0.000000000,0.000000000,0.033088000,0.000000000,0.000000000,1720621885.666561127,,,,,,,,,,,
1720621885.675098,-0.057486000,0.000000000,0.000000000,-1.132978000,0.000000000,0.000000000,1.023308000,0.000000000,0.000000000,-0.026016000,0.000000000,0.000000000,0.234944000,0.000000000,0.000000000,0.034752000,0.000000000,0.000000000,1720621885.670561075,,,,,,,,,,,
1720621885.682250,-0.057486000,0.000000000,0.000000000,-1.137290000,0.000000000,0.000000000,1.023308000,0.000000000,0.000000000,-0.026016000,0.000000000,0.000000000,0.234272000,0.000000000,0.000000000,0.034688000,0.000000000,0.000000000,1720621885.677561283,,,,,,,,,,,
1720621885.683239,-0.057486000,0.000000000,0.000000000,-1.137290000,0.000000000,0.000000000,1.023308000,0.000000000,0.000000000,-0.026016000,0.000000000,0.000000000,0.234272000,0.000000000,0.000000000,0.034688000,0.000000000,0.000000000,1720621885.678561211,,,,,,,,,,,
1720621885.686887,-0.057486000,0.000000000,0.000000000,-1.137290000,0.000000000,0.000000000,1.023308000,0.000000000,0.000000000,-0.026016000,0.000000000,0.000000000,0.234528000,0.000000000,0.000000000,0.032896000,0.000000000,0.000000000,1720621885.682561159,,,,,,,,,,,
1720621885.694190,-0.057486000,0.000000000,0.000000000,-1.137290000,0.000000000,0.000000000,1.023308000,0.000000000,0.000000000,-0.026016000,0.000000000,0.000000000,0.234336000,0.000000000,0.000000000,0.032704000,0.000000000,0.000000000,1720621885.689561129,,,,,,,,,,,
1720621885.695119,-0.057486000,0.000000000,0.000000000,-1.137290000,0.000000000,0.000000000,1.023308000,0.000000000,0.000000000,-0.026016000,0.000000000,0.000000000,0.234336000,0.000000000,0.000000000,0.032704000,0.000000000,0.000000000,1720621885.690561056,,,,,,,,,,,
1720621885.695879,,,,,,,,,,,,,,,,,,,,1720621885.682561159,-1.186824000,3.141592654,0.000000015,0.829037542,-0.000000022,-0.000000054,0.559192949,1.395152983,0.001110973,1.481517837
1720621885.699287,-0.057486000,0.000000000,0.000000000,-1.137290000,0.000000000,0.000000000,1.023308000,0.000000000,0.000000000,-0.026016000,0.000000000,0.000000000,0.233792000,0.000000000,0.000000000,0.034816000,0.000000000,0.000000000,1720621885.694561243,,,,,,,,,,,
1720621885.706240,-0.058916000,0.000000000,0.000000000,-1.138368000,0.000000000,0.000000000,1.023308000,0.000000000,0.000000000,-0.026016000,0.000000000,0.000000000,0.234592000,0.000000000,0.000000000,0.034560000,0.000000000,0.000000000,1720621885.701561213,,,,,,,,,,,
1720621885.707758,-0.058916000,0.000000000,0.000000000,-1.138368000,0.000000000,0.000000000,1.023308000,0.000000000,0.000000000,-0.026016000,0.000000000,0.000000000,0.234592000,0.000000000,0.000000000,0.034560000,0.000000000,0.000000000,1720621885.702561140,,,,,,,,,,,
1720621885.710776,-0.057772000,0.000000000,0.000000000,-1.138368000,0.000000000,0.000000000,1.023308000,0.000000000,0.000000000,-0.026016000,0.000000000,0.000000000,0.235072000,0.000000000,0.000000000,0.032896000,0.000000000,0.000000000,1720621885.706561089,,,,,,,,,,,
1720621885.718426,-0.057772000,0.000000000,0.000000000,-1.138368000,0.000000000,0.000000000,1.023308000,0.000000000,0.000000000,-0.026016000,0.000000000,0.000000000,0.234336000,0.000000000,0.000000000,0.032448000,0.000000000,0.000000000,1720621885.713561058,,,,,,,,,,,
1720621885.719422,-0.057772000,0.000000000,0.000000000,-1.138368000,0.000000000,0.000000000,1.023308000,0.000000000,0.000000000,-0.026016000,0.000000000,0.000000000,0.234336000,0.000000000,0.000000000,0.032448000,0.000000000,0.000000000,1720621885.714561224,,,,,,,,,,,
1720621885.723164,-0.057486000,0.000000000,0.000000000,-1.138368000,0.000000000,0.000000000,1.023308000,0.000000000,0.000000000,-0.026016000,0.000000000,0.000000000,0.234208000,0.000000000,0.000000000,0.034240000,0.000000000,0.000000000,1720621885.718561172,,,,,,,,,,,
1720621885.730420,-0.056914000,0.000000000,0.000000000,-1.141602000,0.000000000,0.000000000,1.023308000,0.000000000,0.000000000,-0.026016000,0.000000000,0.000000000,0.234400000,0.000000000,0.000000000,0.034304000,0.000000000,0.000000000,1720621885.725561142,,,,,,,,,,,
1720621885.731009,-0.056914000,0.000000000,0.000000000,-1.141602000,0.000000000,0.000000000,1.023308000,0.000000000,0.000000000,-0.026016000,0.000000000,0.000000000,0.234400000,0.000000000,0.000000000,0.034304000,0.000000000,0.000000000,1720621885.726561069,,,,,,,,,,,
1720621885.735051,-0.056914000,0.000000000,0.000000000,-1.141602000,0.000000000,0.000000000,1.023308000,0.000000000,0.000000000,-0.026016000,0.000000000,0.000000000,0.233792000,0.000000000,0.000000000,0.033376000,0.000000000,0.000000000,1720621885.730561256,,,,,,,,,,,
1720621885.742348,-0.057486000,0.000000000,0.000000000,-1.141602000,0.000000000,0.000000000,1.023308000,0.000000000,0.000000000,-0.026016000,0.000000000,0.000000000,0.235072000,0.000000000,0.000000000,0.032896000,0.000000000,0.000000000,1720621885.737561226,,,,,,,,,,,
1720621885.743149,-0.057486000,0.000000000,0.000000000,-1.141602000,0.000000000,0.000000000,1.023308000,0.000000000,0.000000000,-0.026016000,0.000000000,0.000000000,0.235072000,0.000000000,0.000000000,0.032896000,0.000000000,0.000000000,1720621885.738561153,,,,,,,,,,,
1720621885.746012,,,,,,,,,,,,,,,,,,,,1720621885.737561226,-1.186824000,3.141592654,0.000000015,0.829037542,-0.000000022,-0.000000054,0.559192949,1.395152983,0.001110973,1.481517837
1720621885.747760,-0.057486000,0.000000000,0.000000000,-1.141602000,0.000000000,0.000000000,1.023308000,0.000000000,0.000000000,-0.026016000,0.000000000,0.000000000,0.234272000,0.000000000,0.000000000,0.034752000,0.000000000,0.000000000,1720621885.742561102,,,,,,,,,,,
1720621885.754421,-0.057486000,0.000000000,0.000000000,-1.138368000,0.000000000,0.000000000,1.023308000,0.000000000,0.000000000,-0.026016000,0.000000000,0.000000000,0.235072000,0.000000000,0.000000000,0.034752000,0.000000000,0.000000000,1720621885.749561071,,,,,,,,,,,
1720621885.755227,-0.057486000,0.000000000,0.000000000,-1.138368000,0.000000000,0.000000000,1.023308000,0.000000000,0.000000000,-0.026016000,0.000000000,0.000000000,0.235072000,0.000000000,0.000000000,0.034752000,0.000000000,0.000000000,1720621885.750561237,,,,,,,,,,,
1720621885.759424,-0.057486000,0.000000000,0.000000000,-1.138368000,0.000000000,0.000000000,1.023308000,0.000000000,0.000000000,-0.026016000,0.000000000,0.000000000,0.234336000,0.000000000,0.000000000,0.032896000,0.000000000,0.000000000,1720621885.754561186,,,,,,,,,,,
1720621885.766383,-0.057486000,0.000000000,0.000000000,-1.138368000,0.000000000,0.000000000,1.023308000,0.000000000,0.000000000,-0.026016000,0.000000000,0.000000000,0.234208000,0.000000000,0.000000000,0.033760000,0.000000000,0.000000000,1720621885.761561155,,,,,,,,,,,
1720621885.767744,-0.057486000,0.000000000,0.000000000,-1.138368000,0.000000000,0.000000000,1.023308000,0.000000000,0.000000000,-0.026016000,0.000000000,0.000000000,0.234208000,0.000000000,0.000000000,0.033760000,0.000000000,0.000000000,1720621885.762561083,,,,,,,,,,,
1720621885.771063,-0.057486000,0.000000000,0.000000000,-1.138368000,0.000000000,0.000000000,1.023308000,0.000000000,0.000000000,-0.026016000,0.000000000,0.000000000,0.234656000,0.000000000,0.000000000,0.033504000,0.000000000,0.000000000,1720621885.766561270,,,,,,,,,,,
1720621885.778689,-0.057486000,0.000000000,0.000000000,-1.138368000,0.000000000,0.000000000,1.023308000,0.000000000,0.000000000,-0.026016000,0.000000000,0.000000000,0.234528000,0.000000000,0.000000000,0.032896000,0.000000000,0.000000000,1720621885.773561239,,,,,,,,,,,
1720621885.779591,-0.057486000,0.000000000,0.000000000,-1.138368000,0.000000000,0.000000000,1.023308000,0.000000000,0.000000000,-0.026016000,0.000000000,0.000000000,0.234528000,0.000000000,0.000000000,0.032896000,0.000000000,0.000000000,1720621885.774561167,,,,,,,,,,,
1720621885.783237,-0.057486000,0.000000000,0.000000000,-1.138368000,0.000000000,0.000000000,1.023308000,0.000000000,0.000000000,-0.026016000,0.000000000,0.000000000,0.234144000,0.000000000,0.000000000,0.034560000,0.000000000,0.000000000,1720621885.778561115,,,,,,,,,,,
1720621885.790650,-0.057486000,0.000000000,0.000000000,-1.167474000,0.000000000,0.000000000,1.023308000,0.000000000,0.000000000,-0.026016000,0.000000000,0.000000000,0.234272000,0.000000000,0.000000000,0.034240000,0.000000000,0.000000000,1720621885.785561085,,,,,,,,,,,
1720621885.791370,-0.057486000,0.000000000,0.000000000,-1.167474000,0.000000000,0.000000000,1.023308000,0.000000000,0.000000000,-0.026016000,0.000000000,0.000000000,0.234272000,0.000000000,0.000000000,0.034240000,0.000000000,0.000000000,1720621885.786561251,,,,,,,,,,,
1720621885.795161,-0.057486000,0.000000000,0.000000000,-1.138368000,0.000000000,0.000000000,1.023308000,0.000000000,0.000000000,-0.026016000,0.000000000,0.000000000,0.234400000,0.000000000,0.000000000,0.033568000,0.000000000,0.000000000,1720621885.790561199,,,,,,,,,,,
1720621885.795761,,,,,,,,,,,,,,,,,,,,1720621885.790561199,-1.186824000,3.141592654,0.000000015,0.829037542,-0.000000022,-0.000000054,0.559192949,1.395152983,0.001110973,1.481517837
1720621885.807549,-0.057486000,0.000000000,0.000000000,-1.138368000,0.000000000,0.000000000,1.023308000,0.000000000,0.000000000,-0.026016000,0.000000000,0.000000000,0.235072000,0.000000000,0.000000000,0.033824000,0.000000000,0.000000000,1720621885.802561283,,,,,,,,,,,
1720621885.814541,-0.057486000,0.000000000,0.000000000,-1.138368000,0.000000000,0.000000000,1.022450000,0.000000000,0.000000000,-0.026016000,0.000000000,0.000000000,0.233792000,0.000000000,0.000000000,0.034560000,0.000000000,0.000000000,1720621885.809561253,,,,,,,,,,,
1720621885.815079,-0.057486000,0.000000000,0.000000000,-1.138368000,0.000000000,0.000000000,1.022450000,0.000000000,0.000000000,-0.026016000,0.000000000,0.000000000,0.233792000,0.000000000,0.000000000,0.034560000,0.000000000,0.000000000,1720621885.810561180,,,,,,,,,,,
1720621885.819391,-0.057486000,0.000000000,0.000000000,-1.138368000,0.000000000,0.000000000,1.022450000,0.000000000,0.000000000,-0.026016000,0.000000000,0.000000000,0.235584000,0.000000000,0.000000000,0.034048000,0.000000000,0.000000000,1720621885.814561129,,,,,,,,,,,
1720621885.826291,-0.057486000,0.000000000,0.000000000,-1.113574000,0.000000000,0.000000000,1.023308000,0.000000000,0.000000000,-0.026016000,0.000000000,0.000000000,0.234592000,0.000000000,0.000000000,0.034176000,0.000000000,0.000000000,1720621885.821561098,,,,,,,,,,,
1720621885.827393,-0.057486000,0.000000000,0.000000000,-1.113574000,0.000000000,0.000000000,1.023308000,0.000000000,0.000000000,-0.026016000,0.000000000,0.000000000,0.234592000,0.000000000,0.000000000,0.034176000,0.000000000,0.000000000,1720621885.822561264,,,,,,,,,,,
1720621885.833172,-0.057486000,0.000000000,0.000000000,-1.110879000,0.000000000,0.000000000,1.023308000,0.000000000,0.000000000,-0.026016000,0.000000000,0.000000000,0.234592000,0.000000000,0.000000000,0.033568000,0.000000000,0.000000000,1720621885.828561068,,,,,,,,,,,
1720621885.841332,-0.057486000,0.000000000,0.000000000,-1.138368000,0.000000000,0.000000000,1.023308000,0.000000000,0.000000000,-0.026016000,0.000000000,0.000000000,0.234464000,0.000000000,0.000000000,0.033376000,0.000000000,0.000000000,1720621885.836561203,,,,,,,,,,,
1720621885.845151,-0.057486000,0.000000000,0.000000000,-1.138368000,0.000000000,0.000000000,1.023308000,0.000000000,0.000000000,-0.026016000,0.000000000,0.000000000,0.234880000,0.000000000,0.000000000,0.034304000,0.000000000,0.000000000,1720621885.840561152,,,,,,,,,,,
1720621885.845962,,,,,,,,,,,,,,,,,,,,1720621885.840561152,-1.186824000,3.141592654,0.000000015,0.829037542,-0.000000022,-0.000000054,0.559192949,1.395152983,0.001110973,1.481517837
1720621885.853615,-0.057486000,0.000000000,0.000000000,-1.138907000,0.000000000,0.000000000,1.023308000,0.000000000,0.000000000,-0.026016000,0.000000000,0.000000000,0.234880000,0.000000000,0.000000000,0.033760000,0.000000000,0.000000000,1720621885.848561287,,,,,,,,,,,
1720621885.862883,-0.057486000,0.000000000,0.000000000,-1.139985000,0.000000000,0.000000000,1.023308000,0.000000000,0.000000000,-0.026016000,0.000000000,0.000000000,0.234816000,0.000000000,0.000000000,0.033696000,0.000000000,0.000000000,1720621885.857561111,,,,,,,,,,,
1720621885.863421,-0.057486000,0.000000000,0.000000000,-1.139985000,0.000000000,0.000000000,1.023308000,0.000000000,0.000000000,-0.026016000,0.000000000,0.000000000,0.234816000,0.000000000,0.000000000,0.033696000,0.000000000,0.000000000,1720621885.858561277,,,,,,,,,,,
1720621885.866399,-0.057486000,0.000000000,0.000000000,-1.146992000,0.000000000,0.000000000,1.023308000,0.000000000,0.000000000,-0.026016000,0.000000000,0.000000000,0.234528000,0.000000000,0.000000000,0.033568000,0.000000000,0.000000000,1720621885.861561060,,,,,,,,,,,
1720621885.874679,-0.057486000,0.000000000,0.000000000,-1.173403000,0.000000000,0.000000000,1.023308000,0.000000000,0.000000000,-0.026016000,0.000000000,0.000000000,0.234400000,0.000000000,0.000000000,0.033504000,0.000000000,0.000000000,1720621885.869561195,,,,,,,,,,,
1720621885.875413,-0.057486000,0.000000000,0.000000000,-1.173403000,0.000000000,0.000000000,1.023308000,0.000000000,0.000000000,-0.026016000,0.000000000,0.000000000,0.234400000,0.000000000,0.000000000,0.033504000,0.000000000,0.000000000,1720621885.870561123,,,,,,,,,,,
1720621885.877243,-0.057486000,0.000000000,0.000000000,-1.148070000,0.000000000,0.000000000,1.023308000,0.000000000,0.000000000,-0.026016000,0.000000000,0.000000000,0.234656000,0.000000000,0.000000000,0.034240000,0.000000000,0.000000000,1720621885.872561216,,,,,,,,,,,
1720621885.886853,-0.058344000,0.000000000,0.000000000,-1.139985000,0.000000000,0.000000000,1.023308000,0.000000000,0.000000000,-0.026016000,0.000000000,0.000000000,0.234144000,0.000000000,0.000000000,0.033824000,0.000000000,0.000000000,1720621885.881561279,,,,,,,,,,,
1720621885.887491,-0.058344000,0.000000000,0.000000000,-1.139985000,0.000000000,0.000000000,1.023308000,0.000000000,0.000000000,-0.026016000,0.000000000,0.000000000,0.234144000,0.000000000,0.000000000,0.033824000,0.000000000,0.000000000,1720621885.882561207,,,,,,,,,,,
1720621885.890571,-0.058344000,0.000000000,0.000000000,-1.139985000,0.000000000,0.000000000,1.023308000,0.000000000,0.000000000,-0.026016000,0.000000000,0.000000000,0.235392000,0.000000000,0.000000000,0.033504000,0.000000000,0.000000000,1720621885.885561228,,,,,,,,,,,
1720621885.898931,-0.057772000,0.000000000,0.000000000,-1.143758000,0.000000000,0.000000000,1.023308000,0.000000000,0.000000000,-0.026016000,0.000000000,0.000000000,0.234400000,0.000000000,0.000000000,0.033696000,0.000000000,0.000000000,1720621885.893561125,,,,,,,,,,,
1720621885.899865,-0.057772000,0.000000000,0.000000000,-1.143758000,0.000000000,0.000000000,1.023308000,0.000000000,0.000000000,-0.026016000,0.000000000,0.000000000,0.234400000,0.000000000,0.000000000,0.033696000,0.000000000,0.000000000,1720621885.894561291,,,,,,,,,,,
1720621885.902563,-0.057772000,0.000000000,0.000000000,-1.141063000,0.000000000,0.000000000,1.023308000,0.000000000,0.000000000,-0.026016000,0.000000000,0.000000000,0.234144000,0.000000000,0.000000000,0.034432000,0.000000000,0.000000000,1720621885.895561218,,,,,,,,,,,
1720621885.905979,,,,,,,,,,,,,,,,,,,,1720621885.893561125,-1.186824000,3.141592654,0.000000015,0.829037542,-0.000000022,-0.000000054,0.559192949,1.395152983,0.001110973,1.481517837
1720621885.910839,-0.057772000,0.000000000,0.000000000,-1.141063000,0.000000000,0.000000000,1.023308000,0.000000000,0.000000000,-0.026016000,0.000000000,0.000000000,0.234816000,0.000000000,0.000000000,0.034304000,0.000000000,0.000000000,1720621885.905561209,,,,,,,,,,,
1720621885.912878,-0.057772000,0.000000000,0.000000000,-1.141602000,0.000000000,0.000000000,1.023308000,0.000000000,0.000000000,-0.026016000,0.000000000,0.000000000,0.234528000,0.000000000,0.000000000,0.032768000,0.000000000,0.000000000,1720621885.907561064,,,,,,,,,,,
1720621885.923647,-0.057772000,0.000000000,0.000000000,-1.171786000,0.000000000,0.000000000,1.023308000,0.000000000,0.000000000,-0.026016000,0.000000000,0.000000000,0.233888000,0.000000000,0.000000000,0.033568000,0.000000000,0.000000000,1720621885.918561220,,,,,,,,,,,
1720621885.934495,-0.058344000,0.000000000,0.000000000,-1.103872000,0.000000000,0.000000000,1.023308000,0.000000000,0.000000000,-0.026016000,0.000000000,0.000000000,0.234400000,0.000000000,0.000000000,0.034496000,0.000000000,0.000000000,1720621885.929561138,,,,,,,,,,,
1720621885.942649,-0.057772000,0.000000000,0.000000000,-1.141063000,0.000000000,0.000000000,1.023308000,0.000000000,0.000000000,-0.026016000,0.000000000,0.000000000,0.234080000,0.000000000,0.000000000,0.033888000,0.000000000,0.000000000,1720621885.937561274,,,,,,,,,,,
1720621885.955633,-0.057486000,0.000000000,0.000000000,-1.139985000,0.000000000,0.000000000,1.023308000,0.000000000,0.000000000,-0.026016000,0.000000000,0.000000000,0.234272000,0.000000000,0.000000000,0.034560000,0.000000000,0.000000000,1720621885.950561285,,,,,,,,,,,
1720621885.961742,-0.057486000,0.000000000,0.000000000,-1.141063000,0.000000000,0.000000000,1.023308000,0.000000000,0.000000000,-0.026016000,0.000000000,0.000000000,0.234080000,0.000000000,0.000000000,0.034432000,0.000000000,0.000000000,1720621885.956561089,,,,,,,,,,,
1720621885.962766,-0.057486000,0.000000000,0.000000000,-1.141063000,0.000000000,0.000000000,1.023308000,0.000000000,0.000000000,-0.026016000,0.000000000,0.000000000,0.234080000,0.000000000,0.000000000,0.034432000,0.000000000,0.000000000,1720621885.957561255,,,,,,,,,,,
1720621885.963925,-0.057486000,0.000000000,0.000000000,-1.141063000,0.000000000,0.000000000,1.023308000,0.000000000,0.000000000,-0.026016000,0.000000000,0.000000000,0.234080000,0.000000000,0.000000000,0.034432000,0.000000000,0.000000000,1720621885.958561182,,,,,,,,,,,
1720621885.965918,,,,,,,,,,,,,,,,,,,,1720621885.950561285,-1.186824000,3.141592654,0.000000015,0.829037542,-0.000000022,-0.000000054,0.559192949,1.395152983,0.001110973,1.481517837
1720621885.967509,-0.057486000,0.000000000,0.000000000,-1.142680000,0.000000000,0.000000000,1.021306000,0.000000000,0.000000000,-0.025664000,0.000000000,0.000000000,0.235008000,0.000000000,0.000000000,0.033376000,0.000000000,0.000000000,1720621885.962561131,,,,,,,,,,,
1720621885.974770,-0.037466000,0.000000000,0.000000000,-1.148070000,0.000000000,0.000000000,1.023022000,0.000000000,0.000000000,-0.026016000,0.000000000,0.000000000,0.234144000,0.000000000,0.000000000,0.033184000,0.000000000,0.000000000,1720621885.969561100,,,,,,,,,,,
1720621885.977196,-0.058916000,0.000000000,0.000000000,-1.141602000,0.000000000,0.000000000,1.023022000,0.000000000,0.000000000,-0.026016000,0.000000000,0.000000000,0.234528000,0.000000000,0.000000000,0.034816000,0.000000000,0.000000000,1720621885.971561193,,,,,,,,,,,
1720621885.987518,-0.061490000,0.000000000,0.000000000,-1.141063000,0.000000000,0.000000000,1.023022000,0.000000000,0.000000000,-0.026016000,0.000000000,0.000000000,0.234464000,0.000000000,0.000000000,0.034176000,0.000000000,0.000000000,1720621885.982561111,,,,,,,,,,,
1720621885.997184,-0.057486000,0.000000000,0.000000000,-1.134595000,0.000000000,0.000000000,1.023022000,0.000000000,0.000000000,-0.026016000,0.000000000,0.000000000,0.234464000,0.000000000,0.000000000,0.034048000,0.000000000,0.000000000,1720621885.991561174,,,,,,,,,,,
