zakjeens/yaskawa_debug_materials/t3/joints.csv
__time,/joint_states/group_1/joint_1/effort,/joint_states/group_1/joint_1/position,/joint_states/group_1/joint_1/velocity,/joint_states/group_1/joint_2/effort,/joint_states/group_1/joint_2/position,/joint_states/group_1/joint_2/velocity,/joint_states/group_1/joint_3/effort,/joint_states/group_1/joint_3/position,/joint_states/group_1/joint_3/velocity,/joint_states/group_1/joint_4/effort,/joint_states/group_1/joint_4/position,/joint_states/group_1/joint_4/velocity,/joint_states/group_1/joint_5/effort,/joint_states/group_1/joint_5/position,/joint_states/group_1/joint_5/velocity,/joint_states/group_1/joint_6/effort,/joint_states/group_1/joint_6/position,/joint_states/group_1/joint_6/velocity,/joint_states/header/stamp,/world_to_torch/header/header/stamp,/world_to_torch/transform/rotation/pitch,/world_to_torch/transform/rotation/roll,/world_to_torch/transform/rotation/w,/world_to_torch/transform/rotation/x,/world_to_torch/transform/rotation/y,/world_to_torch/transform/rotation/yaw,/world_to_torch/transform/rotation/z,/world_to_torch/transform/translation/x,/world_to_torch/transform/translation/y,/world_to_torch/transform/translation/z
1720619155.032456,-0.048048000,0.000000000,0.000000000,-1.149687000,0.000000000,0.000000000,1.011010000,0.000000000,0.000000000,-0.027456000,0.000000000,0.000000000,0.232416000,0.000000000,0.000000000,0.021504000,0.000038380,0.009134350,1720619155.027463198,,,,,,,,,,,
1720619155.034684,-0.048048000,0.000000000,0.000000000,-1.149687000,0.000000000,0.000000000,1.011010000,0.000000000,0.000000000,-0.027456000,0.000000000,0.000000000,0.232416000,0.000000000,0.000000000,0.021504000,0.000038380,0.009134350,1720619155.029463291,,,,,,,,,,,
1720619155.046332,-0.048048000,0.000000000,0.000000000,-1.148609000,0.000000000,0.000000000,1.011010000,0.000000000,0.000000000,-0.027456000,0.000000000,0.000000000,0.232416000,0.000000000,0.000000000,0.021280000,0.000038380,0.009134350,1720619155.035463333,,,,,,,,,,,
1720619155.048122,-0.048048000,0.000000000,0.000000000,-1.148609000,0.000000000,0.000000000,1.011010000,0.000000000,0.000000000,-0.027456000,0.000000000,0.000000000,0.232416000,0.000000000,0.000000000,0.021280000,0.000038380,0.009134350,1720619155.043463230,,,,,,,,,,,
1720619155.052039,-0.048048000,0.000000000,0.000000000,-1.148609000,0.000000000,0.000000000,1.011010000,0.000000000,0.000000000,-0.027456000,0.000000000,0.000000000,0.232416000,0.000000000,0.000000000,0.024672000,0.000000000,0.009134350,1720619155.047463179,,,,,,,,,,,
1720619155.060151,-0.048048000,0.000000000,0.000000000,-1.148609000,0.000000000,0.000000000,1.011010000,0.000000000,0.000000000,-0.027456000,0.000000000,0.000000000,0.232672000,0.000000000,0.000000000,0.024736000,0.000000000,0.009134350,1720619155.055463314,,,,,,,,,,,
1720619155.064873,-0.048048000,0.000000000,0.000000000,-1.152382000,0.000000000,0.000000000,1.011010000,0.000000000,0.000000000,-0.027456000,0.000000000,0.000000000,0.233216000,0.000000000,0.000000000,0.021024000,0.000038380,0.009134350,1720619155.059463263,,,,,,,,,,,
1720619155.072310,-0.048048000,0.000000000,0.000000000,-1.148070000,0.000000000,0.000000000,1.011010000,0.000000000,0.000000000,-0.027456000,0.000000000,0.000000000,0.232736000,0.000000000,0.000000000,0.021632000,0.000000000,0.000000000,1720619155.067463160,,,,,,,,,,,
1720619155.076066,,,,,,,,,,,,,,,,,,,,1720619155.067463160,-1.186824000,3.141592654,0.000000015,0.829037542,-0.000000022,-0.000000054,0.559192949,1.395152983,0.001110973,1.481517837
1720619155.076296,-0.048048000,0.000000000,0.000000000,-1.148070000,0.000000000,0.000000000,1.011010000,0.000000000,0.000000000,-0.027456000,0.000000000,0.000000000,0.231424000,0.000000000,0.000000000,0.023360000,0.000000000,0.000000000,1720619155.071463346,,,,,,,,,,,
1720619155.084014,-0.048048000,0.000000000,0.000000000,-1.150765000,0.000000000,0.000000000,1.011010000,0.000000000,0.000000000,-0.027456000,0.000000000,0.000000000,0.232800000,0.000000000,0.000000000,0.023296000,0.000000000,0.000000000,1720619155.079463243,,,,,,,,,,,
1720619155.087815,-0.048048000,0.000000000,0.000000000,-1.150765000,0.000000000,0.000000000,1.011010000,0.000000000,0.000000000,-0.027456000,0.000000000,0.000000000,0.231360000,0.000000000,0.000000000,0.022336000,0.000000000,0.000000000,1720619155.083463192,,,,,,,,,,,
1720619155.097329,-0.048048000,0.000000000,0.000000000,-1.159389000,0.000000000,0.000000000,1.011010000,0.000000000,0.000000000,-0.027456000,0.000000000,0.000000000,0.232544000,0.000000000,0.000000000,0.023200000,0.000000000,0.000000000,1720619155.092463255,,,,,,,,,,,
1720619155.101200,-0.048048000,0.000000000,0.000000000,-1.151304000,0.000000000,0.000000000,1.011010000,0.000000000,0.000000000,-0.027456000,0.000000000,0.000000000,0.231744000,0.000000000,0.000000000,0.021952000,0.000038380,0.009134350,1720619155.096463203,,,,,,,,,,,
1720619155.108457,-0.048048000,0.000000000,0.000000000,-1.182566000,0.000000000,0.000000000,1.011010000,0.000000000,0.000000000,-0.027456000,0.000000000,0.000000000,0.233280000,0.000000000,0.000000000,0.021952000,0.000038380,0.009134350,1720619155.103463173,,,,,,,,,,,
1720619155.109344,-0.048048000,0.000000000,0.000000000,-1.182566000,0.000000000,0.000000000,1.011010000,0.000000000,0.000000000,-0.027456000,0.000000000,0.000000000,0.233280000,0.000000000,0.000000000,0.021952000,0.000038380,0.009134350,1720619155.104463339,,,,,,,,,,,
1720619155.113493,-0.049764000,0.000000000,0.000000000,-1.124354000,0.000000000,0.000000000,1.011010000,0.000000000,0.000000000,-0.027456000,0.000000000,0.000000000,0.231296000,0.000000000,0.000000000,0.023360000,0.000000000,0.009134350,1720619155.108463287,,,,,,,,,,,
1720619155.120575,-0.048620000,0.000000000,0.000000000,-1.125971000,0.000000000,0.000000000,1.011010000,0.000000000,0.000000000,-0.027456000,0.000000000,0.000000000,0.232960000,0.000000000,0.000000000,0.023136000,0.000000000,0.000000000,1720619155.115463257,,,,,,,,,,,
1720619155.121524,-0.048620000,0.000000000,0.000000000,-1.125971000,0.000000000,0.000000000,1.011010000,0.000000000,0.000000000,-0.027456000,0.000000000,0.000000000,0.232960000,0.000000000,0.000000000,0.023136000,0.000000000,0.000000000,1720619155.116463184,,,,,,,,,,,
1720619155.125376,-0.050050000,0.000000000,0.000000000,-1.151304000,0.000000000,0.000000000,1.011010000,0.000000000,0.000000000,-0.027456000,0.000000000,0.000000000,0.231616000,0.000000000,0.000000000,0.022816000,0.000000000,0.000000000,1720619155.120463133,,,,,,,,,,,
1720619155.126218,,,,,,,,,,,,,,,,,,,,1720619155.120463133,-1.186824000,3.141592654,0.000000015,0.829037542,-0.000000022,-0.000000054,0.559192949,1.395152983,0.001110973,1.481517837
1720619155.132623,-0.048048000,0.000000000,0.000000000,-1.151304000,0.000000000,0.000000000,1.011010000,0.000000000,0.000000000,-0.027456000,0.000000000,0.000000000,0.231872000,0.000000000,0.000000000,0.022496000,0.000000000,0.000000000,1720619155.127463341,,,,,,,,,,,
1720619155.133652,-0.048048000,0.000000000,0.000000000,-1.151304000,0.000000000,0.000000000,1.011010000,0.000000000,0.000000000,-0.027456000,0.000000000,0.000000000,0.231872000,0.000000000,0.000000000,0.022496000,0.000000000,0.000000000,1720619155.128463268,,,,,,,,,,,
1720619155.138099,-0.048048000,0.000000000,0.000000000,-1.151304000,0.000000000,0.000000000,1.011010000,0.000000000,0.000000000,-0.027456000,0.000000000,0.000000000,0.232288000,0.000000000,0.000000000,0.022944000,0.000000000,0.000000000,1720619155.132463217,,,,,,,,,,,
1720619155.144507,-0.048048000,0.000000000,0.000000000,-1.151304000,0.000000000,0.000000000,1.011010000,0.000000000,0.000000000,-0.027456000,0.000000000,0.000000000,0.232096000,0.000000000,0.000000000,0.023360000,0.000000000,0.000000000,1720619155.139463186,,,,,,,,,,,
1720619155.145731,-0.048048000,0.000000000,0.000000000,-1.151304000,0.000000000,0.000000000,1.011010000,0.000000000,0.000000000,-0.027456000,0.000000000,0.000000000,0.232096000,0.000000000,0.000000000,0.023360000,0.000000000,0.000000000,1720619155.140463352,,,,,,,,,,,
1720619155.150551,-0.048048000,0.000000000,0.000000000,-1.151304000,0.000000000,0.000000000,1.011010000,0.000000000,0.000000000,-0.027392000,0.000000000,0.000000000,0.231744000,0.000000000,0.000000000,0.022272000,0.000000000,0.000000000,1720619155.145463228,,,,,,,,,,,
1720619155.157106,-0.048048000,0.000000000,0.000000000,-1.155077000,0.000000000,0.000000000,1.011010000,0.000000000,0.000000000,-0.027936000,0.000000000,0.000000000,0.232096000,0.000000000,0.000000000,0.023424000,0.000000000,0.000000000,1720619155.151463270,,,,,,,,,,,
1720619155.158534,-0.048048000,0.000000000,0.000000000,-1.155077000,0.000000000,0.000000000,1.011010000,0.000000000,0.000000000,-0.027936000,0.000000000,0.000000000,0.232096000,0.000000000,0.000000000,0.023424000,0.000000000,0.000000000,1720619155.153463364,,,,,,,,,,,
1720619155.164564,-0.048048000,0.000000000,0.000000000,-1.143758000,0.000000000,0.000000000,1.011010000,0.000000000,0.000000000,-0.027456000,0.000000000,0.000000000,0.232736000,0.000000000,0.000000000,0.022944000,0.000000000,0.000000000,1720619155.159463167,,,,,,,,,,,
1720619155.171884,-0.048048000,0.000000000,0.000000000,-1.143758000,0.000000000,0.000000000,1.011010000,0.000000000,0.000000000,-0.027456000,0.000000000,0.000000000,0.231936000,0.000000000,0.000000000,0.022752000,0.000000000,0.000000000,1720619155.166463137,,,,,,,,,,,
1720619155.180863,-0.048048000,0.000000000,0.000000000,-1.141602000,0.000000000,0.000000000,1.011010000,0.000000000,0.000000000,-0.027456000,0.000000000,0.000000000,0.232096000,0.000000000,0.000000000,0.022944000,0.000000000,0.000000000,1720619155.175463200,,,,,,,,,,,
1720619155.181541,-0.048048000,0.000000000,0.000000000,-1.141602000,0.000000000,0.000000000,1.011010000,0.000000000,0.000000000,-0.027456000,0.000000000,0.000000000,0.232096000,0.000000000,0.000000000,0.022944000,0.000000000,0.000000000,1720619155.176463366,,,,,,,,,,,
1720619155.182734,-0.048048000,0.000000000,0.000000000,-1.141602000,0.000000000,0.000000000,1.011010000,0.000000000,0.000000000,-0.027456000,0.000000000,0.000000000,0.232096000,0.000000000,0.000000000,0.022944000,0.000000000,0.000000000,1720619155.177463293,,,,,,,,,,,
1720619155.184458,-0.048048000,0.000000000,0.000000000,-1.141602000,0.000000000,0.000000000,1.010724000,0.000000000,0.000000000,-0.027456000,0.000000000,0.000000000,0.233152000,0.000000000,0.000000000,0.022432000,0.000000000,0.000000000,1720619155.179463148,,,,,,,,,,,
1720619155.186359,,,,,,,,,,,,,,,,,,,,1720619155.175463200,-1.186824000,3.141592654,0.000000015,0.829037542,-0.000000022,-0.000000054,0.559192949,1.395152983,0.001110973,1.481517837
1720619155.188484,-0.048048000,0.000000000,0.000000000,-1.142680000,0.000000000,0.000000000,1.010724000,0.000000000,0.000000000,-0.027456000,0.000000000,0.000000000,0.231872000,0.000000000,0.000000000,0.022688000,0.000000000,0.000000000,1720619155.183463335,,,,,,,,,,,
1720619155.197461,-0.048048000,0.000000000,0.000000000,-1.146453000,0.000000000,0.000000000,1.010724000,0.000000000,0.000000000,-0.027456000,0.000000000,0.000000000,0.232000000,0.000000000,0.000000000,0.022688000,0.000000000,0.000000000,1720619155.191463232,,,,,,,,,,,
1720619155.201745,-0.048048000,0.000000000,0.000000000,-1.148070000,0.000000000,0.000000000,1.010724000,0.000000000,0.000000000,-0.027456000,0.000000000,0.000000000,0.232608000,0.000000000,0.000000000,0.023136000,0.000000000,0.000000000,1720619155.196463346,,,,,,,,,,,
1720619155.208614,-0.048048000,0.000000000,0.000000000,-1.149687000,0.000000000,0.000000000,1.010724000,0.000000000,0.000000000,-0.027456000,0.000000000,0.000000000,0.231296000,0.000000000,0.000000000,0.023424000,0.000000000,0.000000000,1720619155.203463316,,,,,,,,,,,
1720619155.209688,-0.048048000,0.000000000,0.000000000,-1.149687000,0.000000000,0.000000000,1.010724000,0.000000000,0.000000000,-0.027456000,0.000000000,0.000000000,0.231296000,0.000000000,0.000000000,0.023424000,0.000000000,0.000000000,1720619155.204463243,,,,,,,,,,,
1720619155.213489,-0.048048000,0.000000000,0.000000000,-1.150765000,0.000000000,0.000000000,1.010724000,0.000000000,0.000000000,-0.027136000,0.000000000,0.000000000,0.232288000,0.000000000,0.000000000,0.021888000,0.000000000,0.000000000,1720619155.208463192,,,,,,,,,,,
1720619155.220952,-0.048048000,0.000000000,0.000000000,-1.150765000,0.000000000,0.000000000,1.010724000,0.000000000,0.000000000,-0.027456000,0.000000000,0.000000000,0.232096000,0.000000000,0.000000000,0.022272000,0.000000000,0.000000000,1720619155.215463161,,,,,,,,,,,
1720619155.221617,-0.048048000,0.000000000,0.000000000,-1.150765000,0.000000000,0.000000000,1.010724000,0.000000000,0.000000000,-0.027456000,0.000000000,0.000000000,0.232096000,0.000000000,0.000000000,0.022272000,0.000000000,0.000000000,1720619155.216463327,,,,,,,,,,,
1720619155.225443,-0.048048000,0.000000000,0.000000000,-1.150765000,0.000000000,0.000000000,1.009008000,0.000000000,0.000000000,-0.027456000,0.000000000,0.000000000,0.232544000,0.000000000,0.000000000,0.022944000,0.000000000,0.000000000,1720619155.220463276,,,,,,,,,,,
1720619155.232748,-0.048048000,0.000000000,0.000000000,-1.148070000,0.000000000,0.000000000,1.010724000,0.000000000,0.000000000,-0.027456000,0.000000000,0.000000000,0.232352000,0.000000000,0.000000000,0.022336000,0.000000000,0.000000000,1720619155.227463245,,,,,,,,,,,
1720619155.233562,-0.048048000,0.000000000,0.000000000,-1.148070000,0.000000000,0.000000000,1.010724000,0.000000000,0.000000000,-0.027456000,0.000000000,0.000000000,0.232352000,0.000000000,0.000000000,0.022336000,0.000000000,0.000000000,1720619155.228463173,,,,,,,,,,,
1720619155.236413,,,,,,,,,,,,,,,,,,,,1720619155.227463245,-1.186824000,3.141592654,0.000000015,0.829037542,-0.000000022,-0.000000054,0.559192949,1.395152983,0.001110973,1.481517837
1720619155.238234,-0.048048000,0.000000000,0.000000000,-1.141602000,0.000000000,0.000000000,1.011010000,0.000000000,0.000000000,-0.027456000,0.000000000,0.000000000,0.233152000,0.000000000,0.000000000,0.022752000,0.000000000,0.000000000,1720619155.232463360,,,,,,,,,,,
1720619155.244566,-0.048048000,0.000000000,0.000000000,-1.148070000,0.000000000,0.000000000,1.011010000,0.000000000,0.000000000,-0.027456000,0.000000000,0.000000000,0.231808000,0.000000000,0.000000000,0.022336000,0.000000000,0.000000000,1720619155.239463329,,,,,,,,,,,
1720619155.245759,-0.048048000,0.000000000,0.000000000,-1.148070000,0.000000000,0.000000000,1.011010000,0.000000000,0.000000000,-0.027456000,0.000000000,0.000000000,0.231808000,0.000000000,0.000000000,0.022336000,0.000000000,0.000000000,1720619155.240463257,,,,,,,,,,,
1720619155.250623,-0.048048000,0.000000000,0.000000000,-1.180410000,0.000000000,0.000000000,1.011010000,0.000000000,0.000000000,-0.027456000,0.000000000,0.000000000,0.232224000,0.000000000,0.000000000,0.023008000,0.000000000,0.000000000,1720619155.245463133,,,,,,,,,,,
1720619155.261002,-0.048048000,0.000000000,0.000000000,-1.153999000,0.000000000,0.000000000,1.011010000,0.000000000,0.000000000,-0.027456000,0.000000000,0.000000000,0.232352000,0.000000000,0.000000000,0.022144000,0.000000000,0.000000000,1720619155.255463362,,,,,,,,,,,
1720619155.270003,-0.048048000,0.000000000,0.000000000,-1.153460000,0.000000000,0.000000000,1.011010000,0.000000000,0.000000000,-0.027456000,0.000000000,0.000000000,0.232288000,0.000000000,0.000000000,0.022272000,0.000000000,0.000000000,1720619155.264463186,,,,,,,,,,,
1720619155.271624,-0.048048000,0.000000000,0.000000000,-1.148609000,0.000000000,0.000000000,1.011010000,0.000000000,0.000000000,-0.027456000,0.000000000,0.000000000,0.232864000,0.000000000,0.000000000,0.023296000,0.000000000,0.000000000,1720619155.266463280,,,,,,,,,,,
1720619155.280896,-0.048048000,0.000000000,0.000000000,-1.149687000,0.000000000,0.000000000,1.011010000,0.000000000,0.000000000,-0.027456000,0.000000000,0.000000000,0.231936000,0.000000000,0.000000000,0.023680000,0.000000000,0.000000000,1720619155.275463343,,,,,,,,,,,
1720619155.281738,-0.048048000,0.000000000,0.000000000,-1.149687000,0.000000000,0.000000000,1.011010000,0.000000000,0.000000000,-0.027456000,0.000000000,0.000000000,0.231936000,0.000000000,0.000000000,0.023680000,0.000000000,0.000000000,1720619155.276463270,,,,,,,,,,,
1720619155.283439,-0.048048000,0.000000000,0.000000000,-1.121659000,0.000000000,0.000000000,1.011010000,0.000000000,0.000000000,-0.027456000,0.000000000,0.000000000,0.231936000,0.000000000,0.000000000,0.022144000,0.000000000,0.000000000,1720619155.278463364,,,,,,,,,,,
1720619155.286399,,,,,,,,,,,,,,,,,,,,1720619155.278463364,-1.186824000,3.141592654,0.000000015,0.829037542,-0.000000022,-0.000000054,0.559192949,1.395152983,0.001110973,1.481517837
1720619155.293278,-0.048048000,0.000000000,0.000000000,-1.153460000,0.000000000,0.000000000,1.011010000,0.000000000,0.000000000,-0.027456000,0.000000000,0.000000000,0.232096000,0.000000000,0.000000000,0.021696000,0.000038380,0.009134350,1720619155.287463188,,,,,,,,,,,
1720619155.293850,-0.048048000,0.000000000,0.000000000,-1.153460000,0.000000000,0.000000000,1.011010000,0.000000000,0.000000000,-0.027456000,0.000000000,0.000000000,0.232096000,0.000000000,0.000000000,0.021696000,0.000038380,0.009134350,1720619155.288463354,,,,,,,,,,,
1720619155.295766,-0.048048000,0.000000000,0.000000000,-1.158311000,0.000000000,0.000000000,1.011010000,0.000000000,0.000000000,-0.027456000,0.000000000,0.000000000,0.232288000,0.000000000,0.000000000,0.023424000,0.000000000,0.009134350,1720619155.290463209,,,,,,,,,,,
1720619155.305025,-0.048048000,0.000000000,0.000000000,-1.152382000,0.000000000,0.000000000,1.011010000,0.000000000,0.000000000,-0.027456000,0.000000000,0.000000000,0.232800000,0.000000000,0.000000000,0.022688000,0.000000000,0.000000000,1720619155.299463272,,,,,,,,,,,
1720619155.306062,-0.048048000,0.000000000,0.000000000,-1.152382000,0.000000000,0.000000000,1.011010000,0.000000000,0.000000000,-0.027456000,0.000000000,0.000000000,0.232800000,0.000000000,0.000000000,0.022688000,0.000000000,0.000000000,1720619155.300463200,,,,,,,,,,,
1720619155.313791,-0.048048000,0.000000000,0.000000000,-1.151304000,0.000000000,0.000000000,1.011010000,0.000000000,0.000000000,-0.027456000,0.000000000,0.000000000,0.231616000,0.000000000,0.000000000,0.023072000,0.000000000,0.000000000,1720619155.302463293,,,,,,,,,,,
1720619155.316984,-0.048048000,0.000000000,0.000000000,-1.150765000,0.000000000,0.000000000,1.011010000,0.000000000,0.000000000,-0.027456000,0.000000000,0.000000000,0.232416000,0.000000000,0.000000000,0.022816000,0.000000000,0.000000000,1720619155.311463356,,,,,,,,,,,
1720619155.321061,-0.048048000,0.000000000,0.000000000,-1.150765000,0.000000000,0.000000000,1.011010000,0.000000000,0.000000000,-0.027456000,0.000000000,0.000000000,0.232352000,0.000000000,0.000000000,0.022816000,0.000000000,0.000000000,1720619155.315463305,,,,,,,,,,,
1720619155.329813,-0.048048000,0.000000000,0.000000000,-1.149687000,0.000000000,0.000000000,1.011010000,0.000000000,0.000000000,-0.027392000,0.000000000,0.000000000,0.231936000,0.000000000,0.000000000,0.023552000,0.000000000,0.000000000,1720619155.324463367,,,,,,,,,,,
1720619155.343812,-0.048048000,0.000000000,0.000000000,-1.148609000,0.000000000,0.000000000,1.011010000,0.000000000,0.000000000,-0.027392000,0.000000000,0.000000000,0.231744000,0.000000000,0.000000000,0.023872000,0.000000000,0.000000000,1720619155.338463306,,,,,,,,,,,
1720619155.346314,,,,,,,,,,,,,,,,,,,,1720619155.338463306,-1.186824000,3.141592654,0.000000015,0.829037542,-0.000000022,-0.000000054,0.559192949,1.395152983,0.001110973,1.481517837
1720619155.349797,-0.048048000,0.000000000,0.000000000,-1.148609000,0.000000000,0.000000000,1.011010000,0.000000000,0.000000000,-0.027392000,0.000000000,0.000000000,0.232416000,0.000000000,0.000000000,0.021760000,0.000000000,0.000000000,1720619155.344463348,,,,,,,,,,,
1720619155.352877,-0.048048000,0.000000000,0.000000000,-1.148609000,0.000000000,0.000000000,1.011010000,0.000000000,0.000000000,-0.027392000,0.000000000,0.000000000,0.232416000,0.000000000,0.000000000,0.023360000,0.000000000,0.000000000,1720619155.347463131,,,,,,,,,,,
1720619155.364773,-0.049192000,0.000000000,0.000000000,-1.149687000,0.000000000,0.000000000,1.011010000,0.000000000,0.000000000,-0.027392000,0.000000000,0.000000000,0.233216000,0.000000000,0.000000000,0.023072000,0.000000000,0.000000000,1720619155.357463360,,,,,,,,,,,
1720619155.371869,-0.048620000,0.000000000,0.000000000,-1.151304000,0.000000000,0.000000000,1.011010000,0.000000000,0.000000000,-0.027392000,0.000000000,0.000000000,0.233152000,0.000000000,0.000000000,0.022880000,0.000000000,0.000000000,1720619155.366463184,,,,,,,,,,,
1720619155.381585,-0.048620000,0.000000000,0.000000000,-1.159389000,0.000000000,0.000000000,1.011010000,0.000000000,0.000000000,-0.027456000,0.000000000,0.000000000,0.232288000,0.000000000,0.000000000,0.022816000,0.000000000,0.000000000,1720619155.375463247,,,,,,,,,,,
1720619155.381884,-0.048620000,0.000000000,0.000000000,-1.159389000,0.000000000,0.000000000,1.011010000,0.000000000,0.000000000,-0.027456000,0.000000000,0.000000000,0.232288000,0.000000000,0.000000000,0.022816000,0.000000000,0.000000000,1720619155.376463175,,,,,,,,,,,
1720619155.385301,-0.048620000,0.000000000,0.000000000,-1.146453000,0.000000000,0.000000000,1.011010000,0.000000000,0.000000000,-0.027456000,0.000000000,0.000000000,0.231744000,0.000000000,0.000000000,0.022752000,0.000000000,0.000000000,1720619155.379463196,,,,,,,,,,,
1720619155.393521,-0.048048000,0.000000000,0.000000000,-1.156155000,0.000000000,0.000000000,1.011010000,0.000000000,0.000000000,-0.027392000,0.000000000,0.000000000,0.232160000,0.000000000,0.000000000,0.021824000,0.000038380,0.009134350,1720619155.387463331,,,,,,,,,,,
1720619155.393855,-0.048048000,0.000000000,0.000000000,-1.156155000,0.000000000,0.000000000,1.011010000,0.000000000,0.000000000,-0.027392000,0.000000000,0.000000000,0.232160000,0.000000000,0.000000000,0.021824000,0.000038380,0.009134350,1720619155.388463259,,,,,,,,,,,
1720619155.395953,-0.048048000,0.000000000,0.000000000,-1.151304000,0.000000000,0.000000000,1.011010000,0.000000000,0.000000000,-0.027456000,0.000000000,0.000000000,0.232736000,0.000000000,0.000000000,0.023552000,0.000000000,0.009134350,1720619155.390463352,,,,,,,,,,,
1720619155.396069,,,,,,,,,,,,,,,,,,,,1720619155.388463259,-1.186823998,3.141490200,0.000015924,0.829037542,0.000010709,0.000094939,0.559192948,1.395152983,0.001108959,1.481517794
1720619155.405710,-0.048048000,0.000000000,0.000000000,-1.149687000,0.000000000,0.000000000,1.011010000,0.000000000,0.000000000,-0.027456000,0.000000000,0.000000000,0.232864000,0.000000000,0.000000000,0.023744000,0.000000000,0.009134350,1720619155.399463177,,,,,,,,,,,
1720619155.406022,-0.048048000,0.000000000,0.000000000,-1.149687000,0.000000000,0.000000000,1.011010000,0.000000000,0.000000000,-0.027456000,0.000000000,0.000000000,0.232864000,0.000000000,0.000000000,0.023744000,0.000000000,0.009134350,1720619155.400463343,,,,,,,,,,,
1720619155.408468,-0.048048000,0.000000000,0.000000000,-1.148609000,0.000000000,0.000000000,1.011010000,0.000000000,0.000000000,-0.027456000,0.000000000,0.000000000,0.231744000,0.000000000,0.000000000,0.021824000,0.000038380,0.009134350,1720619155.402463198,,,,,,,,,,,
1720619155.411856,-0.048048000,0.000000000,0.000000000,-1.148070000,0.000000000,0.000000000,1.011010000,0.000000000,0.000000000,-0.027456000,0.000000000,0.000000000,0.232544000,0.000000000,0.000000000,0.023488000,0.000000000,0.009134350,1720619155.406463146,,,,,,,,,,,
1720619155.421117,-0.048048000,0.000000000,0.000000000,-1.148070000,0.000000000,0.000000000,1.011010000,0.000000000,0.000000000,-0.027456000,0.000000000,0.000000000,0.232000000,0.000000000,0.000000000,0.023296000,0.000000000,0.000000000,1720619155.415463209,,,,,,,,,,,
1720619155.429337,-0.048048000,0.000000000,0.000000000,-1.138907000,0.000000000,0.000000000,1.011010000,0.000000000,0.000000000,-0.027456000,0.000000000,0.000000000,0.232224000,0.000000000,0.000000000,0.022880000,0.000000000,0.000000000,1720619155.423463345,,,,,,,,,,,
1720619155.429976,-0.048048000,0.000000000,0.000000000,-1.138907000,0.000000000,0.000000000,1.011010000,0.000000000,0.000000000,-0.027456000,0.000000000,0.000000000,0.232224000,0.000000000,0.000000000,0.022880000,0.000000000,0.000000000,1720619155.424463272,,,,,,,,,,,
1720619155.432160,-0.048048000,0.000000000,0.000000000,-1.146992000,0.000000000,0.000000000,1.011010000,0.000000000,0.000000000,-0.027456000,0.000000000,0.000000000,0.232800000,0.000000000,0.000000000,0.022432000,0.000000000,0.000000000,1720619155.426463366,,,,,,,,,,,
1720619155.436167,-0.048048000,0.000000000,0.000000000,-1.146992000,0.000000000,0.000000000,1.011010000,0.000000000,0.000000000,-0.027456000,0.000000000,0.000000000,0.232352000,0.000000000,0.000000000,0.023296000,0.000000000,0.000000000,1720619155.430463314,,,,,,,,,,,
1720619155.443989,-0.048048000,0.000000000,0.000000000,-1.146992000,0.000000000,0.000000000,1.011010000,0.000000000,0.000000000,-0.027520000,0.000000000,0.000000000,0.232800000,0.000000000,0.000000000,0.022272000,0.000000000,0.000000000,1720619155.437463284,,,,,,,,,,,
1720619155.455992,-0.048048000,0.000000000,0.000000000,-1.148070000,0.000000000,0.000000000,1.011010000,0.000000000,0.000000000,-0.027456000,0.000000000,0.000000000,0.231872000,0.000000000,0.000000000,0.023136000,0.000000000,0.009134350,1720619155.450463295,,,,,,,,,,,
1720619155.463878,-0.048048000,0.000000000,0.000000000,-1.148609000,0.000000000,0.000000000,1.011010000,0.000000000,0.000000000,-0.027456000,0.000000000,0.000000000,0.232160000,0.000000000,0.000000000,0.022944000,0.000000000,0.000000000,1720619155.457463264,,,,,,,,,,,
1720619155.465174,-0.048048000,0.000000000,0.000000000,-1.148609000,0.000000000,0.000000000,1.011010000,0.000000000,0.000000000,-0.027456000,0.000000000,0.000000000,0.232160000,0.000000000,0.000000000,0.022944000,0.000000000,0.000000000,1720619155.459463358,,,,,,,,,,,
1720619155.466466,,,,,,,,,,,,,,,,,,,,1720619155.450463295,-1.186824000,3.141592654,0.000000015,0.829037542,-0.000000022,-0.000000054,0.559192949,1.395152983,0.001110973,1.481517837
1720619155.468154,-0.048048000,0.000000000,0.000000000,-1.152382000,0.000000000,0.000000000,1.011010000,0.000000000,0.000000000,-0.027456000,0.000000000,0.000000000,0.232224000,0.000000000,0.000000000,0.022272000,0.000000000,0.000000000,1720619155.462463140,,,,,,,,,,,
1720619155.480248,-0.048048000,0.000000000,0.000000000,-1.152382000,0.000000000,0.000000000,1.011010000,0.000000000,0.000000000,-0.027456000,0.000000000,0.000000000,0.233216000,0.000000000,0.000000000,0.023488000,0.000000000,0.000000000,1720619155.474463224,,,,,,,,,,,
1720619155.488294,-0.048048000,0.000000000,0.000000000,-1.149687000,0.000000000,0.000000000,1.011010000,0.000000000,0.000000000,-0.027456000,0.000000000,0.000000000,0.231872000,0.000000000,0.000000000,0.024128000,0.000000000,0.009134350,1720619155.482463360,,,,,,,,,,,
1720619155.493034,-0.048048000,0.000000000,0.000000000,-1.149687000,0.000000000,0.000000000,1.011010000,0.000000000,0.000000000,-0.027456000,0.000000000,0.000000000,0.232160000,0.000000000,0.000000000,0.021152000,0.000038380,0.009134350,1720619155.487463236,,,,,,,,,,,
1720619155.500239,-0.048048000,0.000000000,0.000000000,-1.148609000,0.000000000,0.000000000,1.011010000,0.000000000,0.000000000,-0.027456000,0.000000000,0.000000000,0.232672000,0.000000000,0.000000000,0.021024000,0.000038380,0.009134350,1720619155.494463205,,,,,,,,,,,
1720619155.501316,-0.048048000,0.000000000,0.000000000,-1.148609000,0.000000000,0.000000000,1.011010000,0.000000000,0.000000000,-0.027456000,0.000000000,0.000000000,0.232672000,0.000000000,0.000000000,0.021024000,0.000038380,0.009134350,1720619155.495463133,,,,,,,,,,,
1720619155.505320,-0.048048000,0.000000000,0.000000000,-1.148609000,0.000000000,0.000000000,1.011010000,0.000000000,0.000000000,-0.027456000,0.000000000,0.000000000,0.232224000,0.000000000,0.000000000,0.024064000,0.000000000,0.009134350,1720619155.499463320,,,,,,,,,,,
1720619155.513331,-0.048048000,0.000000000,0.000000000,-1.179871000,0.000000000,0.000000000,1.011010000,0.000000000,0.000000000,-0.027456000,0.000000000,0.000000000,0.231808000,0.000000000,0.000000000,0.024000000,0.000000000,0.009134350,1720619155.507463217,,,,,,,,,,,
1720619155.516288,,,,,,,,,,,,,,,,,,,,1720619155.507463217,-1.186824000,3.141592654,0.000000015,0.829037542,-0.000000022,-0.000000054,0.559192949,1.395152983,0.001110973,1.481517837
1720619155.523858,-0.048048000,0.000000000,0.000000000,-1.160467000,0.000000000,0.000000000,1.011010000,0.000000000,0.000000000,-0.027456000,0.000000000,0.000000000,0.231808000,0.000000000,0.000000000,0.021632000,0.000038380,0.009134350,1720619155.517463207,,,,,,,,,,,
1720619155.534556,-0.048048000,0.000000000,0.000000000,-1.151304000,0.000000000,0.000000000,1.011010000,0.000000000,0.000000000,-0.027456000,0.000000000,0.000000000,0.232672000,0.000000000,0.000000000,0.021952000,0.000000000,0.000000000,1720619155.526463270,,,,,,,,,,,
1720619155.546647,-0.048048000,0.000000000,0.000000000,-1.124354000,0.000000000,0.000000000,1.011010000,0.000000000,0.000000000,-0.027456000,0.000000000,0.000000000,0.233024000,0.000000000,0.000000000,0.022624000,0.000000000,0.000000000,1720619155.540463209,,,,,,,,,,,
1720619155.553586,-0.048048000,0.000000000,0.000000000,-1.148070000,0.000000000,0.000000000,1.011010000,0.000000000,0.000000000,-0.027456000,0.000000000,0.000000000,0.232160000,0.000000000,0.000000000,0.022496000,0.000000000,0.000000000,1720619155.547463179,,,,,,,,,,,
1720619155.554307,-0.048048000,0.000000000,0.000000000,-1.148070000,0.000000000,0.000000000,1.011010000,0.000000000,0.000000000,-0.027456000,0.000000000,0.000000000,0.232160000,0.000000000,0.000000000,0.022496000,0.000000000,0.000000000,1720619155.548463345,,,,,,,,,,,
1720619155.560410,-0.048048000,0.000000000,0.000000000,-1.148609000,0.000000000,0.000000000,1.011010000,0.000000000,0.000000000,-0.027456000,0.000000000,0.000000000,0.232416000,0.000000000,0.000000000,0.022880000,0.000000000,0.000000000,1720619155.554463148,,,,,,,,,,,
1720619155.566730,-0.048048000,0.000000000,0.000000000,-1.148609000,0.000000000,0.000000000,1.011010000,0.000000000,0.000000000,-0.027456000,0.000000000,0.000000000,0.231616000,0.000000000,0.000000000,0.022816000,0.000000000,0.000000000,1720619155.560463190,,,,,,,,,,,
1720619155.568721,-0.048048000,0.000000000,0.000000000,-1.148609000,0.000000000,0.000000000,1.011010000,0.000000000,0.000000000,-0.027456000,0.000000000,0.000000000,0.231808000,0.000000000,0.000000000,0.022944000,0.000000000,0.000000000,1720619155.562463284,,,,,,,,,,,
1720619155.573045,-0.048048000,0.000000000,0.000000000,-1.146992000,0.000000000,0.000000000,1.011010000,0.000000000,0.000000000,-0.027456000,0.000000000,0.000000000,0.232544000,0.000000000,0.000000000,0.022080000,0.000000000,0.000000000,1720619155.566463232,,,,,,,,,,,
1720619155.576189,,,,,,,,,,,,,,,,,,,,1720619155.560463190,-1.186824000,3.141592654,0.000000015,0.829037542,-0.000000022,-0.000000054,0.559192949,1.395152983,0.001110973,1.481517837
1720619155.580345,-0.048048000,0.000000000,0.000000000,-1.148070000,0.000000000,0.000000000,1.011010000,0.000000000,0.000000000,-0.027456000,0.000000000,0.000000000,0.232416000,0.000000000,0.000000000,0.022208000,0.000000000,0.000000000,1720619155.574463367,,,,,,,,,,,
1720619155.584382,-0.048048000,0.000000000,0.000000000,-1.148070000,0.000000000,0.000000000,1.011010000,0.000000000,0.000000000,-0.027456000,0.000000000,0.000000000,0.232608000,0.000000000,0.000000000,0.023072000,0.000000000,0.000000000,1720619155.578463316,,,,,,,,,,,
1720619155.600409,-0.048048000,0.000000000,0.000000000,-1.148609000,0.000000000,0.000000000,1.011010000,0.000000000,0.000000000,-0.027456000,0.000000000,0.000000000,0.232096000,0.000000000,0.000000000,0.022560000,0.000000000,0.000000000,1720619155.591463327,,,,,,,,,,,
1720619155.603960,-0.048048000,0.000000000,0.000000000,-1.148609000,0.000000000,0.000000000,1.011010000,0.000000000,0.000000000,-0.027456000,0.000000000,0.000000000,0.233152000,0.000000000,0.000000000,0.021952000,0.000000000,0.000000000,1720619155.597463131,,,,,,,,,,,
1720619155.604212,-0.048048000,0.000000000,0.000000000,-1.148609000,0.000000000,0.000000000,1.011010000,0.000000000,0.000000000,-0.027456000,0.000000000,0.000000000,0.233152000,0.000000000,0.000000000,0.021952000,0.000000000,0.000000000,1720619155.598463297,,,,,,,,,,,
1720619155.605461,-0.048048000,0.000000000,0.000000000,-1.148609000,0.000000000,0.000000000,1.011010000,0.000000000,0.000000000,-0.027456000,0.000000000,0.000000000,0.233152000,0.000000000,0.000000000,0.021952000,0.000000000,0.000000000,1720619155.599463224,,,,,,,,,,,
1720619155.606483,-0.048048000,0.000000000,0.000000000,-1.148609000,0.000000000,0.000000000,1.011010000,0.000000000,0.000000000,-0.027456000,0.000000000,0.000000000,0.233152000,0.000000000,0.000000000,0.021952000,0.000000000,0.000000000,1720619155.600463152,,,,,,,,,,,
1720619155.608752,-0.048048000,0.000000000,0.000000000,-1.148609000,0.000000000,0.000000000,1.011010000,0.000000000,0.000000000,-0.027456000,0.000000000,0.000000000,0.232224000,0.000000000,0.000000000,0.023360000,0.000000000,0.000000000,1720619155.602463245,,,,,,,,,,,
1720619155.612161,-0.048048000,0.000000000,0.000000000,-1.148609000,0.000000000,0.000000000,1.011010000,0.000000000,0.000000000,-0.027456000,0.000000000,0.000000000,0.231744000,0.000000000,0.000000000,0.022432000,0.000000000,0.000000000,1720619155.606463194,,,,,,,,,,,
1720619155.620560,-0.048048000,0.000000000,0.000000000,-1.148609000,0.000000000,0.000000000,1.011010000,0.000000000,0.000000000,-0.027456000,0.000000000,0.000000000,0.232608000,0.000000000,0.000000000,0.022272000,0.000000000,0.000000000,1720619155.614463329,,,,,,,,,,,
1720619155.624136,-0.048048000,0.000000000,0.000000000,-1.148609000,0.000000000,0.000000000,1.011010000,0.000000000,0.000000000,-0.027456000,0.000000000,0.000000000,0.232000000,0.000000000,0.000000000,0.023008000,0.000000000,0.000000000,1720619155.618463278,,,,,,,,,,,
1720619155.626431,,,,,,,,,,,,,,,,,,,,1720619155.614463329,-1.186824000,3.141592654,0.000000015,0.829037542,-0.000000022,-0.000000054,0.559192949,1.395152983,0.001110973,1.481517837
1720619155.632369,-0.048048000,0.000000000,0.000000000,-1.146453000,0.000000000,0.000000000,1.011010000,0.000000000,0.000000000,-0.027456000,0.000000000,0.000000000,0.233024000,0.000000000,0.000000000,0.023424000,0.000000000,0.009134350,1720619155.626463175,,,,,,,,,,,
1720619155.636343,-0.048048000,0.000000000,0.000000000,-1.156694000,0.000000000,0.000000000,1.011010000,0.000000000,0.000000000,-0.027456000,0.000000000,0.000000000,0.232608000,0.000000000,0.000000000,0.022016000,0.000038380,0.009134350,1720619155.630463362,,,,,,,,,,,
1720619155.644457,-0.048048000,0.000000000,0.000000000,-1.151304000,0.000000000,0.000000000,1.011010000,0.000000000,0.000000000,-0.027456000,0.000000000,0.000000000,0.232416000,0.000000000,0.000000000,0.021888000,0.000038380,0.009134350,1720619155.638463259,,,,,,,,,,,
1720619155.648876,-0.048048000,0.000000000,0.000000000,-1.145375000,0.000000000,0.000000000,1.011010000,0.000000000,0.000000000,-0.027456000,0.000000000,0.000000000,0.232416000,0.000000000,0.000000000,0.023872000,0.000000000,0.009134350,1720619155.642463207,,,,,,,,,,,
1720619155.656821,-0.048048000,0.000000000,0.000000000,-1.148609000,0.000000000,0.000000000,1.011010000,0.000000000,0.000000000,-0.027456000,0.000000000,0.000000000,0.231680000,0.000000000,0.000000000,0.023680000,0.000000000,0.000000000,1720619155.650463343,,,,,,,,,,,
1720619155.660461,-0.048048000,0.000000000,0.000000000,-1.148609000,0.000000000,0.000000000,1.011010000,0.000000000,0.000000000,-0.027456000,0.000000000,0.000000000,0.232416000,0.000000000,0.000000000,0.022016000,0.000000000,0.000000000,1720619155.654463291,,,,,,,,,,,
1720619155.669077,-0.048048000,0.000000000,0.000000000,-1.143758000,0.000000000,0.000000000,1.011010000,0.000000000,0.000000000,-0.027456000,0.000000000,0.000000000,0.232960000,0.000000000,0.000000000,0.022432000,0.000000000,0.000000000,1720619155.662463188,,,,,,,,,,,
1720619155.672373,-0.048048000,0.000000000,0.000000000,-1.155077000,0.000000000,0.000000000,1.011010000,0.000000000,0.000000000,-0.027456000,0.000000000,0.000000000,0.231872000,0.000000000,0.000000000,0.022880000,0.000000000,0.000000000,1720619155.666463137,,,,,,,,,,,
1720619155.676344,,,,,,,,,,,,,,,,,,,,1720619155.666463137,-1.186824000,3.141592654,0.000000015,0.829037542,-0.000000022,-0.000000054,0.559192949,1.395152983,0.001110973,1.481517837
1720619155.680506,-0.048048000,0.000000000,0.000000000,-1.153460000,0.000000000,0.000000000,1.011010000,0.000000000,0.000000000,-0.027456000,0.000000000,0.000000000,0.232800000,0.000000000,0.000000000,0.023296000,0.000000000,0.000000000,1720619155.674463272,,,,,,,,,,,
1720619155.684669,-0.048048000,0.000000000,0.000000000,-1.150765000,0.000000000,0.000000000,1.011010000,0.000000000,0.000000000,-0.027456000,0.000000000,0.000000000,0.232288000,0.000000000,0.000000000,0.021696000,0.000038380,0.009134350,1720619155.678463221,,,,,,,,,,,
1720619155.696615,-0.048048000,0.000000000,0.000000000,-1.151304000,0.000000000,0.000000000,1.011010000,0.000000000,0.000000000,-0.027392000,0.000000000,0.000000000,0.232736000,0.000000000,0.000000000,0.024128000,0.000000000,0.009134350,1720619155.690463305,,,,,,,,,,,
1720619155.709713,-0.048048000,0.000000000,0.000000000,-1.138368000,0.000000000,0.000000000,1.011010000,0.000000000,0.000000000,-0.027456000,0.000000000,0.000000000,0.232288000,0.000000000,0.000000000,0.023744000,0.000000000,0.009134350,1720619155.699463367,,,,,,,,,,,
1720619155.712697,-0.048048000,0.000000000,0.000000000,-1.146992000,0.000000000,0.000000000,1.011010000,0.000000000,0.000000000,-0.027456000,0.000000000,0.000000000,0.231872000,0.000000000,0.000000000,0.023680000,0.000000000,0.000000000,1720619155.706463337,,,,,,,,,,,
1720619155.713731,-0.048048000,0.000000000,0.000000000,-1.146992000,0.000000000,0.000000000,1.011010000,0.000000000,0.000000000,-0.027456000,0.000000000,0.000000000,0.231872000,0.000000000,0.000000000,0.023680000,0.000000000,0.000000000,1720619155.707463264,,,,,,,,,,,
1720619155.717542,-0.048048000,0.000000000,0.000000000,-1.146992000,0.000000000,0.000000000,1.011010000,0.000000000,0.000000000,-0.027456000,0.000000000,0.000000000,0.232416000,0.000000000,0.000000000,0.021568000,0.000038380,0.009134350,1720619155.711463213,,,,,,,,,,,
1720619155.724718,-0.048048000,0.000000000,0.000000000,-1.148609000,0.000000000,0.000000000,1.011010000,0.000000000,0.000000000,-0.027456000,0.000000000,0.000000000,0.232544000,0.000000000,0.000000000,0.022016000,0.000000000,0.000000000,1720619155.718463182,,,,,,,,,,,
1720619155.726238,,,,,,,,,,,,,,,,,,,,1720619155.718463182,-1.186824000,3.141592654,0.000000015,0.829037542,-0.000000022,-0.000000054,0.559192949,1.395152983,0.001110973,1.481517837
1720619155.726251,-0.048048000,0.000000000,0.000000000,-1.148609000,0.000000000,0.000000000,1.011010000,0.000000000,0.000000000,-0.027456000,0.000000000,0.000000000,0.232544000,0.000000000,0.000000000,0.022016000,0.000000000,0.000000000,1720619155.719463348,,,,,,,,,,,
1720619155.729578,-0.048048000,0.000000000,0.000000000,-1.149687000,0.000000000,0.000000000,1.011010000,0.000000000,0.000000000,-0.027456000,0.000000000,0.000000000,0.232000000,0.000000000,0.000000000,0.023008000,0.000000000,0.000000000,1720619155.723463297,,,,,,,,,,,
1720619155.737147,-0.048048000,0.000000000,0.000000000,-1.153460000,0.000000000,0.000000000,1.011010000,0.000000000,0.000000000,-0.027456000,0.000000000,0.000000000,0.232352000,0.000000000,0.000000000,0.023296000,0.000000000,0.000000000,1720619155.730463266,,,,,,,,,,,
1720619155.737467,-0.048048000,0.000000000,0.000000000,-1.153460000,0.000000000,0.000000000,1.011010000,0.000000000,0.000000000,-0.027456000,0.000000000,0.000000000,0.232352000,0.000000000,0.000000000,0.023296000,0.000000000,0.000000000,1720619155.731463194,,,,,,,,,,,
1720619155.742599,-0.048048000,0.000000000,0.000000000,-1.153460000,0.000000000,0.000000000,1.011010000,0.000000000,0.000000000,-0.027456000,0.000000000,0.000000000,0.232352000,0.000000000,0.000000000,0.022144000,0.000000000,0.000000000,1720619155.736463308,,,,,,,,,,,
1720619155.750188,-0.048048000,0.000000000,0.000000000,-1.153460000,0.000000000,0.000000000,1.011010000,0.000000000,0.000000000,-0.027520000,0.000000000,0.000000000,0.232416000,0.000000000,0.000000000,0.022272000,0.000000000,0.000000000,1720619155.743463278,,,,,,,,,,,
1720619155.751843,-0.048048000,0.000000000,0.000000000,-1.153460000,0.000000000,0.000000000,1.011010000,0.000000000,0.000000000,-0.027520000,0.000000000,0.000000000,0.232608000,0.000000000,0.000000000,0.023008000,0.000000000,0.000000000,1720619155.745463133,,,,,,,,,,,
1720619155.760982,-0.048620000,0.000000000,0.000000000,-1.151304000,0.000000000,0.000000000,1.011010000,0.000000000,0.000000000,-0.027520000,0.000000000,0.000000000,0.232352000,0.000000000,0.000000000,0.023808000,0.000000000,0.009134350,1720619155.754463196,,,,,,,,,,,
1720619155.762025,-0.048620000,0.000000000,0.000000000,-1.151304000,0.000000000,0.000000000,1.011010000,0.000000000,0.000000000,-0.027520000,0.000000000,0.000000000,0.232352000,0.000000000,0.000000000,0.023808000,0.000000000,0.009134350,1720619155.755463362,,,,,,,,,,,
1720619155.763747,-0.048620000,0.000000000,0.000000000,-1.151304000,0.000000000,0.000000000,1.011010000,0.000000000,0.000000000,-0.027520000,0.000000000,0.000000000,0.232352000,0.000000000,0.000000000,0.023808000,0.000000000,0.009134350,1720619155.756463289,,,,,,,,,,,
1720619155.772664,-0.048048000,0.000000000,0.000000000,-1.146453000,0.000000000,0.000000000,1.011010000,0.000000000,0.000000000,-0.027520000,0.000000000,0.000000000,0.232000000,0.000000000,0.000000000,0.021216000,0.000038380,0.009134350,1720619155.766463280,,,,,,,,,,,
1720619155.773681,-0.048048000,0.000000000,0.000000000,-1.146453000,0.000000000,0.000000000,1.011010000,0.000000000,0.000000000,-0.027520000,0.000000000,0.000000000,0.232000000,0.000000000,0.000000000,0.021216000,0.000038380,0.009134350,1720619155.767463207,,,,,,,,,,,
1720619155.776000,-0.048048000,0.000000000,0.000000000,-1.146453000,0.000000000,0.000000000,1.011010000,0.000000000,0.000000000,-0.027520000,0.000000000,0.000000000,0.232000000,0.000000000,0.000000000,0.024288000,0.000000000,0.009134350,1720619155.769463301,,,,,,,,,,,
1720619155.785237,-0.048048000,0.000000000,0.000000000,-1.146453000,0.000000000,0.000000000,1.011010000,0.000000000,0.000000000,-0.027520000,0.000000000,0.000000000,0.232352000,0.000000000,0.000000000,0.024128000,0.000000000,0.009134350,1720619155.778463364,,,,,,,,,,,
1720619155.786439,,,,,,,,,,,,,,,,,,,,1720619155.769463301,-1.186824000,3.141592654,0.000000015,0.829037542,-0.000000022,-0.000000054,0.559192949,1.395152983,0.001110973,1.481517837
1720619155.786506,-0.048048000,0.000000000,0.000000000,-1.146453000,0.000000000,0.000000000,1.011010000,0.000000000,0.000000000,-0.027520000,0.000000000,0.000000000,0.232352000,0.000000000,0.000000000,0.024128000,0.000000000,0.009134350,1720619155.779463291,,,,,,,,,,,
1720619155.788069,-0.048048000,0.000000000,0.000000000,-1.146992000,0.000000000,0.000000000,1.011010000,0.000000000,0.000000000,-0.027520000,0.000000000,0.000000000,0.231936000,0.000000000,0.000000000,0.021632000,0.000000000,0.000000000,1720619155.781463146,,,,,,,,,,,
1720619155.797648,-0.048048000,0.000000000,0.000000000,-1.148609000,0.000000000,0.000000000,1.011010000,0.000000000,0.000000000,-0.027520000,0.000000000,0.000000000,0.232160000,0.000000000,0.000000000,0.021216000,0.000000000,0.000000000,1720619155.790463209,,,,,,,,,,,
1720619155.797729,-0.048048000,0.000000000,0.000000000,-1.148609000,0.000000000,0.000000000,1.011010000,0.000000000,0.000000000,-0.027520000,0.000000000,0.000000000,0.232160000,0.000000000,0.000000000,0.021216000,0.000000000,0.000000000,1720619155.791463137,,,,,,,,,,,
1720619155.800380,-0.048048000,0.000000000,0.000000000,-1.149687000,0.000000000,0.000000000,1.011010000,0.000000000,0.000000000,-0.027520000,0.000000000,0.000000000,0.232416000,0.000000000,0.000000000,0.023424000,0.000000000,0.000000000,1720619155.793463230,,,,,,,,,,,
1720619155.809035,-0.048048000,0.000000000,0.000000000,-1.149687000,0.000000000,0.000000000,1.010724000,0.000000000,0.000000000,-0.027200000,0.000000000,0.000000000,0.232416000,0.000000000,0.000000000,0.023296000,0.000000000,0.000000000,1720619155.802463293,,,,,,,,,,,
1720619155.810337,-0.048048000,0.000000000,0.000000000,-1.149687000,0.000000000,0.000000000,1.010724000,0.000000000,0.000000000,-0.027200000,0.000000000,0.000000000,0.232416000,0.000000000,0.000000000,0.023296000,0.000000000,0.000000000,1720619155.803463221,,,,,,,,,,,
1720619155.811968,-0.048048000,0.000000000,0.000000000,-1.149687000,0.000000000,0.000000000,1.009580000,0.000000000,0.000000000,-0.027456000,0.000000000,0.000000000,0.232544000,0.000000000,0.000000000,0.022272000,0.000000000,0.000000000,1720619155.805463314,,,,,,,,,,,
1720619155.821144,-0.048048000,0.000000000,0.000000000,-1.149687000,0.000000000,0.000000000,1.010152000,0.000000000,0.000000000,-0.027392000,0.000000000,0.000000000,0.232416000,0.000000000,0.000000000,0.022752000,0.000000000,0.000000000,1720619155.814463139,,,,,,,,,,,
1720619155.821774,-0.048048000,0.000000000,0.000000000,-1.149687000,0.000000000,0.000000000,1.010152000,0.000000000,0.000000000,-0.027392000,0.000000000,0.000000000,0.232416000,0.000000000,0.000000000,0.022752000,0.000000000,0.000000000,1720619155.815463305,,,,,,,,,,,
1720619155.823310,-0.048048000,0.000000000,0.000000000,-1.149687000,0.000000000,0.000000000,1.010152000,0.000000000,0.000000000,-0.027392000,0.000000000,0.000000000,0.232160000,0.000000000,0.000000000,0.022880000,0.000000000,0.000000000,1720619155.817463160,,,,,,,,,,,
1720619155.832795,-0.048048000,0.000000000,0.000000000,-1.149687000,0.000000000,0.000000000,1.010724000,0.000000000,0.000000000,-0.027392000,0.000000000,0.000000000,0.231616000,0.000000000,0.000000000,0.022944000,0.000000000,0.000000000,1720619155.826463223,,,,,,,,,,,
1720619155.833641,-0.048048000,0.000000000,0.000000000,-1.149687000,0.000000000,0.000000000,1.010724000,0.000000000,0.000000000,-0.027392000,0.000000000,0.000000000,0.231616000,0.000000000,0.000000000,0.022944000,0.000000000,0.000000000,1720619155.827463150,,,,,,,,,,,
1720619155.836257,,,,,,,,,,,,,,,,,,,,1720619155.826463223,-1.186824000,3.141592654,0.000000015,0.829037542,-0.000000022,-0.000000054,0.559192949,1.395152983,0.001110973,1.481517837
1720619155.836519,-0.048048000,0.000000000,0.000000000,-1.149687000,0.000000000,0.000000000,1.010724000,0.000000000,0.000000000,-0.027392000,0.000000000,0.000000000,0.232960000,0.000000000,0.000000000,0.022080000,0.000000000,0.000000000,1720619155.830463171,,,,,,,,,,,
1720619155.845048,-0.048048000,0.000000000,0.000000000,-1.146453000,0.000000000,0.000000000,1.010724000,0.000000000,0.000000000,-0.027392000,0.000000000,0.000000000,0.232352000,0.000000000,0.000000000,0.022432000,0.000000000,0.000000000,1720619155.838463306,,,,,,,,,,,
1720619155.846123,-0.048048000,0.000000000,0.000000000,-1.146453000,0.000000000,0.000000000,1.010724000,0.000000000,0.000000000,-0.027392000,0.000000000,0.000000000,0.232352000,0.000000000,0.000000000,0.022432000,0.000000000,0.000000000,1720619155.839463234,,,,,,,,,,,
1720619155.847706,-0.048048000,0.000000000,0.000000000,-1.175559000,0.000000000,0.000000000,1.010724000,0.000000000,0.000000000,-0.027392000,0.000000000,0.000000000,0.232480000,0.000000000,0.000000000,0.022560000,0.000000000,0.000000000,1720619155.841463327,,,,,,,,,,,
1720619155.857253,-0.048048000,0.000000000,0.000000000,-1.146992000,0.000000000,0.000000000,1.010724000,0.000000000,0.000000000,-0.027456000,0.000000000,0.000000000,0.232416000,0.000000000,0.000000000,0.022272000,0.000000000,0.000000000,1720619155.850463152,,,,,,,,,,,
1720619155.857811,-0.048048000,0.000000000,0.000000000,-1.146992000,0.000000000,0.000000000,1.010724000,0.000000000,0.000000000,-0.027456000,0.000000000,0.000000000,0.232416000,0.000000000,0.000000000,0.022272000,0.000000000,0.000000000,1720619155.851463318,,,,,,,,,,,
1720619155.861268,-0.048048000,0.000000000,0.000000000,-1.146992000,0.000000000,0.000000000,1.010724000,0.000000000,0.000000000,-0.027456000,0.000000000,0.000000000,0.232224000,0.000000000,0.000000000,0.023552000,0.000000000,0.000000000,1720619155.854463339,,,,,,,,,,,
1720619155.869223,-0.051194000,0.000000000,0.000000000,-1.167474000,0.000000000,0.000000000,1.010724000,0.000000000,0.000000000,-0.027456000,0.000000000,0.000000000,0.231936000,0.000000000,0.000000000,0.023680000,0.000000000,0.000000000,1720619155.862463236,,,,,,,,,,,
1720619155.870023,-0.051194000,0.000000000,0.000000000,-1.167474000,0.000000000,0.000000000,1.010724000,0.000000000,0.000000000,-0.027456000,0.000000000,0.000000000,0.231936000,0.000000000,0.000000000,0.023680000,0.000000000,0.000000000,1720619155.863463163,,,,,,,,,,,
1720619155.871719,-0.048620000,0.000000000,0.000000000,-1.145375000,0.000000000,0.000000000,1.010724000,0.000000000,0.000000000,-0.027456000,0.000000000,0.000000000,0.232352000,0.000000000,0.000000000,0.021760000,0.000000000,0.000000000,1720619155.865463257,,,,,,,,,,,
1720619155.881170,-0.048048000,0.000000000,0.000000000,-1.146992000,0.000000000,0.000000000,1.010724000,0.000000000,0.000000000,-0.027456000,0.000000000,0.000000000,0.232288000,0.000000000,0.000000000,0.022432000,0.000000000,0.000000000,1720619155.874463320,,,,,,,,,,,
1720619155.881949,-0.048048000,0.000000000,0.000000000,-1.146992000,0.000000000,0.000000000,1.010724000,0.000000000,0.000000000,-0.027456000,0.000000000,0.000000000,0.232288000,0.000000000,0.000000000,0.022432000,0.000000000,0.000000000,1720619155.875463247,,,,,,,,,,,
1720619155.883414,-0.047476000,0.000000000,0.000000000,-1.149687000,0.000000000,0.000000000,1.010724000,0.000000000,0.000000000,-0.027456000,0.000000000,0.000000000,0.232352000,0.000000000,0.000000000,0.023136000,0.000000000,0.000000000,1720619155.877463341,,,,,,,,,,,
1720619155.886312,,,,,,,,,,,,,,,,,,,,1720619155.877463341,-1.186824000,3.141592654,0.000000015,0.829037542,-0.000000022,-0.000000054,0.559192949,1.395152983,0.001110973,1.481517837
1720619155.893122,-0.047476000,0.000000000,0.000000000,-1.149687000,0.000000000,0.000000000,1.010724000,0.000000000,0.000000000,-0.027456000,0.000000000,0.000000000,0.232864000,0.000000000,0.000000000,0.022944000,0.000000000,0.000000000,1720619155.886463165,,,,,,,,,,,
1720619155.894053,-0.047476000,0.000000000,0.000000000,-1.149687000,0.000000000,0.000000000,1.010724000,0.000000000,0.000000000,-0.027456000,0.000000000,0.000000000,0.232864000,0.000000000,0.000000000,0.022944000,0.000000000,0.000000000,1720619155.887463331,,,,,,,,,,,
1720619155.896246,-0.047476000,0.000000000,0.000000000,-1.148609000,0.000000000,0.000000000,1.010724000,0.000000000,0.000000000,-0.027456000,0.000000000,0.000000000,0.232416000,0.000000000,0.000000000,0.022336000,0.000000000,0.000000000,1720619155.889463186,,,,,,,,,,,
1720619155.905231,-0.048048000,0.000000000,0.000000000,-1.148609000,0.000000000,0.000000000,1.010724000,0.000000000,0.000000000,-0.027456000,0.000000000,0.000000000,0.232608000,0.000000000,0.000000000,0.021824000,0.000000000,0.000000000,1720619155.898463249,,,,,,,,,,,
1720619155.906568,-0.048048000,0.000000000,0.000000000,-1.148609000,0.000000000,0.000000000,1.010724000,0.000000000,0.000000000,-0.027456000,0.000000000,0.000000000,0.232608000,0.000000000,0.000000000,0.021824000,0.000000000,0.000000000,1720619155.899463177,,,,,,,,,,,
1720619155.907796,-0.048048000,0.000000000,0.000000000,-1.148609000,0.000000000,0.000000000,1.011010000,0.000000000,0.000000000,-0.027456000,0.000000000,0.000000000,0.232416000,0.000000000,0.000000000,0.024000000,0.000000000,0.000000000,1720619155.901463270,,,,,,,,,,,
1720619155.917464,-0.048048000,0.000000000,0.000000000,-1.148070000,0.000000000,0.000000000,1.011010000,0.000000000,0.000000000,-0.027456000,0.000000000,0.000000000,0.232096000,0.000000000,0.000000000,0.023200000,0.000000000,0.000000000,1720619155.910463333,,,,,,,,,,,
1720619155.917782,-0.048048000,0.000000000,0.000000000,-1.148070000,0.000000000,0.000000000,1.011010000,0.000000000,0.000000000,-0.027456000,0.000000000,0.000000000,0.232096000,0.000000000,0.000000000,0.023200000,0.000000000,0.000000000,1720619155.911463261,,,,,,,,,,,
1720619155.920364,-0.048048000,0.000000000,0.000000000,-1.153999000,0.000000000,0.000000000,1.011010000,0.000000000,0.000000000,-0.027456000,0.000000000,0.000000000,0.232288000,0.000000000,0.000000000,0.023008000,0.000000000,0.000000000,1720619155.913463354,,,,,,,,,,,
1720619155.929248,-0.047476000,0.000000000,0.000000000,-1.156155000,0.000000000,0.000000000,1.011010000,0.000000000,0.000000000,-0.027456000,0.000000000,0.000000000,0.232224000,0.000000000,0.000000000,0.022816000,0.000000000,0.000000000,1720619155.922463179,,,,,,,,,,,
1720619155.930200,-0.047476000,0.000000000,0.000000000,-1.156155000,0.000000000,0.000000000,1.011010000,0.000000000,0.000000000,-0.027456000,0.000000000,0.000000000,0.232224000,0.000000000,0.000000000,0.022816000,0.000000000,0.000000000,1720619155.923463345,,,,,,,,,,,
1720619155.931895,-0.047476000,0.000000000,0.000000000,-1.119503000,0.000000000,0.000000000,1.011010000,0.000000000,0.000000000,-0.027456000,0.000000000,0.000000000,0.232000000,0.000000000,0.000000000,0.022752000,0.000000000,0.000000000,1720619155.925463200,,,,,,,,,,,
1720619155.941413,-0.048048000,0.000000000,0.000000000,-1.160467000,0.000000000,0.000000000,1.011010000,0.000000000,0.000000000,-0.027456000,0.000000000,0.000000000,0.232160000,0.000000000,0.000000000,0.022688000,0.000000000,0.000000000,1720619155.934463263,,,,,,,,,,,
1720619155.942036,-0.048048000,0.000000000,0.000000000,-1.160467000,0.000000000,0.000000000,1.011010000,0.000000000,0.000000000,-0.027456000,0.000000000,0.000000000,0.232160000,0.000000000,0.000000000,0.022688000,0.000000000,0.000000000,1720619155.935463190,,,,,,,,,,,
1720619155.944972,-0.048048000,0.000000000,0.000000000,-1.156155000,0.000000000,0.000000000,1.011010000,0.000000000,0.000000000,-0.027456000,0.000000000,0.000000000,0.232672000,0.000000000,0.000000000,0.022432000,0.000000000,0.000000000,1720619155.936463356,,,,,,,,,,,
1720619155.946302,,,,,,,,,,,,,,,,,,,,1720619155.934463263,-1.186824000,3.141592654,0.000000015,0.829037542,-0.000000022,-0.000000054,0.559192949,1.395152983,0.001110973,1.481517837
1720619155.953555,-0.048048000,0.000000000,0.000000000,-1.155077000,0.000000000,0.000000000,1.011010000,0.000000000,0.000000000,-0.027872000,0.000000000,0.000000000,0.232416000,0.000000000,0.000000000,0.022816000,0.000000000,0.000000000,1720619155.946463346,,,,,,,,,,,
1720619155.957451,-0.047476000,0.000000000,0.000000000,-1.153999000,0.000000000,0.000000000,1.011010000,0.000000000,0.000000000,-0.027456000,0.000000000,0.000000000,0.232288000,0.000000000,0.000000000,0.022816000,0.000000000,0.000000000,1720619155.948463202,,,,,,,,,,,
1720619155.965364,-0.047476000,0.000000000,0.000000000,-1.153460000,0.000000000,0.000000000,1.011010000,0.000000000,0.000000000,-0.027456000,0.000000000,0.000000000,0.232288000,0.000000000,0.000000000,0.023424000,0.000000000,0.000000000,1720619155.958463192,,,,,,,,,,,
1720619155.967718,-0.048048000,0.000000000,0.000000000,-1.148070000,0.000000000,0.000000000,1.011010000,0.000000000,0.000000000,-0.027456000,0.000000000,0.000000000,0.232416000,0.000000000,0.000000000,0.022496000,0.000000000,0.000000000,1720619155.960463285,,,,,,,,,,,
1720619155.978175,-0.048048000,0.000000000,0.000000000,-1.146992000,0.000000000,0.000000000,1.011010000,0.000000000,0.000000000,-0.027456000,0.000000000,0.000000000,0.232416000,0.000000000,0.000000000,0.022080000,0.000000000,0.000000000,1720619155.971463203,,,,,,,,,,,
1720619155.989300,-0.047476000,0.000000000,0.000000000,-1.144297000,0.000000000,0.000000000,1.011010000,0.000000000,0.000000000,-0.027456000,0.000000000,0.000000000,0.231552000,0.000000000,0.000000000,0.023072000,0.000000000,0.000000000,1720619155.982463360,,,,,,,,,,,
1720619155.997824,-0.047476000,0.000000000,0.000000000,-1.148070000,0.000000000,0.000000000,1.011010000,0.000000000,0.000000000,-0.027456000,0.000000000,0.000000000,0.232800000,0.000000000,0.000000000,0.023360000,0.000000000,0.000000000,1720619155.991463184,,,,,,,,,,,
1720619156.006159,,,,,,,,,,,,,,,,,,,,1720619155.991463184,-1.186824000,3.141592654,0.000000015,0.829037542,-0.000000022,-0.000000054,0.559192949,1.395152983,0.001110973,1.481517837
1720619156.009041,-0.047476000,0.000000000,0.000000000,-1.149687000,0.000000000,0.000000000,1.010724000,0.000000000,0.000000000,-0.027456000,0.000000000,0.000000000,0.232224000,0.000000000,0.000000000,0.022624000,0.000000000,0.000000000,1720619156.002463341,,,,,,,,,,,
1720619156.016347,-0.047476000,0.000000000,0.000000000,-1.149687000,0.000000000,0.000000000,1.011010000,0.000000000,0.000000000,-0.027456000,0.000000000,0.000000000,0.232416000,0.000000000,0.000000000,0.022080000,0.000000000,0.000000000,1720619156.009463310,,,,,,,,,,,
1720619156.021176,-0.047476000,0.000000000,0.000000000,-1.149687000,0.000000000,0.000000000,1.011010000,0.000000000,0.000000000,-0.027456000,0.000000000,0.000000000,0.232416000,0.000000000,0.000000000,0.022080000,0.000000000,0.000000000,1720619156.010463238,,,,,,,,,,,
1720619156.029582,-0.047476000,0.000000000,0.000000000,-1.149687000,0.000000000,0.000000000,1.011582000,0.000000000,0.000000000,-0.027456000,0.000000000,0.000000000,0.232416000,0.000000000,0.000000000,0.023936000,0.000000000,0.000000000,1720619156.022463322,,,,,,,,,,,
1720619156.031686,-0.047476000,0.000000000,0.000000000,-1.149687000,0.000000000,0.000000000,1.011582000,0.000000000,0.000000000,-0.027456000,0.000000000,0.000000000,0.232416000,0.000000000,0.000000000,0.023936000,0.000000000,0.000000000,1720619156.023463249,,,,,,,,,,,
1720619156.044480,-0.047476000,0.000000000,0.000000000,-1.146453000,0.000000000,0.000000000,1.011582000,0.000000000,0.000000000,-0.027456000,0.000000000,0.000000000,0.232000000,0.000000000,0.000000000,0.023488000,0.000000000,0.000000000,1720619156.037463188,,,,,,,,,,,
1720619156.051867,-0.047476000,0.000000000,0.000000000,-1.171786000,0.000000000,0.000000000,1.011010000,0.000000000,0.000000000,-0.027456000,0.000000000,0.000000000,0.232352000,0.000000000,0.000000000,0.022624000,0.000000000,0.000000000,1720619156.043463230,,,,,,,,,,,
1720619156.056435,,,,,,,,,,,,,,,,,,,,1720619156.043463230,-1.186824000,3.141592654,0.000000015,0.829037542,-0.000000022,-0.000000054,0.559192949,1.395152983,0.001110973,1.481517837
1720619156.062146,-0.047476000,0.000000000,0.000000000,-1.150765000,0.000000000,0.000000000,1.011582000,0.000000000,0.000000000,-0.027456000,0.000000000,0.000000000,0.232288000,0.000000000,0.000000000,0.021760000,0.000000000,0.000000000,1720619156.055463314,,,,,,,,,,,
1720619156.071666,-0.047476000,0.000000000,0.000000000,-1.149687000,0.000000000,0.000000000,1.011582000,0.000000000,0.000000000,-0.027392000,0.000000000,0.000000000,0.232608000,0.000000000,0.000000000,0.023424000,0.000000000,0.000000000,1720619156.064463139,,,,,,,,,,,
1720619156.081090,-0.047476000,0.000000000,0.000000000,-1.152382000,0.000000000,0.000000000,1.011582000,0.000000000,0.000000000,-0.027392000,0.000000000,0.000000000,0.231808000,0.000000000,0.000000000,0.023744000,0.000000000,0.000000000,1720619156.073463202,,,,,,,,,,,
1720619156.081608,-0.047476000,0.000000000,0.000000000,-1.152382000,0.000000000,0.000000000,1.011582000,0.000000000,0.000000000,-0.027392000,0.000000000,0.000000000,0.231808000,0.000000000,0.000000000,0.023744000,0.000000000,0.000000000,1720619156.074463367,,,,,,,,,,,
1720619156.082421,-0.047476000,0.000000000,0.000000000,-1.152382000,0.000000000,0.000000000,1.011582000,0.000000000,0.000000000,-0.027392000,0.000000000,0.000000000,0.231808000,0.000000000,0.000000000,0.023744000,0.000000000,0.000000000,1720619156.075463295,,,,,,,,,,,
1720619156.084471,-0.047476000,0.000000000,0.000000000,-1.152382000,0.000000000,0.000000000,1.011010000,0.000000000,0.000000000,-0.027456000,0.000000000,0.000000000,0.231936000,0.000000000,0.000000000,0.021888000,0.000000000,0.000000000,1720619156.077463150,,,,,,,,,,,
1720619156.088899,-0.047476000,0.000000000,0.000000000,-1.151304000,0.000000000,0.000000000,1.011582000,0.000000000,0.000000000,-0.027456000,0.000000000,0.000000000,0.232224000,0.000000000,0.000000000,0.023808000,0.000000000,0.000000000,1720619156.081463337,,,,,,,,,,,
1720619156.096474,-0.047476000,0.000000000,0.000000000,-1.183105000,0.000000000,0.000000000,1.011582000,0.000000000,0.000000000,-0.027456000,0.000000000,0.000000000,0.232000000,0.000000000,0.000000000,0.023360000,0.000000000,0.000000000,1720619156.089463234,,,,,,,,,,,
1720619156.100661,-0.047476000,0.000000000,0.000000000,-1.148070000,0.000000000,0.000000000,1.011582000,0.000000000,0.000000000,-0.027136000,0.000000000,0.000000000,0.231936000,0.000000000,0.000000000,0.022752000,0.000000000,0.000000000,1720619156.093463182,,,,,,,,,,,
1720619156.106403,,,,,,,,,,,,,,,,,,,,1720619156.093463182,-1.186824000,3.141592654,0.000000015,0.829037542,-0.000000022,-0.000000054,0.559192949,1.395152983,0.001110973,1.481517837
1720619156.108582,-0.047476000,0.000000000,0.000000000,-1.148070000,0.000000000,0.000000000,1.011582000,0.000000000,0.000000000,-0.027456000,0.000000000,0.000000000,0.232864000,0.000000000,0.000000000,0.023072000,0.000000000,0.000000000,1720619156.101463318,,,,,,,,,,,
1720619156.113491,-0.047476000,0.000000000,0.000000000,-1.148070000,0.000000000,0.000000000,1.011582000,0.000000000,0.000000000,-0.027456000,0.000000000,0.000000000,0.231936000,0.000000000,0.000000000,0.022080000,0.000000000,0.000000000,1720619156.106463194,,,,,,,,,,,
1720619156.121044,-0.047476000,0.000000000,0.000000000,-1.148609000,0.000000000,0.000000000,1.011582000,0.000000000,0.000000000,-0.027456000,0.000000000,0.000000000,0.232736000,0.000000000,0.000000000,0.021408000,0.000038380,0.009134350,1720619156.113463163,,,,,,,,,,,
1720619156.121499,-0.047476000,0.000000000,0.000000000,-1.148609000,0.000000000,0.000000000,1.011582000,0.000000000,0.000000000,-0.027456000,0.000000000,0.000000000,0.232736000,0.000000000,0.000000000,0.021408000,0.000038380,0.009134350,1720619156.114463329,,,,,,,,,,,
1720619156.125117,-0.047476000,0.000000000,0.000000000,-1.149687000,0.000000000,0.000000000,1.011582000,0.000000000,0.000000000,-0.027456000,0.000000000,0.000000000,0.232000000,0.000000000,0.000000000,0.023808000,0.000000000,0.009134350,1720619156.118463278,,,,,,,,,,,
1720619156.132702,-0.047476000,0.000000000,0.000000000,-1.149687000,0.000000000,0.000000000,1.011582000,0.000000000,0.000000000,-0.027456000,0.000000000,0.000000000,0.232800000,0.000000000,0.000000000,0.023008000,0.000000000,0.000000000,1720619156.125463247,,,,,,,,,,,
1720619156.134583,-0.047476000,0.000000000,0.000000000,-1.149687000,0.000000000,0.000000000,1.011582000,0.000000000,0.000000000,-0.027456000,0.000000000,0.000000000,0.232800000,0.000000000,0.000000000,0.023008000,0.000000000,0.000000000,1720619156.127463341,,,,,,,,,,,
1720619156.137698,-0.047476000,0.000000000,0.000000000,-1.143758000,0.000000000,0.000000000,1.011582000,0.000000000,0.000000000,-0.027456000,0.000000000,0.000000000,0.232608000,0.000000000,0.000000000,0.022336000,0.000000000,0.000000000,1720619156.130463362,,,,,,,,,,,
1720619156.150107,-0.047476000,0.000000000,0.000000000,-1.148070000,0.000000000,0.000000000,1.011582000,0.000000000,0.000000000,-0.027456000,0.000000000,0.000000000,0.232000000,0.000000000,0.000000000,0.023424000,0.000000000,0.000000000,1720619156.142463207,,,,,,,,,,,
1720619156.156503,-0.047476000,0.000000000,0.000000000,-1.148070000,0.000000000,0.000000000,1.011582000,0.000000000,0.000000000,-0.027456000,0.000000000,0.000000000,0.232096000,0.000000000,0.000000000,0.023296000,0.000000000,0.000000000,1720619156.149463177,,,,,,,,,,,
1720619156.157575,-0.047476000,0.000000000,0.000000000,-1.148070000,0.000000000,0.000000000,1.011582000,0.000000000,0.000000000,-0.027456000,0.000000000,0.000000000,0.232096000,0.000000000,0.000000000,0.023296000,0.000000000,0.000000000,1720619156.150463343,,,,,,,,,,,
1720619156.161413,-0.047476000,0.000000000,0.000000000,-1.120581000,0.000000000,0.000000000,1.011582000,0.000000000,0.000000000,-0.027456000,0.000000000,0.000000000,0.232352000,0.000000000,0.000000000,0.022080000,0.000000000,0.000000000,1720619156.154463291,,,,,,,,,,,
1720619156.166322,,,,,,,,,,,,,,,,,,,,1720619156.149463177,-1.186824000,3.141592654,0.000000015,0.829037542,-0.000000022,-0.000000054,0.559192949,1.395152983,0.001110973,1.481517837
1720619156.168505,-0.047476000,0.000000000,0.000000000,-1.146992000,0.000000000,0.000000000,1.011582000,0.000000000,0.000000000,-0.027456000,0.000000000,0.000000000,0.232288000,0.000000000,0.000000000,0.022560000,0.000000000,0.000000000,1720619156.161463261,,,,,,,,,,,
1720619156.170278,-0.047476000,0.000000000,0.000000000,-1.146992000,0.000000000,0.000000000,1.011582000,0.000000000,0.000000000,-0.027456000,0.000000000,0.000000000,0.232288000,0.000000000,0.000000000,0.022560000,0.000000000,0.000000000,1720619156.162463188,,,,,,,,,,,
1720619156.174661,-0.047476000,0.000000000,0.000000000,-1.148070000,0.000000000,0.000000000,1.011582000,0.000000000,0.000000000,-0.027456000,0.000000000,0.000000000,0.232416000,0.000000000,0.000000000,0.023552000,0.000000000,0.000000000,1720619156.167463303,,,,,,,,,,,
1720619156.181519,-0.047476000,0.000000000,0.000000000,-1.148609000,0.000000000,0.000000000,1.011582000,0.000000000,0.000000000,-0.027456000,0.000000000,0.000000000,0.232672000,0.000000000,0.000000000,0.023360000,0.000000000,0.000000000,1720619156.174463272,,,,,,,,,,,
1720619156.182646,-0.047476000,0.000000000,0.000000000,-1.148609000,0.000000000,0.000000000,1.011582000,0.000000000,0.000000000,-0.027456000,0.000000000,0.000000000,0.232672000,0.000000000,0.000000000,0.023360000,0.000000000,0.000000000,1720619156.175463200,,,,,,,,,,,
1720619156.193477,-0.047476000,0.000000000,0.000000000,-1.149687000,0.000000000,0.000000000,1.010724000,0.000000000,0.000000000,-0.027456000,0.000000000,0.000000000,0.232736000,0.000000000,0.000000000,0.022944000,0.000000000,0.000000000,1720619156.181463242,,,,,,,,,,,
1720619156.194489,-0.047476000,0.000000000,0.000000000,-1.149687000,0.000000000,0.000000000,1.010724000,0.000000000,0.000000000,-0.027456000,0.000000000,0.000000000,0.231744000,0.000000000,0.000000000,0.022624000,0.000000000,0.000000000,1720619156.187463284,,,,,,,,,,,
1720619156.196387,-0.047476000,0.000000000,0.000000000,-1.149687000,0.000000000,0.000000000,1.010724000,0.000000000,0.000000000,-0.027456000,0.000000000,0.000000000,0.232480000,0.000000000,0.000000000,0.023072000,0.000000000,0.000000000,1720619156.189463139,,,,,,,,,,,
1720619156.200732,-0.047476000,0.000000000,0.000000000,-1.149687000,0.000000000,0.000000000,1.010724000,0.000000000,0.000000000,-0.027456000,0.000000000,0.000000000,0.232416000,0.000000000,0.000000000,0.022336000,0.000000000,0.000000000,1720619156.193463326,,,,,,,,,,,
1720619156.208501,-0.047476000,0.000000000,0.000000000,-1.141063000,0.000000000,0.000000000,1.011010000,0.000000000,0.000000000,-0.027456000,0.000000000,0.000000000,0.231872000,0.000000000,0.000000000,0.022752000,0.000000000,0.000000000,1720619156.201463223,,,,,,,,,,,
1720619156.212326,-0.047476000,0.000000000,0.000000000,-1.156694000,0.000000000,0.000000000,1.011010000,0.000000000,0.000000000,-0.027456000,0.000000000,0.000000000,0.232288000,0.000000000,0.000000000,0.022944000,0.000000000,0.000000000,1720619156.205463171,,,,,,,,,,,
1720619156.216393,,,,,,,,,,,,,,,,,,,,1720619156.201463223,-1.186824000,3.141592654,0.000000015,0.829037542,-0.000000022,-0.000000054,0.559192949,1.395152983,0.001110973,1.481517837
1720619156.221290,-0.047476000,0.000000000,0.000000000,-1.180410000,0.000000000,0.000000000,1.011010000,0.000000000,0.000000000,-0.027456000,0.000000000,0.000000000,0.232864000,0.000000000,0.000000000,0.023200000,0.000000000,0.000000000,1720619156.213463306,,,,,,,,,,,
1720619156.224429,-0.047476000,0.000000000,0.000000000,-1.146453000,0.000000000,0.000000000,1.011010000,0.000000000,0.000000000,-0.027456000,0.000000000,0.000000000,0.231488000,0.000000000,0.000000000,0.022432000,0.000000000,0.000000000,1720619156.217463255,,,,,,,,,,,
1720619156.232953,-0.047476000,0.000000000,0.000000000,-1.148070000,0.000000000,0.000000000,1.011010000,0.000000000,0.000000000,-0.027456000,0.000000000,0.000000000,0.232000000,0.000000000,0.000000000,0.022432000,0.000000000,0.000000000,1720619156.225463152,,,,,,,,,,,
1720619156.237882,-0.047476000,0.000000000,0.000000000,-1.148070000,0.000000000,0.000000000,1.011010000,0.000000000,0.000000000,-0.027456000,0.000000000,0.000000000,0.232416000,0.000000000,0.000000000,0.023072000,0.000000000,0.000000000,1720619156.230463266,,,,,,,,,,,
1720619156.244909,-0.047476000,0.000000000,0.000000000,-1.148070000,0.000000000,0.000000000,1.011010000,0.000000000,0.000000000,-0.027456000,0.000000000,0.000000000,0.231936000,0.000000000,0.000000000,0.024352000,0.000000000,0.009134350,1720619156.237463236,,,,,,,,,,,
1720619156.245783,-0.047476000,0.000000000,0.000000000,-1.148070000,0.000000000,0.000000000,1.011010000,0.000000000,0.000000000,-0.027456000,0.000000000,0.000000000,0.231936000,0.000000000,0.000000000,0.024352000,0.000000000,0.009134350,1720619156.238463163,,,,,,,,,,,
1720619156.249683,-0.047476000,0.000000000,0.000000000,-1.148070000,0.000000000,0.000000000,1.011010000,0.000000000,0.000000000,-0.027456000,0.000000000,0.000000000,0.232000000,0.000000000,0.000000000,0.020832000,0.000038380,0.009134350,1720619156.242463350,,,,,,,,,,,
1720619156.256616,-0.047476000,0.000000000,0.000000000,-1.152382000,0.000000000,0.000000000,1.011010000,0.000000000,0.000000000,-0.027456000,0.000000000,0.000000000,0.232096000,0.000000000,0.000000000,0.020480000,0.000038380,0.009134350,1720619156.249463320,,,,,,,,,,,
1720619156.257752,-0.047476000,0.000000000,0.000000000,-1.152382000,0.000000000,0.000000000,1.011010000,0.000000000,0.000000000,-0.027456000,0.000000000,0.000000000,0.232096000,0.000000000,0.000000000,0.020480000,0.000038380,0.009134350,1720619156.250463247,,,,,,,,,,,
1720619156.261862,-0.047476000,0.000000000,0.000000000,-1.152382000,0.000000000,0.000000000,1.011010000,0.000000000,0.000000000,-0.027456000,0.000000000,0.000000000,0.232416000,0.000000000,0.000000000,0.025408000,0.000000000,0.009134350,1720619156.254463196,,,,,,,,,,,
1720619156.266459,,,,,,,,,,,,,,,,,,,,1720619156.254463196,-1.186824000,3.141592654,0.000000015,0.829037542,-0.000000022,-0.000000054,0.559192949,1.395152983,0.001110973,1.481517837
1720619156.268752,-0.047476000,0.000000000,0.000000000,-1.152382000,0.000000000,0.000000000,1.011010000,0.000000000,0.000000000,-0.027456000,0.000000000,0.000000000,0.232352000,0.000000000,0.000000000,0.025280000,0.000000000,0.009134350,1720619156.261463165,,,,,,,,,,,
1720619156.270328,-0.047476000,0.000000000,0.000000000,-1.152382000,0.000000000,0.000000000,1.011010000,0.000000000,0.000000000,-0.027456000,0.000000000,0.000000000,0.232352000,0.000000000,0.000000000,0.025280000,0.000000000,0.009134350,1720619156.262463331,,,,,,,,,,,
1720619156.274009,-0.048620000,0.000000000,0.000000000,-1.146453000,0.000000000,0.000000000,1.011010000,0.000000000,0.000000000,-0.027456000,0.000000000,0.000000000,0.232096000,0.000000000,0.000000000,0.020704000,0.000038380,0.009134350,1720619156.266463280,,,,,,,,,,,
1720619156.281228,-0.048620000,0.000000000,0.000000000,-1.148609000,0.000000000,0.000000000,1.011010000,0.000000000,0.000000000,-0.027392000,0.000000000,0.000000000,0.231616000,0.000000000,0.000000000,0.020960000,0.000038380,0.009134350,1720619156.273463249,,,,,,,,,,,
1720619156.282311,-0.048620000,0.000000000,0.000000000,-1.148609000,0.000000000,0.000000000,1.011010000,0.000000000,0.000000000,-0.027392000,0.000000000,0.000000000,0.231616000,0.000000000,0.000000000,0.020960000,0.000038380,0.009134350,1720619156.274463177,,,,,,,,,,,
1720619156.285537,-0.048048000,0.000000000,0.000000000,-1.148070000,0.000000000,0.000000000,1.011010000,0.000000000,0.000000000,-0.027392000,0.000000000,0.000000000,0.232352000,0.000000000,0.000000000,0.024416000,0.000000000,0.009134350,1720619156.278463364,,,,,,,,,,,
1720619156.293969,-0.047476000,0.000000000,0.000000000,-1.144297000,0.000000000,0.000000000,1.011010000,0.000000000,0.000000000,-0.027392000,0.000000000,0.000000000,0.233216000,0.000000000,0.000000000,0.024416000,0.000000000,0.009134350,1720619156.286463261,,,,,,,,,,,
1720619156.297853,-0.049192000,0.000000000,0.000000000,-1.145375000,0.000000000,0.000000000,1.011010000,0.000000000,0.000000000,-0.027392000,0.000000000,0.000000000,0.232224000,0.000000000,0.000000000,0.021024000,0.000038380,0.009134350,1720619156.290463209,,,,,,,,,,,
1720619156.305290,-0.048620000,0.000000000,0.000000000,-1.144297000,0.000000000,0.000000000,1.011010000,0.000000000,0.000000000,-0.027392000,0.000000000,0.000000000,0.232672000,0.000000000,0.000000000,0.021696000,0.000000000,0.000000000,1720619156.297463179,,,,,,,,,,,
1720619156.306071,-0.048620000,0.000000000,0.000000000,-1.144297000,0.000000000,0.000000000,1.011010000,0.000000000,0.000000000,-0.027392000,0.000000000,0.000000000,0.232672000,0.000000000,0.000000000,0.021696000,0.000000000,0.000000000,1720619156.298463345,,,,,,,,,,,
1720619156.310369,-0.048620000,0.000000000,0.000000000,-1.148070000,0.000000000,0.000000000,1.011010000,0.000000000,0.000000000,-0.027456000,0.000000000,0.000000000,0.232416000,0.000000000,0.000000000,0.023296000,0.000000000,0.000000000,1720619156.302463293,,,,,,,,,,,
1720619156.316957,-0.048620000,0.000000000,0.000000000,-1.148609000,0.000000000,0.000000000,1.011010000,0.000000000,0.000000000,-0.027456000,0.000000000,0.000000000,0.232608000,0.000000000,0.000000000,0.023552000,0.000000000,0.000000000,1720619156.309463263,,,,,,,,,,,
1720619156.317717,-0.048620000,0.000000000,0.000000000,-1.148609000,0.000000000,0.000000000,1.011010000,0.000000000,0.000000000,-0.027456000,0.000000000,0.000000000,0.232608000,0.000000000,0.000000000,0.023552000,0.000000000,0.000000000,1720619156.310463190,,,,,,,,,,,
1720619156.321903,-0.048620000,0.000000000,0.000000000,-1.148609000,0.000000000,0.000000000,1.011010000,0.000000000,0.000000000,-0.027456000,0.000000000,0.000000000,0.232736000,0.000000000,0.000000000,0.021824000,0.000000000,0.000000000,1720619156.314463139,,,,,,,,,,,
1720619156.326428,,,,,,,,,,,,,,,,,,,,1720619156.309463263,-1.186824000,3.141592654,0.000000015,0.829037542,-0.000000022,-0.000000054,0.559192949,1.395152983,0.001110973,1.481517837
1720619156.328974,-0.048620000,0.000000000,0.000000000,-1.148609000,0.000000000,0.000000000,1.011010000,0.000000000,0.000000000,-0.027456000,0.000000000,0.000000000,0.232736000,0.000000000,0.000000000,0.021504000,0.000038380,0.009134350,1720619156.321463346,,,,,,,,,,,
1720619156.330503,-0.048620000,0.000000000,0.000000000,-1.148609000,0.000000000,0.000000000,1.011010000,0.000000000,0.000000000,-0.027456000,0.000000000,0.000000000,0.232736000,0.000000000,0.000000000,0.021504000,0.000038380,0.009134350,1720619156.322463274,,,,,,,,,,,
1720619156.340451,-0.048620000,0.000000000,0.000000000,-1.148609000,0.000000000,0.000000000,1.011010000,0.000000000,0.000000000,-0.027456000,0.000000000,0.000000000,0.232224000,0.000000000,0.000000000,0.023424000,0.000000000,0.000000000,1720619156.332463264,,,,,,,,,,,
1720619156.340997,-0.048620000,0.000000000,0.000000000,-1.148609000,0.000000000,0.000000000,1.011010000,0.000000000,0.000000000,-0.027456000,0.000000000,0.000000000,0.232224000,0.000000000,0.000000000,0.023424000,0.000000000,0.000000000,1720619156.333463192,,,,,,,,,,,
1720619156.342244,-0.048620000,0.000000000,0.000000000,-1.148609000,0.000000000,0.000000000,1.011010000,0.000000000,0.000000000,-0.027456000,0.000000000,0.000000000,0.232224000,0.000000000,0.000000000,0.023424000,0.000000000,0.000000000,1720619156.334463358,,,,,,,,,,,
1720619156.343789,-0.048620000,0.000000000,0.000000000,-1.148609000,0.000000000,0.000000000,1.011010000,0.000000000,0.000000000,-0.027456000,0.000000000,0.000000000,0.232864000,0.000000000,0.000000000,0.021888000,0.000000000,0.000000000,1720619156.336463213,,,,,,,,,,,
1720619156.353443,-0.048620000,0.000000000,0.000000000,-1.146453000,0.000000000,0.000000000,1.011010000,0.000000000,0.000000000,-0.027456000,0.000000000,0.000000000,0.232352000,0.000000000,0.000000000,0.021888000,0.000000000,0.000000000,1720619156.345463276,,,,,,,,,,,
1720619156.353849,-0.048620000,0.000000000,0.000000000,-1.146453000,0.000000000,0.000000000,1.011010000,0.000000000,0.000000000,-0.027456000,0.000000000,0.000000000,0.232352000,0.000000000,0.000000000,0.021888000,0.000000000,0.000000000,1720619156.346463203,,,,,,,,,,,
1720619156.355834,-0.048620000,0.000000000,0.000000000,-1.148609000,0.000000000,0.000000000,1.011010000,0.000000000,0.000000000,-0.027456000,0.000000000,0.000000000,0.232096000,0.000000000,0.000000000,0.023200000,0.000000000,0.000000000,1720619156.348463297,,,,,,,,,,,
1720619156.365288,-0.048620000,0.000000000,0.000000000,-1.149687000,0.000000000,0.000000000,1.011010000,0.000000000,0.000000000,-0.027456000,0.000000000,0.000000000,0.232416000,0.000000000,0.000000000,0.023136000,0.000000000,0.000000000,1720619156.357463360,,,,,,,,,,,
1720619156.366077,-0.048620000,0.000000000,0.000000000,-1.149687000,0.000000000,0.000000000,1.011010000,0.000000000,0.000000000,-0.027456000,0.000000000,0.000000000,0.232416000,0.000000000,0.000000000,0.023136000,0.000000000,0.000000000,1720619156.358463287,,,,,,,,,,,
1720619156.368038,-0.048620000,0.000000000,0.000000000,-1.149687000,0.000000000,0.000000000,1.011010000,0.000000000,0.000000000,-0.027456000,0.000000000,0.000000000,0.232352000,0.000000000,0.000000000,0.022144000,0.000000000,0.000000000,1720619156.360463142,,,,,,,,,,,
1720619156.376390,,,,,,,,,,,,,,,,,,,,1720619156.360463142,-1.186824000,3.141592654,0.000000015,0.829037542,-0.000000022,-0.000000054,0.559192949,1.395152983,0.001110973,1.481517837
1720619156.377147,-0.048620000,0.000000000,0.000000000,-1.153460000,0.000000000,0.000000000,1.011010000,0.000000000,0.000000000,-0.027456000,0.000000000,0.000000000,0.232608000,0.000000000,0.000000000,0.022336000,0.000000000,0.000000000,1720619156.369463205,,,,,,,,,,,
1720619156.377861,-0.048620000,0.000000000,0.000000000,-1.153460000,0.000000000,0.000000000,1.011010000,0.000000000,0.000000000,-0.027456000,0.000000000,0.000000000,0.232608000,0.000000000,0.000000000,0.022336000,0.000000000,0.000000000,1720619156.370463133,,,,,,,,,,,
1720619156.380252,-0.048620000,0.000000000,0.000000000,-1.179871000,0.000000000,0.000000000,1.011010000,0.000000000,0.000000000,-0.027136000,0.000000000,0.000000000,0.232544000,0.000000000,0.000000000,0.022944000,0.000000000,0.000000000,1720619156.372463226,,,,,,,,,,,
1720619156.389143,-0.048620000,0.000000000,0.000000000,-1.149687000,0.000000000,0.000000000,1.011010000,0.000000000,0.000000000,-0.027392000,0.000000000,0.000000000,0.232096000,0.000000000,0.000000000,0.022880000,0.000000000,0.000000000,1720619156.381463289,,,,,,,,,,,
1720619156.390407,-0.048620000,0.000000000,0.000000000,-1.149687000,0.000000000,0.000000000,1.011010000,0.000000000,0.000000000,-0.027392000,0.000000000,0.000000000,0.232096000,0.000000000,0.000000000,0.022880000,0.000000000,0.000000000,1720619156.382463217,,,,,,,,,,,
1720619156.392267,-0.048620000,0.000000000,0.000000000,-1.149687000,0.000000000,0.000000000,1.011010000,0.000000000,0.000000000,-0.027392000,0.000000000,0.000000000,0.232480000,0.000000000,0.000000000,0.022496000,0.000000000,0.000000000,1720619156.384463310,,,,,,,,,,,
1720619156.401412,-0.048620000,0.000000000,0.000000000,-1.148070000,0.000000000,0.000000000,1.011010000,0.000000000,0.000000000,-0.027392000,0.000000000,0.000000000,0.232960000,0.000000000,0.000000000,0.023200000,0.000000000,0.000000000,1720619156.393463135,,,,,,,,,,,
1720619156.402528,-0.048620000,0.000000000,0.000000000,-1.148070000,0.000000000,0.000000000,1.011010000,0.000000000,0.000000000,-0.027392000,0.000000000,0.000000000,0.232960000,0.000000000,0.000000000,0.023200000,0.000000000,0.000000000,1720619156.394463301,,,,,,,,,,,
1720619156.403934,-0.048620000,0.000000000,0.000000000,-1.148070000,0.000000000,0.000000000,1.011010000,0.000000000,0.000000000,-0.027392000,0.000000000,0.000000000,0.232224000,0.000000000,0.000000000,0.022816000,0.000000000,0.000000000,1720619156.396463156,,,,,,,,,,,
1720619156.413418,-0.048620000,0.000000000,0.000000000,-1.178793000,0.000000000,0.000000000,1.008436000,0.000000000,0.000000000,-0.027392000,0.000000000,0.000000000,0.231872000,0.000000000,0.000000000,0.022624000,0.000000000,0.000000000,1720619156.405463219,,,,,,,,,,,
1720619156.413950,-0.048620000,0.000000000,0.000000000,-1.178793000,0.000000000,0.000000000,1.008436000,0.000000000,0.000000000,-0.027392000,0.000000000,0.000000000,0.231872000,0.000000000,0.000000000,0.022624000,0.000000000,0.000000000,1720619156.406463146,,,,,,,,,,,
1720619156.415761,-0.048620000,0.000000000,0.000000000,-1.148609000,0.000000000,0.000000000,1.011010000,0.000000000,0.000000000,-0.027392000,0.000000000,0.000000000,0.232736000,0.000000000,0.000000000,0.022688000,0.000000000,0.000000000,1720619156.408463240,,,,,,,,,,,
1720619156.425460,-0.048620000,0.000000000,0.000000000,-1.149687000,0.000000000,0.000000000,1.011010000,0.000000000,0.000000000,-0.027392000,0.000000000,0.000000000,0.232288000,0.000000000,0.000000000,0.021888000,0.000038380,0.009134350,1720619156.417463303,,,,,,,,,,,
1720619156.425956,-0.048620000,0.000000000,0.000000000,-1.149687000,0.000000000,0.000000000,1.011010000,0.000000000,0.000000000,-0.027392000,0.000000000,0.000000000,0.232288000,0.000000000,0.000000000,0.021888000,0.000038380,0.009134350,1720619156.418463230,,,,,,,,,,,
1720619156.426148,,,,,,,,,,,,,,,,,,,,1720619156.417463303,-1.186823998,3.141490200,0.000015924,0.829037542,0.000010709,0.000094939,0.559192948,1.395152983,0.001108959,1.481517794
1720619156.429002,-0.048620000,0.000000000,0.000000000,-1.150765000,0.000000000,0.000000000,1.011010000,0.000000000,0.000000000,-0.027392000,0.000000000,0.000000000,0.232608000,0.000000000,0.000000000,0.023680000,0.000000000,0.009134350,1720619156.419463158,,,,,,,,,,,
1720619156.437204,-0.048620000,0.000000000,0.000000000,-1.157772000,0.000000000,0.000000000,1.011010000,0.000000000,0.000000000,-0.027456000,0.000000000,0.000000000,0.232224000,0.000000000,0.000000000,0.023872000,0.000000000,0.009134350,1720619156.429463148,,,,,,,,,,,
1720619156.438117,-0.048620000,0.000000000,0.000000000,-1.157772000,0.000000000,0.000000000,1.011010000,0.000000000,0.000000000,-0.027456000,0.000000000,0.000000000,0.232224000,0.000000000,0.000000000,0.023872000,0.000000000,0.009134350,1720619156.430463314,,,,,,,,,,,
1720619156.440546,-0.048620000,0.000000000,0.000000000,-1.153460000,0.000000000,0.000000000,1.011010000,0.000000000,0.000000000,-0.027456000,0.000000000,0.000000000,0.232224000,0.000000000,0.000000000,0.021408000,0.000038380,0.009134350,1720619156.432463169,,,,,,,,,,,
1720619156.450075,-0.048620000,0.000000000,0.000000000,-1.152382000,0.000000000,0.000000000,1.011010000,0.000000000,0.000000000,-0.027456000,0.000000000,0.000000000,0.232960000,0.000000000,0.000000000,0.021504000,0.000038380,0.009134350,1720619156.442463160,,,,,,,,,,,
1720619156.452497,-0.048620000,0.000000000,0.000000000,-1.152382000,0.000000000,0.000000000,1.011010000,0.000000000,0.000000000,-0.027456000,0.000000000,0.000000000,0.232224000,0.000000000,0.000000000,0.024000000,0.000000000,0.009134350,1720619156.444463253,,,,,,,,,,,
1720619156.453283,-0.048620000,0.000000000,0.000000000,-1.152382000,0.000000000,0.000000000,1.011010000,0.000000000,0.000000000,-0.027456000,0.000000000,0.000000000,0.232224000,0.000000000,0.000000000,0.024000000,0.000000000,0.009134350,1720619156.445463181,,,,,,,,,,,
1720619156.456955,-0.048620000,0.000000000,0.000000000,-1.151304000,0.000000000,0.000000000,1.011010000,0.000000000,0.000000000,-0.027456000,0.000000000,0.000000000,0.231936000,0.000000000,0.000000000,0.021824000,0.000038380,0.009134350,1720619156.449463367,,,,,,,,,,,
1720619156.464177,-0.048620000,0.000000000,0.000000000,-1.150765000,0.000000000,0.000000000,1.011010000,0.000000000,0.000000000,-0.027456000,0.000000000,0.000000000,0.232416000,0.000000000,0.000000000,0.022208000,0.000000000,0.000000000,1720619156.456463337,,,,,,,,,,,
1720619156.465255,-0.048620000,0.000000000,0.000000000,-1.150765000,0.000000000,0.000000000,1.011010000,0.000000000,0.000000000,-0.027456000,0.000000000,0.000000000,0.232416000,0.000000000,0.000000000,0.022208000,0.000000000,0.000000000,1720619156.457463264,,,,,,,,,,,
1720619156.468928,-0.048620000,0.000000000,0.000000000,-1.150765000,0.000000000,0.000000000,1.011010000,0.000000000,0.000000000,-0.027456000,0.000000000,0.000000000,0.232096000,0.000000000,0.000000000,0.022816000,0.000000000,0.000000000,1720619156.461463213,,,,,,,,,,,
1720619156.476136,-0.048620000,0.000000000,0.000000000,-1.153460000,0.000000000,0.000000000,1.011010000,0.000000000,0.000000000,-0.027456000,0.000000000,0.000000000,0.232480000,0.000000000,0.000000000,0.023008000,0.000000000,0.000000000,1720619156.468463182,,,,,,,,,,,
1720619156.478045,-0.048620000,0.000000000,0.000000000,-1.153460000,0.000000000,0.000000000,1.011010000,0.000000000,0.000000000,-0.027456000,0.000000000,0.000000000,0.232480000,0.000000000,0.000000000,0.023008000,0.000000000,0.000000000,1720619156.470463276,,,,,,,,,,,
1720619156.486388,,,,,,,,,,,,,,,,,,,,1720619156.468463182,-1.186824000,3.141592654,0.000000015,0.829037542,-0.000000022,-0.000000054,0.559192949,1.395152983,0.001110973,1.481517837
1720619156.488849,-0.048620000,0.000000000,0.000000000,-1.150765000,0.000000000,0.000000000,1.011010000,0.000000000,0.000000000,-0.027456000,0.000000000,0.000000000,0.232224000,0.000000000,0.000000000,0.023296000,0.000000000,0.009134350,1720619156.475463152,,,,,,,,,,,
1720619156.493757,-0.048620000,0.000000000,0.000000000,-1.148070000,0.000000000,0.000000000,1.011010000,0.000000000,0.000000000,-0.027520000,0.000000000,0.000000000,0.232864000,0.000000000,0.000000000,0.023200000,0.000000000,0.009134350,1720619156.485463142,,,,,,,,,,,
1720619156.500138,-0.048620000,0.000000000,0.000000000,-1.148609000,0.000000000,0.000000000,1.011010000,0.000000000,0.000000000,-0.027520000,0.000000000,0.000000000,0.232224000,0.000000000,0.000000000,0.022560000,0.000000000,0.000000000,1720619156.492463350,,,,,,,,,,,
1720619156.501212,-0.048620000,0.000000000,0.000000000,-1.148609000,0.000000000,0.000000000,1.011010000,0.000000000,0.000000000,-0.027520000,0.000000000,0.000000000,0.232224000,0.000000000,0.000000000,0.022560000,0.000000000,0.000000000,1720619156.493463278,,,,,,,,,,,
1720619156.505955,-0.048620000,0.000000000,0.000000000,-1.149687000,0.000000000,0.000000000,1.011010000,0.000000000,0.000000000,-0.027520000,0.000000000,0.000000000,0.231808000,0.000000000,0.000000000,0.022688000,0.000000000,0.000000000,1720619156.498463154,,,,,,,,,,,
1720619156.512570,-0.048620000,0.000000000,0.000000000,-1.153460000,0.000000000,0.000000000,1.011010000,0.000000000,0.000000000,-0.027520000,0.000000000,0.000000000,0.232352000,0.000000000,0.000000000,0.022272000,0.000000000,0.000000000,1720619156.504463196,,,,,,,,,,,
1720619156.513214,-0.048620000,0.000000000,0.000000000,-1.153460000,0.000000000,0.000000000,1.011010000,0.000000000,0.000000000,-0.027520000,0.000000000,0.000000000,0.232352000,0.000000000,0.000000000,0.022272000,0.000000000,0.000000000,1720619156.505463362,,,,,,,,,,,
1720619156.514387,-0.048620000,0.000000000,0.000000000,-1.153460000,0.000000000,0.000000000,1.011010000,0.000000000,0.000000000,-0.027520000,0.000000000,0.000000000,0.232352000,0.000000000,0.000000000,0.022272000,0.000000000,0.000000000,1720619156.506463289,,,,,,,,,,,
1720619156.519893,-0.048620000,0.000000000,0.000000000,-1.153460000,0.000000000,0.000000000,1.011010000,0.000000000,0.000000000,-0.027520000,0.000000000,0.000000000,0.232480000,0.000000000,0.000000000,0.022816000,0.000000000,0.000000000,1720619156.512463331,,,,,,,,,,,
1720619156.526279,-0.048620000,0.000000000,0.000000000,-1.153460000,0.000000000,0.000000000,1.011010000,0.000000000,0.000000000,-0.027520000,0.000000000,0.000000000,0.232416000,0.000000000,0.000000000,0.022624000,0.000000000,0.000000000,1720619156.518463135,,,,,,,,,,,
1720619156.528532,-0.048620000,0.000000000,0.000000000,-1.152382000,0.000000000,0.000000000,1.011010000,0.000000000,0.000000000,-0.027520000,0.000000000,0.000000000,0.232096000,0.000000000,0.000000000,0.022752000,0.000000000,0.000000000,1720619156.520463228,,,,,,,,,,,
1720619156.531713,-0.048620000,0.000000000,0.000000000,-1.151304000,0.000000000,0.000000000,1.011010000,0.000000000,0.000000000,-0.027520000,0.000000000,0.000000000,0.231808000,0.000000000,0.000000000,0.023008000,0.000000000,0.000000000,1720619156.523463249,,,,,,,,,,,
1720619156.536364,,,,,,,,,,,,,,,,,,,,1720619156.518463135,-1.186824000,3.141592654,0.000000015,0.829037542,-0.000000022,-0.000000054,0.559192949,1.395152983,0.001110973,1.481517837
1720619156.540188,-0.048620000,0.000000000,0.000000000,-1.121659000,0.000000000,0.000000000,1.011010000,0.000000000,0.000000000,-0.027456000,0.000000000,0.000000000,0.231872000,0.000000000,0.000000000,0.022944000,0.000000000,0.000000000,1720619156.532463312,,,,,,,,,,,
1720619156.544023,-0.048620000,0.000000000,0.000000000,-1.150765000,0.000000000,0.000000000,1.011010000,0.000000000,0.000000000,-0.027456000,0.000000000,0.000000000,0.233216000,0.000000000,0.000000000,0.022496000,0.000000000,0.000000000,1720619156.536463261,,,,,,,,,,,
1720619156.552934,-0.048620000,0.000000000,0.000000000,-1.155077000,0.000000000,0.000000000,1.011010000,0.000000000,0.000000000,-0.027456000,0.000000000,0.000000000,0.232352000,0.000000000,0.000000000,0.022496000,0.000000000,0.000000000,1720619156.544463158,,,,,,,,,,,
1720619156.558474,-0.048620000,0.000000000,0.000000000,-1.151304000,0.000000000,0.000000000,1.011010000,0.000000000,0.000000000,-0.027456000,0.000000000,0.000000000,0.232224000,0.000000000,0.000000000,0.022944000,0.000000000,0.000000000,1720619156.548463345,,,,,,,,,,,
1720619156.564722,-0.048620000,0.000000000,0.000000000,-1.151304000,0.000000000,0.000000000,1.011010000,0.000000000,0.000000000,-0.027456000,0.000000000,0.000000000,0.231808000,0.000000000,0.000000000,0.022816000,0.000000000,0.000000000,1720619156.556463242,,,,,,,,,,,
1720619156.568368,-0.048048000,0.000000000,0.000000000,-1.157772000,0.000000000,0.000000000,1.011010000,0.000000000,0.000000000,-0.027456000,0.000000000,0.000000000,0.231808000,0.000000000,0.000000000,0.022624000,0.000000000,0.000000000,1720619156.560463190,,,,,,,,,,,
1720619156.581226,-0.048048000,0.000000000,0.000000000,-1.150765000,0.000000000,0.000000000,1.011010000,0.000000000,0.000000000,-0.027456000,0.000000000,0.000000000,0.233152000,0.000000000,0.000000000,0.024064000,0.000000000,0.009134350,1720619156.573463202,,,,,,,,,,,
1720619156.586406,,,,,,,,,,,,,,,,,,,,1720619156.573463202,-1.186824000,3.141592654,0.000000015,0.829037542,-0.000000022,-0.000000054,0.559192949,1.395152983,0.001110973,1.481517837
1720619156.587706,-0.048048000,0.000000000,0.000000000,-1.125971000,0.000000000,0.000000000,1.011010000,0.000000000,0.000000000,-0.027456000,0.000000000,0.000000000,0.231872000,0.000000000,0.000000000,0.023296000,0.000000000,0.000000000,1720619156.579463243,,,,,,,,,,,
1720619156.588191,-0.048048000,0.000000000,0.000000000,-1.125971000,0.000000000,0.000000000,1.011010000,0.000000000,0.000000000,-0.027456000,0.000000000,0.000000000,0.231872000,0.000000000,0.000000000,0.023296000,0.000000000,0.000000000,1720619156.580463171,,,,,,,,,,,
1720619156.589295,-0.048048000,0.000000000,0.000000000,-1.125971000,0.000000000,0.000000000,1.011010000,0.000000000,0.000000000,-0.027456000,0.000000000,0.000000000,0.231872000,0.000000000,0.000000000,0.023296000,0.000000000,0.000000000,1720619156.581463337,,,,,,,,,,,
1720619156.593225,-0.048048000,0.000000000,0.000000000,-1.148070000,0.000000000,0.000000000,1.011010000,0.000000000,0.000000000,-0.027456000,0.000000000,0.000000000,0.232160000,0.000000000,0.000000000,0.022144000,0.000000000,0.000000000,1720619156.585463285,,,,,,,,,,,
1720619156.600615,-0.048048000,0.000000000,0.000000000,-1.138368000,0.000000000,0.000000000,1.011010000,0.000000000,0.000000000,-0.027456000,0.000000000,0.000000000,0.232416000,0.000000000,0.000000000,0.022496000,0.000000000,0.000000000,1720619156.592463255,,,,,,,,,,,
1720619156.601669,-0.048048000,0.000000000,0.000000000,-1.138368000,0.000000000,0.000000000,1.011010000,0.000000000,0.000000000,-0.027456000,0.000000000,0.000000000,0.232416000,0.000000000,0.000000000,0.022496000,0.000000000,0.000000000,1720619156.593463182,,,,,,,,,,,
1720619156.605197,-0.048048000,0.000000000,0.000000000,-1.153999000,0.000000000,0.000000000,1.011010000,0.000000000,0.000000000,-0.027456000,0.000000000,0.000000000,0.231872000,0.000000000,0.000000000,0.022944000,0.000000000,0.000000000,1720619156.597463131,,,,,,,,,,,
1720619156.612909,-0.048048000,0.000000000,0.000000000,-1.156694000,0.000000000,0.000000000,1.011010000,0.000000000,0.000000000,-0.027456000,0.000000000,0.000000000,0.231872000,0.000000000,0.000000000,0.023744000,0.000000000,0.009134350,1720619156.604463339,,,,,,,,,,,
1720619156.613559,-0.048048000,0.000000000,0.000000000,-1.156694000,0.000000000,0.000000000,1.011010000,0.000000000,0.000000000,-0.027456000,0.000000000,0.000000000,0.231872000,0.000000000,0.000000000,0.023744000,0.000000000,0.009134350,1720619156.605463266,,,,,,,,,,,
1720619156.620319,-0.048048000,0.000000000,0.000000000,-1.155077000,0.000000000,0.000000000,1.011010000,0.000000000,0.000000000,-0.027520000,0.000000000,0.000000000,0.232864000,0.000000000,0.000000000,0.024416000,0.000000000,0.009134350,1720619156.612463236,,,,,,,,,,,
1720619156.626548,-0.048048000,0.000000000,0.000000000,-1.153999000,0.000000000,0.000000000,1.011010000,0.000000000,0.000000000,-0.027456000,0.000000000,0.000000000,0.232096000,0.000000000,0.000000000,0.021152000,0.000038380,0.009134350,1720619156.618463278,,,,,,,,,,,
1720619156.628656,-0.048048000,0.000000000,0.000000000,-1.153460000,0.000000000,0.000000000,1.011010000,0.000000000,0.000000000,-0.027456000,0.000000000,0.000000000,0.232352000,0.000000000,0.000000000,0.024128000,0.000000000,0.009134350,1720619156.620463133,,,,,,,,,,,
1720619156.632492,-0.048048000,0.000000000,0.000000000,-1.151304000,0.000000000,0.000000000,1.011010000,0.000000000,0.000000000,-0.027456000,0.000000000,0.000000000,0.232480000,0.000000000,0.000000000,0.021632000,0.000038380,0.009134350,1720619156.624463320,,,,,,,,,,,
1720619156.636382,,,,,,,,,,,,,,,,,,,,1720619156.624463320,-1.186823998,3.141490200,0.000015924,0.829037542,0.000010709,0.000094939,0.559192948,1.395152983,0.001108959,1.481517794
1720619156.640650,-0.048048000,0.000000000,0.000000000,-1.149687000,0.000000000,0.000000000,1.012154000,0.000000000,0.000000000,-0.027456000,0.000000000,0.000000000,0.232480000,0.000000000,0.000000000,0.021568000,0.000038380,0.009134350,1720619156.632463217,,,,,,,,,,,
1720619156.644384,-0.048048000,0.000000000,0.000000000,-1.148609000,0.000000000,0.000000000,1.012154000,0.000000000,0.000000000,-0.027456000,0.000000000,0.000000000,0.231872000,0.000000000,0.000000000,0.023488000,0.000000000,0.009134350,1720619156.636463165,,,,,,,,,,,
1720619156.653115,-0.048048000,0.000000000,0.000000000,-1.145375000,0.000000000,0.000000000,1.012154000,0.000000000,0.000000000,-0.027456000,0.000000000,0.000000000,0.232224000,0.000000000,0.000000000,0.024352000,0.000000000,0.009134350,1720619156.644463301,,,,,,,,,,,
1720619156.658048,-0.048048000,0.000000000,0.000000000,-1.145375000,0.000000000,0.000000000,1.011582000,0.000000000,0.000000000,-0.027456000,0.000000000,0.000000000,0.232800000,0.000000000,0.000000000,0.021280000,0.000038380,0.009134350,1720619156.649463177,,,,,,,,,,,
1720619156.664665,-0.048048000,0.000000000,0.000000000,-1.145375000,0.000000000,0.000000000,1.011582000,0.000000000,0.000000000,-0.027456000,0.000000000,0.000000000,0.232608000,0.000000000,0.000000000,0.021888000,0.000000000,0.000000000,1720619156.656463146,,,,,,,,,,,
1720619156.665378,-0.048048000,0.000000000,0.000000000,-1.145375000,0.000000000,0.000000000,1.011582000,0.000000000,0.000000000,-0.027456000,0.000000000,0.000000000,0.232608000,0.000000000,0.000000000,0.021888000,0.000000000,0.000000000,1720619156.657463312,,,,,,,,,,,
1720619156.669388,-0.048048000,0.000000000,0.000000000,-1.138907000,0.000000000,0.000000000,1.012154000,0.000000000,0.000000000,-0.027456000,0.000000000,0.000000000,0.232160000,0.000000000,0.000000000,0.023424000,0.000000000,0.000000000,1720619156.661463261,,,,,,,,,,,
1720619156.676546,-0.048048000,0.000000000,0.000000000,-1.141602000,0.000000000,0.000000000,1.012154000,0.000000000,0.000000000,-0.027456000,0.000000000,0.000000000,0.231936000,0.000000000,0.000000000,0.022816000,0.000000000,0.000000000,1720619156.668463230,,,,,,,,,,,
1720619156.678078,-0.048048000,0.000000000,0.000000000,-1.141602000,0.000000000,0.000000000,1.012154000,0.000000000,0.000000000,-0.027456000,0.000000000,0.000000000,0.231936000,0.000000000,0.000000000,0.022816000,0.000000000,0.000000000,1720619156.669463158,,,,,,,,,,,
1720619156.681505,-0.048048000,0.000000000,0.000000000,-1.148609000,0.000000000,0.000000000,1.012154000,0.000000000,0.000000000,-0.027456000,0.000000000,0.000000000,0.232864000,0.000000000,0.000000000,0.022496000,0.000000000,0.000000000,1720619156.673463345,,,,,,,,,,,
1720619156.688817,-0.048048000,0.000000000,0.000000000,-1.148609000,0.000000000,0.000000000,1.012154000,0.000000000,0.000000000,-0.027456000,0.000000000,0.000000000,0.232096000,0.000000000,0.000000000,0.022816000,0.000000000,0.000000000,1720619156.680463314,,,,,,,,,,,
1720619156.689505,-0.048048000,0.000000000,0.000000000,-1.148609000,0.000000000,0.000000000,1.012154000,0.000000000,0.000000000,-0.027456000,0.000000000,0.000000000,0.232096000,0.000000000,0.000000000,0.022816000,0.000000000,0.000000000,1720619156.681463242,,,,,,,,,,,
1720619156.693535,-0.048048000,0.000000000,0.000000000,-1.148609000,0.000000000,0.000000000,1.012154000,0.000000000,0.000000000,-0.027456000,0.000000000,0.000000000,0.232608000,0.000000000,0.000000000,0.022624000,0.000000000,0.000000000,1720619156.685463190,,,,,,,,,,,
1720619156.696349,,,,,,,,,,,,,,,,,,,,1720619156.680463314,-1.186824000,3.141592654,0.000000015,0.829037542,-0.000000022,-0.000000054,0.559192949,1.395152983,0.001110973,1.481517837
1720619156.700627,-0.048048000,0.000000000,0.000000000,-1.148609000,0.000000000,0.000000000,1.012154000,0.000000000,0.000000000,-0.027456000,0.000000000,0.000000000,0.232672000,0.000000000,0.000000000,0.021760000,0.000038380,0.009134350,1720619156.692463160,,,,,,,,,,,
1720619156.701626,-0.048048000,0.000000000,0.000000000,-1.148609000,0.000000000,0.000000000,1.012154000,0.000000000,0.000000000,-0.027456000,0.000000000,0.000000000,0.232672000,0.000000000,0.000000000,0.021760000,0.000038380,0.009134350,1720619156.693463326,,,,,,,,,,,
1720619156.703924,-0.048048000,0.000000000,0.000000000,-1.162084000,0.000000000,0.000000000,1.012154000,0.000000000,0.000000000,-0.027456000,0.000000000,0.000000000,0.232160000,0.000000000,0.000000000,0.024064000,0.000000000,0.009134350,1720619156.695463181,,,,,,,,,,,
1720619156.704360,-0.048048000,0.000000000,0.000000000,-1.162084000,0.000000000,0.000000000,1.012154000,0.000000000,0.000000000,-0.027456000,0.000000000,0.000000000,0.232160000,0.000000000,0.000000000,0.024064000,0.000000000,0.009134350,1720619156.696463346,,,,,,,,,,,
1720619156.705553,-0.048048000,0.000000000,0.000000000,-1.162084000,0.000000000,0.000000000,1.012154000,0.000000000,0.000000000,-0.027456000,0.000000000,0.000000000,0.232160000,0.000000000,0.000000000,0.024064000,0.000000000,0.009134350,1720619156.697463274,,,,,,,,,,,
1720619156.706409,-0.048048000,0.000000000,0.000000000,-1.162084000,0.000000000,0.000000000,1.012154000,0.000000000,0.000000000,-0.027456000,0.000000000,0.000000000,0.232160000,0.000000000,0.000000000,0.024064000,0.000000000,0.009134350,1720619156.698463202,,,,,,,,,,,
