zakjeens/yaskawa_debug_materials/t17/joints.csv
__time,/joint_states/group_1/joint_1/effort,/joint_states/group_1/joint_1/position,/joint_states/group_1/joint_1/velocity,/joint_states/group_1/joint_2/effort,/joint_states/group_1/joint_2/position,/joint_states/group_1/joint_2/velocity,/joint_states/group_1/joint_3/effort,/joint_states/group_1/joint_3/position,/joint_states/group_1/joint_3/velocity,/joint_states/group_1/joint_4/effort,/joint_states/group_1/joint_4/position,/joint_states/group_1/joint_4/velocity,/joint_states/group_1/joint_5/effort,/joint_states/group_1/joint_5/position,/joint_states/group_1/joint_5/velocity,/joint_states/group_1/joint_6/effort,/joint_states/group_1/joint_6/position,/joint_states/group_1/joint_6/velocity,/joint_states/header/stamp,/world_to_torch/header/header/stamp,/world_to_torch/transform/rotation/pitch,/world_to_torch/transform/rotation/roll,/world_to_torch/transform/rotation/w,/world_to_torch/transform/rotation/x,/world_to_torch/transform/rotation/y,/world_to_torch/transform/rotation/yaw,/world_to_torch/transform/rotation/z,/world_to_torch/transform/translation/x,/world_to_torch/transform/translation/y,/world_to_torch/transform/translation/z
1720621573.223683,0.027170000,0.000000000,0.000000000,-1.204665000,0.000000000,0.000000000,0.994136000,0.000000000,0.000000000,0.044704000,0.000000000,0.000000000,0.238112000,0.000000000,0.000000000,-0.043648000,0.000000000,0.000000000,1720621573.211550951,,,,,,,,,,,
1720621573.224193,0.027170000,0.000000000,0.000000000,-1.204665000,0.000000000,0.000000000,0.994136000,0.000000000,0.000000000,0.044704000,0.000000000,0.000000000,0.237600000,0.000000000,0.000000000,-0.044992000,0.000000000,0.000000000,1720621573.213551044,,,,,,,,,,,
1720621573.233734,0.027170000,0.000000000,0.000000000,-1.204665000,0.000000000,0.000000000,0.994136000,0.000000000,0.000000000,0.044704000,0.000000000,0.000000000,0.238240000,0.000000000,0.000000000,-0.045440000,0.000000000,0.000000000,1720621573.222550869,,,,,,,,,,,
1720621573.234357,0.027170000,0.000000000,0.000000000,-1.204665000,0.000000000,0.000000000,0.994136000,0.000000000,0.000000000,0.044704000,0.000000000,0.000000000,0.238240000,0.000000000,0.000000000,-0.045440000,0.000000000,0.000000000,1720621573.223551035,,,,,,,,,,,
1720621573.237256,0.027170000,0.000000000,0.000000000,-1.204665000,0.000000000,0.000000000,0.994136000,0.000000000,0.000000000,0.044704000,0.000000000,0.000000000,0.237472000,0.000000000,0.000000000,-0.043520000,0.000000000,0.000000000,1720621573.226550817,,,,,,,,,,,
1720621573.245898,0.027170000,0.000000000,0.000000000,-1.204665000,0.000000000,0.000000000,0.994136000,0.000000000,0.000000000,0.044704000,0.000000000,0.000000000,0.237792000,0.000000000,0.000000000,-0.043648000,0.000000000,0.000000000,1720621573.234550953,,,,,,,,,,,
1720621573.246316,0.027170000,0.000000000,0.000000000,-1.204665000,0.000000000,0.000000000,0.994136000,0.000000000,0.000000000,0.044704000,0.000000000,0.000000000,0.237792000,0.000000000,0.000000000,-0.043648000,0.000000000,0.000000000,1720621573.235550880,,,,,,,,,,,
1720621573.248642,0.027170000,0.000000000,0.000000000,-1.204665000,0.000000000,0.000000000,0.994136000,0.000000000,0.000000000,0.044320000,0.000000000,0.000000000,0.237920000,0.000000000,0.000000000,-0.044512000,0.000000000,0.000000000,1720621573.236551046,,,,,,,,,,,
1720621573.258110,0.027170000,0.000000000,0.000000000,-1.204665000,0.000000000,0.000000000,0.994136000,0.000000000,0.000000000,0.044704000,0.000000000,0.000000000,0.238528000,0.000000000,0.000000000,-0.044576000,0.000000000,0.000000000,1720621573.246551037,,,,,,,,,,,
1720621573.259164,0.027170000,0.000000000,0.000000000,-1.204665000,0.000000000,0.000000000,0.994136000,0.000000000,0.000000000,0.044704000,0.000000000,0.000000000,0.238528000,0.000000000,0.000000000,-0.044576000,0.000000000,0.000000000,1720621573.247550964,,,,,,,,,,,
1720621573.260577,0.027170000,0.000000000,0.000000000,-1.204665000,0.000000000,0.000000000,0.994136000,0.000000000,0.000000000,0.044704000,0.000000000,0.000000000,0.237792000,0.000000000,0.000000000,-0.043776000,0.000000000,0.000000000,1720621573.249550819,,,,,,,,,,,
1720621573.269737,0.027170000,0.000000000,0.000000000,-1.204665000,0.000000000,0.000000000,0.994136000,0.000000000,0.000000000,0.044704000,0.000000000,0.000000000,0.237472000,0.000000000,0.000000000,-0.043840000,0.000000000,0.000000000,1720621573.258550882,,,,,,,,,,,
1720621573.270180,0.027170000,0.000000000,0.000000000,-1.204665000,0.000000000,0.000000000,0.994136000,0.000000000,0.000000000,0.044704000,0.000000000,0.000000000,0.237472000,0.000000000,0.000000000,-0.043840000,0.000000000,0.000000000,1720621573.259551048,,,,,,,,,,,
1720621573.272339,0.027170000,0.000000000,0.000000000,-1.204665000,0.000000000,0.000000000,0.994136000,0.000000000,0.000000000,0.044704000,0.000000000,0.000000000,0.237600000,0.000000000,0.000000000,-0.044640000,0.000000000,0.000000000,1720621573.261550903,,,,,,,,,,,
1720621573.285336,0.027170000,0.000000000,0.000000000,-1.203587000,0.000000000,0.000000000,0.994136000,0.000000000,0.000000000,0.044704000,0.000000000,0.000000000,0.237984000,0.000000000,0.000000000,-0.043136000,0.000000000,0.000000000,1720621573.272550821,,,,,,,,,,,
1720621573.294601,0.027170000,0.000000000,0.000000000,-1.203587000,0.000000000,0.000000000,0.994136000,0.000000000,0.000000000,0.044704000,0.000000000,0.000000000,0.237856000,0.000000000,0.000000000,-0.044384000,0.000000000,0.000000000,1720621573.283550978,,,,,,,,,,,
1720621573.301957,0.027170000,0.000000000,0.000000000,-1.233771000,0.000000000,0.000000000,0.994136000,0.000000000,0.000000000,0.044704000,0.000000000,0.000000000,0.237920000,0.000000000,0.000000000,-0.045056000,0.000000000,0.000000000,1720621573.290550947,,,,,,,,,,,
1720621573.302995,0.027170000,0.000000000,0.000000000,-1.233771000,0.000000000,0.000000000,0.994136000,0.000000000,0.000000000,0.044704000,0.000000000,0.000000000,0.237920000,0.000000000,0.000000000,-0.045056000,0.000000000,0.000000000,1720621573.291550875,,,,,,,,,,,
1720621573.306604,0.027170000,0.000000000,0.000000000,-1.201970000,0.000000000,0.000000000,0.994136000,0.000000000,0.000000000,0.044704000,0.000000000,0.000000000,0.237856000,0.000000000,0.000000000,-0.043936000,0.000000000,0.000000000,1720621573.295550823,,,,,,,,,,,
1720621573.313911,0.027170000,0.000000000,0.000000000,-1.199814000,0.000000000,0.000000000,0.994136000,0.000000000,0.000000000,0.044704000,0.000000000,0.000000000,0.238048000,0.000000000,0.000000000,-0.043776000,0.000000000,0.000000000,1720621573.302551031,,,,,,,,,,,
1720621573.314458,0.027170000,0.000000000,0.000000000,-1.199814000,0.000000000,0.000000000,0.994136000,0.000000000,0.000000000,0.044704000,0.000000000,0.000000000,0.238048000,0.000000000,0.000000000,-0.043776000,0.000000000,0.000000000,1720621573.303550959,,,,,,,,,,,
1720621573.318959,0.027170000,0.000000000,0.000000000,-1.202509000,0.000000000,0.000000000,0.994136000,0.000000000,0.000000000,0.044704000,0.000000000,0.000000000,0.237600000,0.000000000,0.000000000,-0.044640000,0.000000000,0.000000000,1720621573.307550907,,,,,,,,,,,
1720621573.326246,0.027170000,0.000000000,0.000000000,-1.202509000,0.000000000,0.000000000,0.994136000,0.000000000,0.000000000,0.044704000,0.000000000,0.000000000,0.237472000,0.000000000,0.000000000,-0.044512000,0.000000000,0.000000000,1720621573.314550877,,,,,,,,,,,
1720621573.326584,0.027170000,0.000000000,0.000000000,-1.202509000,0.000000000,0.000000000,0.994136000,0.000000000,0.000000000,0.044704000,0.000000000,0.000000000,0.237472000,0.000000000,0.000000000,-0.044512000,0.000000000,0.000000000,1720621573.315551043,,,,,,,,,,,
1720621573.330527,0.027170000,0.000000000,0.000000000,-1.202509000,0.000000000,0.000000000,0.994136000,0.000000000,0.000000000,0.044704000,0.000000000,0.000000000,0.238112000,0.000000000,0.000000000,-0.043136000,0.000000000,0.000000000,1720621573.319550991,,,,,,,,,,,
1720621573.338026,0.027170000,0.000000000,0.000000000,-1.204665000,0.000000000,0.000000000,0.994136000,0.000000000,0.000000000,0.044640000,0.000000000,0.000000000,0.237856000,0.000000000,0.000000000,-0.043776000,0.000000000,0.000000000,1720621573.326550961,,,,,,,,,,,
1720621573.339056,0.027170000,0.000000000,0.000000000,-1.204665000,0.000000000,0.000000000,0.994136000,0.000000000,0.000000000,0.044640000,0.000000000,0.000000000,0.237856000,0.000000000,0.000000000,-0.043776000,0.000000000,0.000000000,1720621573.327550888,,,,,,,,,,,
1720621573.342793,0.027170000,0.000000000,0.000000000,-1.210594000,0.000000000,0.000000000,0.994136000,0.000000000,0.000000000,0.044640000,0.000000000,0.000000000,0.237856000,0.000000000,0.000000000,-0.044864000,0.000000000,0.000000000,1720621573.331550837,,,,,,,,,,,
1720621573.350248,0.027170000,0.000000000,0.000000000,-1.212211000,0.000000000,0.000000000,0.994136000,0.000000000,0.000000000,0.044640000,0.000000000,0.000000000,0.237376000,0.000000000,0.000000000,-0.044192000,0.000000000,0.000000000,1720621573.338551044,,,,,,,,,,,
1720621573.350829,0.027170000,0.000000000,0.000000000,-1.212211000,0.000000000,0.000000000,0.994136000,0.000000000,0.000000000,0.044640000,0.000000000,0.000000000,0.237376000,0.000000000,0.000000000,-0.044192000,0.000000000,0.000000000,1720621573.339550972,,,,,,,,,,,
1720621573.354756,0.027170000,0.000000000,0.000000000,-1.207899000,0.000000000,0.000000000,0.994136000,0.000000000,0.000000000,0.044640000,0.000000000,0.000000000,0.237056000,0.000000000,0.000000000,-0.043840000,0.000000000,0.000000000,1720621573.343550920,,,,,,,,,,,
1720621573.362308,0.027170000,0.000000000,0.000000000,-1.207899000,0.000000000,0.000000000,0.994136000,0.000000000,0.000000000,0.044640000,0.000000000,0.000000000,0.237728000,0.000000000,0.000000000,-0.043648000,0.000000000,0.000000000,1720621573.360551119,,,,,,,,,,,
1720621573.363114,0.027170000,0.000000000,0.000000000,-1.207899000,0.000000000,0.000000000,0.994136000,0.000000000,0.000000000,0.044640000,0.000000000,0.000000000,0.237728000,0.000000000,0.000000000,-0.043648000,0.000000000,0.000000000,1720621573.361551285,,,,,,,,,,,
1720621573.364444,0.027170000,0.000000000,0.000000000,-1.207899000,0.000000000,0.000000000,0.994136000,0.000000000,0.000000000,0.044640000,0.000000000,0.000000000,0.237472000,0.000000000,0.000000000,-0.044864000,0.000000000,0.000000000,1720621573.362551212,,,,,,,,,,,
1720621573.374185,0.027170000,0.000000000,0.000000000,-1.207899000,0.000000000,0.000000000,0.994136000,0.000000000,0.000000000,0.044640000,0.000000000,0.000000000,0.238176000,0.000000000,0.000000000,-0.044000000,0.000000000,0.000000000,1720621573.372551203,,,,,,,,,,,
1720621573.374759,0.027170000,0.000000000,0.000000000,-1.207899000,0.000000000,0.000000000,0.994136000,0.000000000,0.000000000,0.044640000,0.000000000,0.000000000,0.238176000,0.000000000,0.000000000,-0.044000000,0.000000000,0.000000000,1720621573.373551130,,,,,,,,,,,
1720621573.376419,0.027170000,0.000000000,0.000000000,-1.207360000,0.000000000,0.000000000,0.994136000,0.000000000,0.000000000,0.045056000,0.000000000,0.000000000,0.237664000,0.000000000,0.000000000,-0.044448000,0.000000000,0.000000000,1720621573.374551296,,,,,,,,,,,
1720621573.376439,0.027170000,0.000000000,0.000000000,-1.207360000,0.000000000,0.000000000,0.994136000,0.000000000,0.000000000,0.045056000,0.000000000,0.000000000,0.237664000,0.000000000,0.000000000,-0.044448000,0.000000000,0.000000000,1720621573.375551224,,,,,,,,,,,
1720621573.378052,0.027170000,0.000000000,0.000000000,-1.207360000,0.000000000,0.000000000,0.994136000,0.000000000,0.000000000,0.045056000,0.000000000,0.000000000,0.237664000,0.000000000,0.000000000,-0.044448000,0.000000000,0.000000000,1720621573.376551151,,,,,,,,,,,
1720621573.381824,0.027170000,0.000000000,0.000000000,-1.206282000,0.000000000,0.000000000,0.994136000,0.000000000,0.000000000,0.044704000,0.000000000,0.000000000,0.237984000,0.000000000,0.000000000,-0.043776000,0.000000000,0.000000000,1720621573.380551338,,,,,,,,,,,
1720621573.389817,0.027170000,0.000000000,0.000000000,-1.206282000,0.000000000,0.000000000,0.994136000,0.000000000,0.000000000,0.044704000,0.000000000,0.000000000,0.238336000,0.000000000,0.000000000,-0.043264000,0.000000000,0.000000000,1720621573.388551235,,,,,,,,,,,
1720621573.400334,0.027170000,0.000000000,0.000000000,-1.202509000,0.000000000,0.000000000,0.994136000,0.000000000,0.000000000,0.044704000,0.000000000,0.000000000,0.237856000,0.000000000,0.000000000,-0.044512000,0.000000000,0.000000000,1720621573.398551226,,,,,,,,,,,
1720621573.410181,0.026598000,0.000000000,0.000000000,-1.203587000,0.000000000,0.000000000,0.994136000,0.000000000,0.000000000,0.044704000,0.000000000,0.000000000,0.237792000,0.000000000,0.000000000,-0.044448000,0.000000000,0.000000000,1720621573.408551216,,,,,,,,,,,
1720621573.423059,0.027170000,0.000000000,0.000000000,-1.203587000,0.000000000,0.000000000,0.994136000,0.000000000,0.000000000,0.044704000,0.000000000,0.000000000,0.237856000,0.000000000,0.000000000,-0.043776000,0.000000000,0.000000000,1720621573.421551228,,,,,,,,,,,
1720621573.429013,0.027170000,0.000000000,0.000000000,-1.203587000,0.000000000,0.000000000,0.994136000,0.000000000,0.000000000,0.044704000,0.000000000,0.000000000,0.237920000,0.000000000,0.000000000,-0.043520000,0.000000000,0.000000000,1720621573.427551270,,,,,,,,,,,
1720621573.430085,0.027170000,0.000000000,0.000000000,-1.203587000,0.000000000,0.000000000,0.994136000,0.000000000,0.000000000,0.044704000,0.000000000,0.000000000,0.237920000,0.000000000,0.000000000,-0.043520000,0.000000000,0.000000000,1720621573.428551197,,,,,,,,,,,
1720621573.432446,0.027170000,0.000000000,0.000000000,-1.203587000,0.000000000,0.000000000,0.994136000,0.000000000,0.000000000,0.044704000,0.000000000,0.000000000,0.237728000,0.000000000,0.000000000,-0.045056000,0.000000000,0.000000000,1720621573.430551291,,,,,,,,,,,
1720621573.441980,0.027170000,0.000000000,0.000000000,-1.217062000,0.000000000,0.000000000,0.994136000,0.000000000,0.000000000,0.044704000,0.000000000,0.000000000,0.237728000,0.000000000,0.000000000,-0.044704000,0.000000000,0.000000000,1720621573.440551281,,,,,,,,,,,
1720621573.455229,0.027170000,0.000000000,0.000000000,-1.207360000,0.000000000,0.000000000,0.994136000,0.000000000,0.000000000,0.044704000,0.000000000,0.000000000,0.237376000,0.000000000,0.000000000,-0.043648000,0.000000000,0.000000000,1720621573.453551292,,,,,,,,,,,
1720621573.462176,0.027170000,0.000000000,0.000000000,-1.206282000,0.000000000,0.000000000,0.994136000,0.000000000,0.000000000,0.044640000,0.000000000,0.000000000,0.237728000,0.000000000,0.000000000,-0.043712000,0.000000000,0.000000000,1720621573.460551262,,,,,,,,,,,
1720621573.464382,0.027170000,0.000000000,0.000000000,-1.206282000,0.000000000,0.000000000,0.994136000,0.000000000,0.000000000,0.044640000,0.000000000,0.000000000,0.237728000,0.000000000,0.000000000,-0.043712000,0.000000000,0.000000000,1720621573.461551189,,,,,,,,,,,
1720621573.473357,0.027170000,0.000000000,0.000000000,-1.205204000,0.000000000,0.000000000,0.994136000,0.000000000,0.000000000,0.044640000,0.000000000,0.000000000,0.237728000,0.000000000,0.000000000,-0.044256000,0.000000000,0.000000000,1720621573.471551180,,,,,,,,,,,
1720621573.473875,0.027170000,0.000000000,0.000000000,-1.205204000,0.000000000,0.000000000,0.994136000,0.000000000,0.000000000,0.044640000,0.000000000,0.000000000,0.237728000,0.000000000,0.000000000,-0.044256000,0.000000000,0.000000000,1720621573.472551346,,,,,,,,,,,
1720621573.474965,0.027170000,0.000000000,0.000000000,-1.205204000,0.000000000,0.000000000,0.994136000,0.000000000,0.000000000,0.044640000,0.000000000,0.000000000,0.237728000,0.000000000,0.000000000,-0.044256000,0.000000000,0.000000000,1720621573.473551273,,,,,,,,,,,
1720621573.476994,0.027170000,0.000000000,0.000000000,-1.205204000,0.000000000,0.000000000,0.994136000,0.000000000,0.000000000,0.044640000,0.000000000,0.000000000,0.237536000,0.000000000,0.000000000,-0.044000000,0.000000000,0.000000000,1720621573.475551128,,,,,,,,,,,
1720621573.481696,0.027170000,0.000000000,0.000000000,-1.205204000,0.000000000,0.000000000,0.994136000,0.000000000,0.000000000,0.044640000,0.000000000,0.000000000,0.237664000,0.000000000,0.000000000,-0.044512000,0.000000000,0.000000000,1720621573.479551315,,,,,,,,,,,
1720621573.488941,0.027170000,0.000000000,0.000000000,-1.208977000,0.000000000,0.000000000,0.994136000,0.000000000,0.000000000,0.044640000,0.000000000,0.000000000,0.237664000,0.000000000,0.000000000,-0.044320000,0.000000000,0.000000000,1720621573.487551212,,,,,,,,,,,
1720621573.492894,0.027170000,0.000000000,0.000000000,-1.200892000,0.000000000,0.000000000,0.994136000,0.000000000,0.000000000,0.044640000,0.000000000,0.000000000,0.237728000,0.000000000,0.000000000,-0.043936000,0.000000000,0.000000000,1720621573.491551161,,,,,,,,,,,
1720621573.501535,0.027170000,0.000000000,0.000000000,-1.203587000,0.000000000,0.000000000,0.994136000,0.000000000,0.000000000,0.044704000,0.000000000,0.000000000,0.238400000,0.000000000,0.000000000,-0.044512000,0.000000000,0.000000000,1720621573.499551296,,,,,,,,,,,
1720621573.505963,0.027170000,0.000000000,0.000000000,-1.203587000,0.000000000,0.000000000,0.994136000,0.000000000,0.000000000,0.044704000,0.000000000,0.000000000,0.238048000,0.000000000,0.000000000,-0.044128000,0.000000000,0.000000000,1720621573.504551172,,,,,,,,,,,
1720621573.513829,0.027170000,0.000000000,0.000000000,-1.203587000,0.000000000,0.000000000,0.994136000,0.000000000,0.000000000,0.044704000,0.000000000,0.000000000,0.237792000,0.000000000,0.000000000,-0.043456000,0.000000000,0.000000000,1720621573.511551142,,,,,,,,,,,
1720621573.514153,0.027170000,0.000000000,0.000000000,-1.203587000,0.000000000,0.000000000,0.994136000,0.000000000,0.000000000,0.044704000,0.000000000,0.000000000,0.237792000,0.000000000,0.000000000,-0.043456000,0.000000000,0.000000000,1720621573.512551308,,,,,,,,,,,
1720621573.517868,0.027170000,0.000000000,0.000000000,-1.203587000,0.000000000,0.000000000,0.994136000,0.000000000,0.000000000,0.044704000,0.000000000,0.000000000,0.237664000,0.000000000,0.000000000,-0.044864000,0.000000000,0.000000000,1720621573.516551256,,,,,,,,,,,
1720621573.525424,0.027170000,0.000000000,0.000000000,-1.203587000,0.000000000,0.000000000,0.994136000,0.000000000,0.000000000,0.044704000,0.000000000,0.000000000,0.237792000,0.000000000,0.000000000,-0.044928000,0.000000000,0.000000000,1720621573.523551226,,,,,,,,,,,
1720621573.526352,0.027170000,0.000000000,0.000000000,-1.203587000,0.000000000,0.000000000,0.994136000,0.000000000,0.000000000,0.044704000,0.000000000,0.000000000,0.237792000,0.000000000,0.000000000,-0.044928000,0.000000000,0.000000000,1720621573.524551153,,,,,,,,,,,
1720621573.530332,0.027170000,0.000000000,0.000000000,-1.203587000,0.000000000,0.000000000,0.995280000,0.000000000,0.000000000,0.044704000,0.000000000,0.000000000,0.238240000,0.000000000,0.000000000,-0.044000000,0.000000000,0.000000000,1720621573.528551340,,,,,,,,,,,
1720621573.537355,0.027170000,0.000000000,0.000000000,-1.203587000,0.000000000,0.000000000,0.994708000,0.000000000,0.000000000,0.044704000,0.000000000,0.000000000,0.238176000,0.000000000,0.000000000,-0.044064000,0.000000000,0.000000000,1720621573.535551310,,,,,,,,,,,
1720621573.538062,0.027170000,0.000000000,0.000000000,-1.203587000,0.000000000,0.000000000,0.994708000,0.000000000,0.000000000,0.044704000,0.000000000,0.000000000,0.238176000,0.000000000,0.000000000,-0.044064000,0.000000000,0.000000000,1720621573.536551237,,,,,,,,,,,
1720621573.542747,0.027170000,0.000000000,0.000000000,-1.203587000,0.000000000,0.000000000,0.994708000,0.000000000,0.000000000,0.044704000,0.000000000,0.000000000,0.237472000,0.000000000,0.000000000,-0.044128000,0.000000000,0.000000000,1720621573.540551186,,,,,,,,,,,
1720621573.549130,0.027170000,0.000000000,0.000000000,-1.208977000,0.000000000,0.000000000,0.994136000,0.000000000,0.000000000,0.044704000,0.000000000,0.000000000,0.237664000,0.000000000,0.000000000,-0.044384000,0.000000000,0.000000000,1720621573.547551155,,,,,,,,,,,
1720621573.550228,0.027170000,0.000000000,0.000000000,-1.208977000,0.000000000,0.000000000,0.994136000,0.000000000,0.000000000,0.044704000,0.000000000,0.000000000,0.237664000,0.000000000,0.000000000,-0.044384000,0.000000000,0.000000000,1720621573.548551321,,,,,,,,,,,
1720621573.554071,0.027170000,0.000000000,0.000000000,-1.209516000,0.000000000,0.000000000,0.994136000,0.000000000,0.000000000,0.044704000,0.000000000,0.000000000,0.237792000,0.000000000,0.000000000,-0.043776000,0.000000000,0.000000000,1720621573.552551270,,,,,,,,,,,
1720621573.561337,0.027170000,0.000000000,0.000000000,-1.207360000,0.000000000,0.000000000,0.994136000,0.000000000,0.000000000,0.044704000,0.000000000,0.000000000,0.237984000,0.000000000,0.000000000,-0.043392000,0.000000000,0.000000000,1720621573.559551239,,,,,,,,,,,
1720621573.562928,0.027170000,0.000000000,0.000000000,-1.207360000,0.000000000,0.000000000,0.994136000,0.000000000,0.000000000,0.044704000,0.000000000,0.000000000,0.237984000,0.000000000,0.000000000,-0.043392000,0.000000000,0.000000000,1720621573.560551167,,,,,,,,,,,
1720621573.566365,0.027170000,0.000000000,0.000000000,-1.207360000,0.000000000,0.000000000,0.994136000,0.000000000,0.000000000,0.044704000,0.000000000,0.000000000,0.237792000,0.000000000,0.000000000,-0.044928000,0.000000000,0.000000000,1720621573.564551115,,,,,,,,,,,
1720621573.573828,0.027170000,0.000000000,0.000000000,-1.206282000,0.000000000,0.000000000,0.994136000,0.000000000,0.000000000,0.044704000,0.000000000,0.000000000,0.237792000,0.000000000,0.000000000,-0.045376000,0.000000000,0.000000000,1720621573.571551323,,,,,,,,,,,
1720621573.574428,0.027170000,0.000000000,0.000000000,-1.206282000,0.000000000,0.000000000,0.994136000,0.000000000,0.000000000,0.044704000,0.000000000,0.000000000,0.237792000,0.000000000,0.000000000,-0.045376000,0.000000000,0.000000000,1720621573.572551250,,,,,,,,,,,
1720621573.578162,0.027170000,0.000000000,0.000000000,-1.205204000,0.000000000,0.000000000,0.994136000,0.000000000,0.000000000,0.044704000,0.000000000,0.000000000,0.237376000,0.000000000,0.000000000,-0.042912000,0.000000000,0.000000000,1720621573.576551199,,,,,,,,,,,
1720621573.585559,0.027170000,0.000000000,0.000000000,-1.204665000,0.000000000,0.000000000,0.994136000,0.000000000,0.000000000,0.044704000,0.000000000,0.000000000,0.237664000,0.000000000,0.000000000,-0.043520000,0.000000000,0.000000000,1720621573.583551168,,,,,,,,,,,
1720621573.586277,0.027170000,0.000000000,0.000000000,-1.204665000,0.000000000,0.000000000,0.994136000,0.000000000,0.000000000,0.044704000,0.000000000,0.000000000,0.237664000,0.000000000,0.000000000,-0.043520000,0.000000000,0.000000000,1720621573.584551334,,,,,,,,,,,
1720621573.590256,0.027170000,0.000000000,0.000000000,-1.203587000,0.000000000,0.000000000,0.994136000,0.000000000,0.000000000,0.044704000,0.000000000,0.000000000,0.237472000,0.000000000,0.000000000,-0.044704000,0.000000000,0.000000000,1720621573.588551283,,,,,,,,,,,
1720621573.597366,0.027170000,0.000000000,0.000000000,-1.198197000,0.000000000,0.000000000,0.994136000,0.000000000,0.000000000,0.044704000,0.000000000,0.000000000,0.237664000,0.000000000,0.000000000,-0.044448000,0.000000000,0.000000000,1720621573.595551252,,,,,,,,,,,
1720621573.598289,0.027170000,0.000000000,0.000000000,-1.198197000,0.000000000,0.000000000,0.994136000,0.000000000,0.000000000,0.044704000,0.000000000,0.000000000,0.237664000,0.000000000,0.000000000,-0.044448000,0.000000000,0.000000000,1720621573.596551180,,,,,,,,,,,
1720621573.602726,0.027170000,0.000000000,0.000000000,-1.207360000,0.000000000,0.000000000,0.994136000,0.000000000,0.000000000,0.044704000,0.000000000,0.000000000,0.237472000,0.000000000,0.000000000,-0.044256000,0.000000000,0.000000000,1720621573.600551128,,,,,,,,,,,
1720621573.609267,0.027170000,0.000000000,0.000000000,-1.202509000,0.000000000,0.000000000,0.994136000,0.000000000,0.000000000,0.044640000,0.000000000,0.000000000,0.238176000,0.000000000,0.000000000,-0.043840000,0.000000000,0.000000000,1720621573.607551336,,,,,,,,,,,
1720621573.610493,0.027170000,0.000000000,0.000000000,-1.202509000,0.000000000,0.000000000,0.994136000,0.000000000,0.000000000,0.044640000,0.000000000,0.000000000,0.238176000,0.000000000,0.000000000,-0.043840000,0.000000000,0.000000000,1720621573.608551264,,,,,,,,,,,
1720621573.614289,0.027170000,0.000000000,0.000000000,-1.203587000,0.000000000,0.000000000,0.994136000,0.000000000,0.000000000,0.044640000,0.000000000,0.000000000,0.237312000,0.000000000,0.000000000,-0.044704000,0.000000000,0.000000000,1720621573.612551212,,,,,,,,,,,
1720621573.621570,0.027170000,0.000000000,0.000000000,-1.205204000,0.000000000,0.000000000,0.994136000,0.000000000,0.000000000,0.044640000,0.000000000,0.000000000,0.237664000,0.000000000,0.000000000,-0.043392000,0.000000000,0.000000000,1720621573.619551182,,,,,,,,,,,
1720621573.623068,0.027170000,0.000000000,0.000000000,-1.205204000,0.000000000,0.000000000,0.994136000,0.000000000,0.000000000,0.044640000,0.000000000,0.000000000,0.237664000,0.000000000,0.000000000,-0.043392000,0.000000000,0.000000000,1720621573.620551348,,,,,,,,,,,
1720621573.627527,0.026026000,0.000000000,0.000000000,-1.206282000,0.000000000,0.000000000,0.994136000,0.000000000,0.000000000,0.044640000,0.000000000,0.000000000,0.238112000,0.000000000,0.000000000,-0.044512000,0.000000000,0.000000000,1720621573.625551224,,,,,,,,,,,
1720621573.634642,0.027456000,0.000000000,0.000000000,-1.206282000,0.000000000,0.000000000,0.994136000,0.000000000,0.000000000,0.044704000,0.000000000,0.000000000,0.237184000,0.000000000,0.000000000,-0.044800000,0.000000000,0.000000000,1720621573.632551193,,,,,,,,,,,
1720621573.636409,0.027456000,0.000000000,0.000000000,-1.205204000,0.000000000,0.000000000,0.994136000,0.000000000,0.000000000,0.044640000,0.000000000,0.000000000,0.238176000,0.000000000,0.000000000,-0.043840000,0.000000000,0.000000000,1720621573.634551287,,,,,,,,,,,
1720621573.645935,0.028028000,0.000000000,0.000000000,-1.205204000,0.000000000,0.000000000,0.994136000,0.000000000,0.000000000,0.044640000,0.000000000,0.000000000,0.237728000,0.000000000,0.000000000,-0.044128000,0.000000000,0.000000000,1720621573.643551111,,,,,,,,,,,
1720621573.646193,0.028028000,0.000000000,0.000000000,-1.205204000,0.000000000,0.000000000,0.994136000,0.000000000,0.000000000,0.044640000,0.000000000,0.000000000,0.237728000,0.000000000,0.000000000,-0.044128000,0.000000000,0.000000000,1720621573.644551277,,,,,,,,,,,
1720621573.647392,0.028028000,0.000000000,0.000000000,-1.205204000,0.000000000,0.000000000,0.994136000,0.000000000,0.000000000,0.044640000,0.000000000,0.000000000,0.237728000,0.000000000,0.000000000,-0.044128000,0.000000000,0.000000000,1720621573.645551205,,,,,,,,,,,
1720621573.649440,0.028028000,0.000000000,0.000000000,-1.233771000,0.000000000,0.000000000,0.994136000,0.000000000,0.000000000,0.044640000,0.000000000,0.000000000,0.237728000,0.000000000,0.000000000,-0.044192000,0.000000000,0.000000000,1720621573.647551298,,,,,,,,,,,
1720621573.653804,0.028028000,0.000000000,0.000000000,-1.200892000,0.000000000,0.000000000,0.994136000,0.000000000,0.000000000,0.044640000,0.000000000,0.000000000,0.237856000,0.000000000,0.000000000,-0.044128000,0.000000000,0.000000000,1720621573.651551247,,,,,,,,,,,
1720621573.661510,0.027456000,0.000000000,0.000000000,-1.177176000,0.000000000,0.000000000,0.994136000,0.000000000,0.000000000,0.044640000,0.000000000,0.000000000,0.237472000,0.000000000,0.000000000,-0.044128000,0.000000000,0.000000000,1720621573.659551144,,,,,,,,,,,
1720621573.665472,0.027456000,0.000000000,0.000000000,-1.226764000,0.000000000,0.000000000,0.994136000,0.000000000,0.000000000,0.044640000,0.000000000,0.000000000,0.237376000,0.000000000,0.000000000,-0.044384000,0.000000000,0.000000000,1720621573.663551331,,,,,,,,,,,
1720621573.673773,0.027456000,0.000000000,0.000000000,-1.199814000,0.000000000,0.000000000,0.994136000,0.000000000,0.000000000,0.044640000,0.000000000,0.000000000,0.237600000,0.000000000,0.000000000,-0.044512000,0.000000000,0.000000000,1720621573.671551228,,,,,,,,,,,
1720621573.678512,0.028028000,0.000000000,0.000000000,-1.204665000,0.000000000,0.000000000,0.994136000,0.000000000,0.000000000,0.044640000,0.000000000,0.000000000,0.237792000,0.000000000,0.000000000,-0.043584000,0.000000000,0.000000000,1720621573.676551342,,,,,,,,,,,
1720621573.686019,0.028028000,0.000000000,0.000000000,-1.176098000,0.000000000,0.000000000,0.994136000,0.000000000,0.000000000,0.044640000,0.000000000,0.000000000,0.237920000,0.000000000,0.000000000,-0.044064000,0.000000000,0.000000000,1720621573.683551311,,,,,,,,,,,
1720621573.686413,0.028028000,0.000000000,0.000000000,-1.176098000,0.000000000,0.000000000,0.994136000,0.000000000,0.000000000,0.044640000,0.000000000,0.000000000,0.237920000,0.000000000,0.000000000,-0.044064000,0.000000000,0.000000000,1720621573.684551239,,,,,,,,,,,
1720621573.690542,0.028028000,0.000000000,0.000000000,-1.204665000,0.000000000,0.000000000,0.994136000,0.000000000,0.000000000,0.044640000,0.000000000,0.000000000,0.237248000,0.000000000,0.000000000,-0.044064000,0.000000000,0.000000000,1720621573.688551188,,,,,,,,,,,
1720621573.697618,0.027456000,0.000000000,0.000000000,-1.204665000,0.000000000,0.000000000,0.994136000,0.000000000,0.000000000,0.044640000,0.000000000,0.000000000,0.237376000,0.000000000,0.000000000,-0.043648000,0.000000000,0.000000000,1720621573.695551157,,,,,,,,,,,
1720621573.698231,0.027456000,0.000000000,0.000000000,-1.204665000,0.000000000,0.000000000,0.994136000,0.000000000,0.000000000,0.044640000,0.000000000,0.000000000,0.237376000,0.000000000,0.000000000,-0.043648000,0.000000000,0.000000000,1720621573.696551323,,,,,,,,,,,
1720621573.702874,0.027456000,0.000000000,0.000000000,-1.192268000,0.000000000,0.000000000,0.994136000,0.000000000,0.000000000,0.044640000,0.000000000,0.000000000,0.237600000,0.000000000,0.000000000,-0.044320000,0.000000000,0.000000000,1720621573.700551271,,,,,,,,,,,
1720621573.709821,0.028028000,0.000000000,0.000000000,-1.201970000,0.000000000,0.000000000,0.994136000,0.000000000,0.000000000,0.044640000,0.000000000,0.000000000,0.237664000,0.000000000,0.000000000,-0.044256000,0.000000000,0.000000000,1720621573.707551241,,,,,,,,,,,
1720621573.710599,0.028028000,0.000000000,0.000000000,-1.201970000,0.000000000,0.000000000,0.994136000,0.000000000,0.000000000,0.044640000,0.000000000,0.000000000,0.237664000,0.000000000,0.000000000,-0.044256000,0.000000000,0.000000000,1720621573.708551168,,,,,,,,,,,
1720621573.714883,0.028028000,0.000000000,0.000000000,-1.228920000,0.000000000,0.000000000,0.994136000,0.000000000,0.000000000,0.044640000,0.000000000,0.000000000,0.237600000,0.000000000,0.000000000,-0.044064000,0.000000000,0.000000000,1720621573.712551117,,,,,,,,,,,
1720621573.721834,0.028028000,0.000000000,0.000000000,-1.204665000,0.000000000,0.000000000,0.994136000,0.000000000,0.000000000,0.044640000,0.000000000,0.000000000,0.237792000,0.000000000,0.000000000,-0.043264000,0.000000000,0.000000000,1720621573.719551325,,,,,,,,,,,
1720621573.723072,0.028028000,0.000000000,0.000000000,-1.204665000,0.000000000,0.000000000,0.994136000,0.000000000,0.000000000,0.044640000,0.000000000,0.000000000,0.237792000,0.000000000,0.000000000,-0.043264000,0.000000000,0.000000000,1720621573.720551252,,,,,,,,,,,
1720621573.726393,0.028028000,0.000000000,0.000000000,-1.204665000,0.000000000,0.000000000,0.994136000,0.000000000,0.000000000,0.044640000,0.000000000,0.000000000,0.238176000,0.000000000,0.000000000,-0.045504000,0.000000000,0.000000000,1720621573.724551201,,,,,,,,,,,
1720621573.733702,0.027456000,0.000000000,0.000000000,-1.172864000,0.000000000,0.000000000,0.994136000,0.000000000,0.000000000,0.044640000,0.000000000,0.000000000,0.238336000,0.000000000,0.000000000,-0.045056000,0.000000000,0.000000000,1720621573.731551170,,,,,,,,,,,
1720621573.735083,0.027456000,0.000000000,0.000000000,-1.172864000,0.000000000,0.000000000,0.994136000,0.000000000,0.000000000,0.044640000,0.000000000,0.000000000,0.238336000,0.000000000,0.000000000,-0.045056000,0.000000000,0.000000000,1720621573.732551336,,,,,,,,,,,
1720621573.739395,0.028028000,0.000000000,0.000000000,-1.202509000,0.000000000,0.000000000,0.994136000,0.000000000,0.000000000,0.044640000,0.000000000,0.000000000,0.237120000,0.000000000,0.000000000,-0.043136000,0.000000000,0.000000000,1720621573.737551212,,,,,,,,,,,
1720621573.746667,0.028028000,0.000000000,0.000000000,-1.205204000,0.000000000,0.000000000,0.994136000,0.000000000,0.000000000,0.044640000,0.000000000,0.000000000,0.238912000,0.000000000,0.000000000,-0.044128000,0.000000000,0.000000000,1720621573.744551182,,,,,,,,,,,
1720621573.748473,0.028028000,0.000000000,0.000000000,-1.205204000,0.000000000,0.000000000,0.994136000,0.000000000,0.000000000,0.044704000,0.000000000,0.000000000,0.237792000,0.000000000,0.000000000,-0.044128000,0.000000000,0.000000000,1720621573.746551275,,,,,,,,,,,
1720621573.758011,0.028028000,0.000000000,0.000000000,-1.206282000,0.000000000,0.000000000,0.994136000,0.000000000,0.000000000,0.044704000,0.000000000,0.000000000,0.238112000,0.000000000,0.000000000,-0.043520000,0.000000000,0.000000000,1720621573.755551338,,,,,,,,,,,
1720621573.758390,0.028028000,0.000000000,0.000000000,-1.206282000,0.000000000,0.000000000,0.994136000,0.000000000,0.000000000,0.044704000,0.000000000,0.000000000,0.238112000,0.000000000,0.000000000,-0.043520000,0.000000000,0.000000000,1720621573.756551266,,,,,,,,,,,
1720621573.760274,0.028028000,0.000000000,0.000000000,-1.206282000,0.000000000,0.000000000,0.994136000,0.000000000,0.000000000,0.044704000,0.000000000,0.000000000,0.237664000,0.000000000,0.000000000,-0.044864000,0.000000000,0.000000000,1720621573.757551193,,,,,,,,,,,
1720621573.769742,0.027456000,0.000000000,0.000000000,-1.205204000,0.000000000,0.000000000,0.994136000,0.000000000,0.000000000,0.044576000,0.000000000,0.000000000,0.237056000,0.000000000,0.000000000,-0.044640000,0.000000000,0.000000000,1720621573.767551184,,,,,,,,,,,
1720621573.770565,0.027456000,0.000000000,0.000000000,-1.205204000,0.000000000,0.000000000,0.994136000,0.000000000,0.000000000,0.044576000,0.000000000,0.000000000,0.237056000,0.000000000,0.000000000,-0.044640000,0.000000000,0.000000000,1720621573.768551111,,,,,,,,,,,
1720621573.772772,0.028028000,0.000000000,0.000000000,-1.205204000,0.000000000,0.000000000,0.994136000,0.000000000,0.000000000,0.044640000,0.000000000,0.000000000,0.237664000,0.000000000,0.000000000,-0.043392000,0.000000000,0.000000000,1720621573.770551205,,,,,,,,,,,
1720621573.781640,0.028028000,0.000000000,0.000000000,-1.173403000,0.000000000,0.000000000,0.994136000,0.000000000,0.000000000,0.044640000,0.000000000,0.000000000,0.237728000,0.000000000,0.000000000,-0.044384000,0.000000000,0.000000000,1720621573.779551268,,,,,,,,,,,
1720621573.782903,0.028028000,0.000000000,0.000000000,-1.173403000,0.000000000,0.000000000,0.994136000,0.000000000,0.000000000,0.044640000,0.000000000,0.000000000,0.237728000,0.000000000,0.000000000,-0.044384000,0.000000000,0.000000000,1720621573.780551195,,,,,,,,,,,
1720621573.785816,0.028028000,0.000000000,0.000000000,-1.205204000,0.000000000,0.000000000,0.994136000,0.000000000,0.000000000,0.044640000,0.000000000,0.000000000,0.237664000,0.000000000,0.000000000,-0.044128000,0.000000000,0.000000000,1720621573.783551216,,,,,,,,,,,
1720621573.793965,0.028028000,0.000000000,0.000000000,-1.207899000,0.000000000,0.000000000,0.994136000,0.000000000,0.000000000,0.044640000,0.000000000,0.000000000,0.237664000,0.000000000,0.000000000,-0.044704000,0.000000000,0.000000000,1720621573.791551113,,,,,,,,,,,
1720621573.794897,0.028028000,0.000000000,0.000000000,-1.207899000,0.000000000,0.000000000,0.994136000,0.000000000,0.000000000,0.044640000,0.000000000,0.000000000,0.237664000,0.000000000,0.000000000,-0.044704000,0.000000000,0.000000000,1720621573.792551279,,,,,,,,,,,
1720621573.796323,0.028028000,0.000000000,0.000000000,-1.202509000,0.000000000,0.000000000,0.994136000,0.000000000,0.000000000,0.044640000,0.000000000,0.000000000,0.238592000,0.000000000,0.000000000,-0.043520000,0.000000000,0.000000000,1720621573.794551134,,,,,,,,,,,
1720621573.806123,0.028028000,0.000000000,0.000000000,-1.201970000,0.000000000,0.000000000,0.994136000,0.000000000,0.000000000,0.044640000,0.000000000,0.000000000,0.237792000,0.000000000,0.000000000,-0.043200000,0.000000000,0.000000000,1720621573.803551197,,,,,,,,,,,
1720621573.806415,0.028028000,0.000000000,0.000000000,-1.201970000,0.000000000,0.000000000,0.994136000,0.000000000,0.000000000,0.044640000,0.000000000,0.000000000,0.237792000,0.000000000,0.000000000,-0.043200000,0.000000000,0.000000000,1720621573.804551125,,,,,,,,,,,
1720621573.808528,0.028028000,0.000000000,0.000000000,-1.203587000,0.000000000,0.000000000,0.994136000,0.000000000,0.000000000,0.044640000,0.000000000,0.000000000,0.237536000,0.000000000,0.000000000,-0.045120000,0.000000000,0.000000000,1720621573.806551218,,,,,,,,,,,
1720621573.818037,0.028028000,0.000000000,0.000000000,-1.203587000,0.000000000,0.000000000,0.994136000,0.000000000,0.000000000,0.044640000,0.000000000,0.000000000,0.237792000,0.000000000,0.000000000,-0.044256000,0.000000000,0.000000000,1720621573.815551281,,,,,,,,,,,
1720621573.818196,0.028028000,0.000000000,0.000000000,-1.203587000,0.000000000,0.000000000,0.994136000,0.000000000,0.000000000,0.044640000,0.000000000,0.000000000,0.237792000,0.000000000,0.000000000,-0.044256000,0.000000000,0.000000000,1720621573.816551208,,,,,,,,,,,
1720621573.820347,0.028028000,0.000000000,0.000000000,-1.203587000,0.000000000,0.000000000,0.994136000,0.000000000,0.000000000,0.044640000,0.000000000,0.000000000,0.238240000,0.000000000,0.000000000,-0.043584000,0.000000000,0.000000000,1720621573.818551302,,,,,,,,,,,
1720621573.830000,0.028028000,0.000000000,0.000000000,-1.234310000,0.000000000,0.000000000,0.994136000,0.000000000,0.000000000,0.044640000,0.000000000,0.000000000,0.237728000,0.000000000,0.000000000,-0.044320000,0.000000000,0.000000000,1720621573.827551126,,,,,,,,,,,
1720621573.830509,0.028028000,0.000000000,0.000000000,-1.234310000,0.000000000,0.000000000,0.994136000,0.000000000,0.000000000,0.044640000,0.000000000,0.000000000,0.237728000,0.000000000,0.000000000,-0.044320000,0.000000000,0.000000000,1720621573.828551292,,,,,,,,,,,
1720621573.833623,0.028028000,0.000000000,0.000000000,-1.200892000,0.000000000,0.000000000,0.994136000,0.000000000,0.000000000,0.044640000,0.000000000,0.000000000,0.237536000,0.000000000,0.000000000,-0.044128000,0.000000000,0.000000000,1720621573.831551313,,,,,,,,,,,
1720621573.842216,0.028028000,0.000000000,0.000000000,-1.204665000,0.000000000,0.000000000,0.994136000,0.000000000,0.000000000,0.044640000,0.000000000,0.000000000,0.237536000,0.000000000,0.000000000,-0.044128000,0.000000000,0.000000000,1720621573.839551210,,,,,,,,,,,
1720621573.843096,0.028028000,0.000000000,0.000000000,-1.204665000,0.000000000,0.000000000,0.994136000,0.000000000,0.000000000,0.044640000,0.000000000,0.000000000,0.237536000,0.000000000,0.000000000,-0.044128000,0.000000000,0.000000000,1720621573.840551138,,,,,,,,,,,
1720621573.844812,0.028028000,0.000000000,0.000000000,-1.204665000,0.000000000,0.000000000,0.994136000,0.000000000,0.000000000,0.044640000,0.000000000,0.000000000,0.237376000,0.000000000,0.000000000,-0.043840000,0.000000000,0.000000000,1720621573.842551231,,,,,,,,,,,
1720621573.854144,0.028028000,0.000000000,0.000000000,-1.205204000,0.000000000,0.000000000,0.994136000,0.000000000,0.000000000,0.044640000,0.000000000,0.000000000,0.238240000,0.000000000,0.000000000,-0.043072000,0.000000000,0.000000000,1720621573.851551294,,,,,,,,,,,
1720621573.855132,0.028028000,0.000000000,0.000000000,-1.205204000,0.000000000,0.000000000,0.994136000,0.000000000,0.000000000,0.044640000,0.000000000,0.000000000,0.238240000,0.000000000,0.000000000,-0.043072000,0.000000000,0.000000000,1720621573.852551222,,,,,,,,,,,
1720621573.856699,0.028028000,0.000000000,0.000000000,-1.205204000,0.000000000,0.000000000,0.994136000,0.000000000,0.000000000,0.044640000,0.000000000,0.000000000,0.237600000,0.000000000,0.000000000,-0.045504000,0.000000000,0.000000000,1720621573.854551315,,,,,,,,,,,
1720621573.866184,0.028028000,0.000000000,0.000000000,-1.208977000,0.000000000,0.000000000,0.994136000,0.000000000,0.000000000,0.044640000,0.000000000,0.000000000,0.237536000,0.000000000,0.000000000,-0.044640000,0.000000000,0.000000000,1720621573.863551140,,,,,,,,,,,
1720621573.866554,0.028028000,0.000000000,0.000000000,-1.208977000,0.000000000,0.000000000,0.994136000,0.000000000,0.000000000,0.044640000,0.000000000,0.000000000,0.237536000,0.000000000,0.000000000,-0.044640000,0.000000000,0.000000000,1720621573.864551306,,,,,,,,,,,
1720621573.869823,0.028028000,0.000000000,0.000000000,-1.206282000,0.000000000,0.000000000,0.994136000,0.000000000,0.000000000,0.044640000,0.000000000,0.000000000,0.237600000,0.000000000,0.000000000,-0.044000000,0.000000000,0.000000000,1720621573.865551233,,,,,,,,,,,
1720621573.878279,0.028028000,0.000000000,0.000000000,-1.200892000,0.000000000,0.000000000,0.994136000,0.000000000,0.000000000,0.044704000,0.000000000,0.000000000,0.237792000,0.000000000,0.000000000,-0.043584000,0.000000000,0.000000000,1720621573.875551224,,,,,,,,,,,
1720621573.878744,0.028028000,0.000000000,0.000000000,-1.200892000,0.000000000,0.000000000,0.994136000,0.000000000,0.000000000,0.044704000,0.000000000,0.000000000,0.237792000,0.000000000,0.000000000,-0.043584000,0.000000000,0.000000000,1720621573.876551151,,,,,,,,,,,
1720621573.880387,0.028028000,0.000000000,0.000000000,-1.227303000,0.000000000,0.000000000,0.994136000,0.000000000,0.000000000,0.044320000,0.000000000,0.000000000,0.237376000,0.000000000,0.000000000,-0.044128000,0.000000000,0.000000000,1720621573.877551317,,,,,,,,,,,
1720621573.880404,0.028028000,0.000000000,0.000000000,-1.227303000,0.000000000,0.000000000,0.994136000,0.000000000,0.000000000,0.044320000,0.000000000,0.000000000,0.237376000,0.000000000,0.000000000,-0.044128000,0.000000000,0.000000000,1720621573.878551245,,,,,,,,,,,
1720621573.885205,0.028028000,0.000000000,0.000000000,-1.171786000,0.000000000,0.000000000,0.994136000,0.000000000,0.000000000,0.044704000,0.000000000,0.000000000,0.237312000,0.000000000,0.000000000,-0.044704000,0.000000000,0.000000000,1720621573.882551193,,,,,,,,,,,
1720621573.892728,0.028028000,0.000000000,0.000000000,-1.197119000,0.000000000,0.000000000,0.994136000,0.000000000,0.000000000,0.044704000,0.000000000,0.000000000,0.237856000,0.000000000,0.000000000,-0.044128000,0.000000000,0.000000000,1720621573.889551163,,,,,,,,,,,
1720621573.898855,0.028028000,0.000000000,0.000000000,-1.197119000,0.000000000,0.000000000,0.994136000,0.000000000,0.000000000,0.044704000,0.000000000,0.000000000,0.237856000,0.000000000,0.000000000,-0.044128000,0.000000000,0.000000000,1720621573.892551184,,,,,,,,,,,
1720621573.903412,0.027170000,0.000000000,0.000000000,-1.194963000,0.000000000,0.000000000,0.994136000,0.000000000,0.000000000,0.045056000,0.000000000,0.000000000,0.237600000,0.000000000,0.000000000,-0.043456000,0.000000000,0.000000000,1720621573.900551319,,,,,,,,,,,
1720621573.905509,0.027170000,0.000000000,0.000000000,-1.197119000,0.000000000,0.000000000,0.994136000,0.000000000,0.000000000,0.044704000,0.000000000,0.000000000,0.237312000,0.000000000,0.000000000,-0.044800000,0.000000000,0.000000000,1720621573.902551174,,,,,,,,,,,
1720621573.906275,0.027170000,0.000000000,0.000000000,-1.197119000,0.000000000,0.000000000,0.994136000,0.000000000,0.000000000,0.044704000,0.000000000,0.000000000,0.237312000,0.000000000,0.000000000,-0.044800000,0.000000000,0.000000000,1720621573.903551340,,,,,,,,,,,
1720621573.907042,0.027170000,0.000000000,0.000000000,-1.197119000,0.000000000,0.000000000,0.994136000,0.000000000,0.000000000,0.044704000,0.000000000,0.000000000,0.237312000,0.000000000,0.000000000,-0.044800000,0.000000000,0.000000000,1720621573.904551268,,,,,,,,,,,
1720621573.911007,0.027170000,0.000000000,0.000000000,-1.199275000,0.000000000,0.000000000,0.994136000,0.000000000,0.000000000,0.044704000,0.000000000,0.000000000,0.238240000,0.000000000,0.000000000,-0.043936000,0.000000000,0.000000000,1720621573.908551216,,,,,,,,,,,
1720621573.918108,0.028028000,0.000000000,0.000000000,-1.203587000,0.000000000,0.000000000,0.994136000,0.000000000,0.000000000,0.044704000,0.000000000,0.000000000,0.237920000,0.000000000,0.000000000,-0.044576000,0.000000000,0.000000000,1720621573.915551186,,,,,,,,,,,
1720621573.918915,0.028028000,0.000000000,0.000000000,-1.203587000,0.000000000,0.000000000,0.994136000,0.000000000,0.000000000,0.044704000,0.000000000,0.000000000,0.237920000,0.000000000,0.000000000,-0.044576000,0.000000000,0.000000000,1720621573.916551113,,,,,,,,,,,
1720621573.922913,0.028028000,0.000000000,0.000000000,-1.205204000,0.000000000,0.000000000,0.994136000,0.000000000,0.000000000,0.044704000,0.000000000,0.000000000,0.237856000,0.000000000,0.000000000,-0.042912000,0.000000000,0.000000000,1720621573.920551300,,,,,,,,,,,
1720621573.930192,0.028028000,0.000000000,0.000000000,-1.207899000,0.000000000,0.000000000,0.994136000,0.000000000,0.000000000,0.044704000,0.000000000,0.000000000,0.238048000,0.000000000,0.000000000,-0.043072000,0.000000000,0.000000000,1720621573.927551270,,,,,,,,,,,
1720621573.931516,0.028028000,0.000000000,0.000000000,-1.207899000,0.000000000,0.000000000,0.994136000,0.000000000,0.000000000,0.044704000,0.000000000,0.000000000,0.238048000,0.000000000,0.000000000,-0.043072000,0.000000000,0.000000000,1720621573.928551197,,,,,,,,,,,
1720621573.937871,0.027456000,0.000000000,0.000000000,-1.207899000,0.000000000,0.000000000,0.994136000,0.000000000,0.000000000,0.044800000,0.000000000,0.000000000,0.238240000,0.000000000,0.000000000,-0.043136000,0.000000000,0.000000000,1720621573.935551167,,,,,,,,,,,
1720621573.942929,0.027456000,0.000000000,0.000000000,-1.207360000,0.000000000,0.000000000,0.994136000,0.000000000,0.000000000,0.044800000,0.000000000,0.000000000,0.237312000,0.000000000,0.000000000,-0.044992000,0.000000000,0.000000000,1720621573.940551281,,,,,,,,,,,
1720621573.945380,0.027456000,0.000000000,0.000000000,-1.207360000,0.000000000,0.000000000,0.994136000,0.000000000,0.000000000,0.044704000,0.000000000,0.000000000,0.237792000,0.000000000,0.000000000,-0.044192000,0.000000000,0.000000000,1720621573.942551136,,,,,,,,,,,
1720621573.948910,0.027456000,0.000000000,0.000000000,-1.206282000,0.000000000,0.000000000,0.994136000,0.000000000,0.000000000,0.044704000,0.000000000,0.000000000,0.238112000,0.000000000,0.000000000,-0.044128000,0.000000000,0.000000000,1720621573.946551323,,,,,,,,,,,
1720621573.958336,0.028028000,0.000000000,0.000000000,-1.198197000,0.000000000,0.000000000,0.994136000,0.000000000,0.000000000,0.044800000,0.000000000,0.000000000,0.237984000,0.000000000,0.000000000,-0.044448000,0.000000000,0.000000000,1720621573.955551147,,,,,,,,,,,
1720621573.961926,0.028028000,0.000000000,0.000000000,-1.201970000,0.000000000,0.000000000,0.994136000,0.000000000,0.000000000,0.044704000,0.000000000,0.000000000,0.237664000,0.000000000,0.000000000,-0.043712000,0.000000000,0.000000000,1720621573.959551334,,,,,,,,,,,
1720621573.969093,0.028028000,0.000000000,0.000000000,-1.202509000,0.000000000,0.000000000,0.994136000,0.000000000,0.000000000,0.044704000,0.000000000,0.000000000,0.237856000,0.000000000,0.000000000,-0.044384000,0.000000000,0.000000000,1720621573.966551304,,,,,,,,,,,
1720621573.970208,0.028028000,0.000000000,0.000000000,-1.202509000,0.000000000,0.000000000,0.994136000,0.000000000,0.000000000,0.044704000,0.000000000,0.000000000,0.237856000,0.000000000,0.000000000,-0.044384000,0.000000000,0.000000000,1720621573.967551231,,,,,,,,,,,
1720621573.974042,0.027456000,0.000000000,0.000000000,-1.203587000,0.000000000,0.000000000,0.994136000,0.000000000,0.000000000,0.044704000,0.000000000,0.000000000,0.237536000,0.000000000,0.000000000,-0.043328000,0.000000000,0.000000000,1720621573.971551180,,,,,,,,,,,
1720621573.981317,0.027456000,0.000000000,0.000000000,-1.205204000,0.000000000,0.000000000,0.994136000,0.000000000,0.000000000,0.044704000,0.000000000,0.000000000,0.237920000,0.000000000,0.000000000,-0.043264000,0.000000000,0.000000000,1720621573.978551149,,,,,,,,,,,
1720621573.982134,0.027456000,0.000000000,0.000000000,-1.205204000,0.000000000,0.000000000,0.994136000,0.000000000,0.000000000,0.044704000,0.000000000,0.000000000,0.237920000,0.000000000,0.000000000,-0.043264000,0.000000000,0.000000000,1720621573.979551315,,,,,,,,,,,
1720621573.986240,0.028028000,0.000000000,0.000000000,-1.205204000,0.000000000,0.000000000,0.994136000,0.000000000,0.000000000,0.044704000,0.000000000,0.000000000,0.238112000,0.000000000,0.000000000,-0.044704000,0.000000000,0.000000000,1720621573.983551264,,,,,,,,,,,
1720621573.993119,0.028028000,0.000000000,0.000000000,-1.205204000,0.000000000,0.000000000,0.994136000,0.000000000,0.000000000,0.044800000,0.000000000,0.000000000,0.238048000,0.000000000,0.000000000,-0.044864000,0.000000000,0.000000000,1720621573.990551233,,,,,,,,,,,
1720621573.994263,0.028028000,0.000000000,0.000000000,-1.205204000,0.000000000,0.000000000,0.994136000,0.000000000,0.000000000,0.044800000,0.000000000,0.000000000,0.238048000,0.000000000,0.000000000,-0.044864000,0.000000000,0.000000000,1720621573.991551161,,,,,,,,,,,
1720621573.997962,0.028028000,0.000000000,0.000000000,-1.207899000,0.000000000,0.000000000,0.994136000,0.000000000,0.000000000,0.044800000,0.000000000,0.000000000,0.237792000,0.000000000,0.000000000,-0.043264000,0.000000000,0.000000000,1720621573.995551348,,,,,,,,,,,
1720621574.005773,0.027456000,0.000000000,0.000000000,-1.206282000,0.000000000,0.000000000,0.994136000,0.000000000,0.000000000,0.044800000,0.000000000,0.000000000,0.237856000,0.000000000,0.000000000,-0.042592000,0.000000000,0.000000000,1720621574.002551317,,,,,,,,,,,
1720621574.006308,0.027456000,0.000000000,0.000000000,-1.206282000,0.000000000,0.000000000,0.994136000,0.000000000,0.000000000,0.044800000,0.000000000,0.000000000,0.237856000,0.000000000,0.000000000,-0.042592000,0.000000000,0.000000000,1720621574.003551245,,,,,,,,,,,
1720621574.012945,0.027456000,0.000000000,0.000000000,-1.205204000,0.000000000,0.000000000,0.994136000,0.000000000,0.000000000,0.045056000,0.000000000,0.000000000,0.237792000,0.000000000,0.000000000,-0.042400000,0.000000000,0.000000000,1720621574.010551214,,,,,,,,,,,
1720621574.019248,0.028028000,0.000000000,0.000000000,-1.204665000,0.000000000,0.000000000,0.994136000,0.000000000,0.000000000,0.044704000,0.000000000,0.000000000,0.237856000,0.000000000,0.000000000,-0.045856000,0.000000000,0.000000000,1720621574.016551256,,,,,,,,,,,
1720621574.021116,0.028028000,0.000000000,0.000000000,-1.204665000,0.000000000,0.000000000,0.994136000,0.000000000,0.000000000,0.044448000,0.000000000,0.000000000,0.237792000,0.000000000,0.000000000,-0.042720000,0.000000000,0.000000000,1720621574.018551111,,,,,,,,,,,
1720621574.025283,0.028028000,0.000000000,0.000000000,-1.204665000,0.000000000,0.000000000,0.994136000,0.000000000,0.000000000,0.044800000,0.000000000,0.000000000,0.237728000,0.000000000,0.000000000,-0.045632000,0.000000000,0.000000000,1720621574.022551298,,,,,,,,,,,
1720621574.033206,0.028028000,0.000000000,0.000000000,-1.201970000,0.000000000,0.000000000,0.994136000,0.000000000,0.000000000,0.044800000,0.000000000,0.000000000,0.237792000,0.000000000,0.000000000,-0.045440000,0.000000000,0.000000000,1720621574.030551195,,,,,,,,,,,
1720621574.036953,0.028028000,0.000000000,0.000000000,-1.200892000,0.000000000,0.000000000,0.994136000,0.000000000,0.000000000,0.044800000,0.000000000,0.000000000,0.237856000,0.000000000,0.000000000,-0.043136000,0.000000000,0.000000000,1720621574.034551144,,,,,,,,,,,
1720621574.045746,0.027456000,0.000000000,0.000000000,-1.203587000,0.000000000,0.000000000,0.994136000,0.000000000,0.000000000,0.044800000,0.000000000,0.000000000,0.238336000,0.000000000,0.000000000,-0.043328000,0.000000000,0.000000000,1720621574.042551279,,,,,,,,,,,
1720621574.050124,0.027456000,0.000000000,0.000000000,-1.203587000,0.000000000,0.000000000,0.994136000,0.000000000,0.000000000,0.044800000,0.000000000,0.000000000,0.237920000,0.000000000,0.000000000,-0.045632000,0.000000000,0.000000000,1720621574.047551155,,,,,,,,,,,
1720621574.057280,0.028028000,0.000000000,0.000000000,-1.203587000,0.000000000,0.000000000,0.994136000,0.000000000,0.000000000,0.044800000,0.000000000,0.000000000,0.237856000,0.000000000,0.000000000,-0.045120000,0.000000000,0.000000000,1720621574.054551125,,,,,,,,,,,
1720621574.058634,0.028028000,0.000000000,0.000000000,-1.203587000,0.000000000,0.000000000,0.994136000,0.000000000,0.000000000,0.044800000,0.000000000,0.000000000,0.237856000,0.000000000,0.000000000,-0.045120000,0.000000000,0.000000000,1720621574.055551291,,,,,,,,,,,
1720621574.070094,0.028028000,0.000000000,0.000000000,-1.203587000,0.000000000,0.000000000,0.994136000,0.000000000,0.000000000,0.044448000,0.000000000,0.000000000,0.237920000,0.000000000,0.000000000,-0.044704000,0.000000000,0.000000000,1720621574.062551260,,,,,,,,,,,
1720621574.071316,0.028028000,0.000000000,0.000000000,-1.204665000,0.000000000,0.000000000,0.994136000,0.000000000,0.000000000,0.044800000,0.000000000,0.000000000,0.237376000,0.000000000,0.000000000,-0.043712000,0.000000000,0.000000000,1720621574.068551302,,,,,,,,,,,
1720621574.073193,0.028028000,0.000000000,0.000000000,-1.204665000,0.000000000,0.000000000,0.994136000,0.000000000,0.000000000,0.044800000,0.000000000,0.000000000,0.238656000,0.000000000,0.000000000,-0.044320000,0.000000000,0.000000000,1720621574.070551157,,,,,,,,,,,
1720621574.077091,0.028028000,0.000000000,0.000000000,-1.204665000,0.000000000,0.000000000,0.994136000,0.000000000,0.000000000,0.044800000,0.000000000,0.000000000,0.237920000,0.000000000,0.000000000,-0.044064000,0.000000000,0.000000000,1720621574.074551344,,,,,,,,,,,
1720621574.086094,0.028028000,0.000000000,0.000000000,-1.204665000,0.000000000,0.000000000,0.994136000,0.000000000,0.000000000,0.044800000,0.000000000,0.000000000,0.237536000,0.000000000,0.000000000,-0.044256000,0.000000000,0.000000000,1720621574.082551241,,,,,,,,,,,
1720621574.089401,0.028028000,0.000000000,0.000000000,-1.204665000,0.000000000,0.000000000,0.994136000,0.000000000,0.000000000,0.044800000,0.000000000,0.000000000,0.237856000,0.000000000,0.000000000,-0.044320000,0.000000000,0.000000000,1720621574.086551189,,,,,,,,,,,
1720621574.090937,0.028028000,0.000000000,0.000000000,-1.204665000,0.000000000,0.000000000,0.994136000,0.000000000,0.000000000,0.044800000,0.000000000,0.000000000,0.237856000,0.000000000,0.000000000,-0.044320000,0.000000000,0.000000000,1720621574.087551117,,,,,,,,,,,
1720621574.091360,0.028028000,0.000000000,0.000000000,-1.204665000,0.000000000,0.000000000,0.994136000,0.000000000,0.000000000,0.044800000,0.000000000,0.000000000,0.237856000,0.000000000,0.000000000,-0.044320000,0.000000000,0.000000000,1720621574.088551283,,,,,,,,,,,
1720621574.097270,0.028028000,0.000000000,0.000000000,-1.173403000,0.000000000,0.000000000,0.994136000,0.000000000,0.000000000,0.044704000,0.000000000,0.000000000,0.237856000,0.000000000,0.000000000,-0.044992000,0.000000000,0.000000000,1720621574.094551325,,,,,,,,,,,
1720621574.109259,0.028028000,0.000000000,0.000000000,-1.209516000,0.000000000,0.000000000,0.994136000,0.000000000,0.000000000,0.044800000,0.000000000,0.000000000,0.238176000,0.000000000,0.000000000,-0.045568000,0.000000000,0.000000000,1720621574.102551222,,,,,,,,,,,
1720621574.116705,0.028028000,0.000000000,0.000000000,-1.207360000,0.000000000,0.000000000,0.994136000,0.000000000,0.000000000,0.044704000,0.000000000,0.000000000,0.237728000,0.000000000,0.000000000,-0.043776000,0.000000000,0.000000000,1720621574.113551140,,,,,,,,,,,
1720621574.127157,0.028028000,0.000000000,0.000000000,-1.207360000,0.000000000,0.000000000,0.994136000,0.000000000,0.000000000,0.044800000,0.000000000,0.000000000,0.237728000,0.000000000,0.000000000,-0.043712000,0.000000000,0.000000000,1720621574.122551203,,,,,,,,,,,
1720621574.139313,0.028028000,0.000000000,0.000000000,-1.207360000,0.000000000,0.000000000,0.994136000,0.000000000,0.000000000,0.044800000,0.000000000,0.000000000,0.237856000,0.000000000,0.000000000,-0.043840000,0.000000000,0.000000000,1720621574.136551142,,,,,,,,,,,
1720621574.154251,0.028028000,0.000000000,0.000000000,-1.207360000,0.000000000,0.000000000,0.994136000,0.000000000,0.000000000,0.044704000,0.000000000,0.000000000,0.237792000,0.000000000,0.000000000,-0.044640000,0.000000000,0.000000000,1720621574.147551298,,,,,,,,,,,
1720621574.157269,0.028028000,0.000000000,0.000000000,-1.203587000,0.000000000,0.000000000,0.994136000,0.000000000,0.000000000,0.044704000,0.000000000,0.000000000,0.237792000,0.000000000,0.000000000,-0.044864000,0.000000000,0.000000000,1720621574.154551268,,,,,,,,,,,
1720621574.158365,0.028028000,0.000000000,0.000000000,-1.203587000,0.000000000,0.000000000,0.994136000,0.000000000,0.000000000,0.044704000,0.000000000,0.000000000,0.237792000,0.000000000,0.000000000,-0.044864000,0.000000000,0.000000000,1720621574.155551195,,,,,,,,,,,
1720621574.162248,0.028028000,0.000000000,0.000000000,-1.203587000,0.000000000,0.000000000,0.994136000,0.000000000,0.000000000,0.044704000,0.000000000,0.000000000,0.237792000,0.000000000,0.000000000,-0.043712000,0.000000000,0.000000000,1720621574.159551144,,,,,,,,,,,
1720621574.169501,0.028028000,0.000000000,0.000000000,-1.203587000,0.000000000,0.000000000,0.994136000,0.000000000,0.000000000,0.044704000,0.000000000,0.000000000,0.237856000,0.000000000,0.000000000,-0.044320000,0.000000000,0.000000000,1720621574.166551113,,,,,,,,,,,
1720621574.171014,0.028028000,0.000000000,0.000000000,-1.203587000,0.000000000,0.000000000,0.994136000,0.000000000,0.000000000,0.044704000,0.000000000,0.000000000,0.237856000,0.000000000,0.000000000,-0.044320000,0.000000000,0.000000000,1720621574.167551279,,,,,,,,,,,
1720621574.174360,0.028028000,0.000000000,0.000000000,-1.203587000,0.000000000,0.000000000,0.994136000,0.000000000,0.000000000,0.044704000,0.000000000,0.000000000,0.238176000,0.000000000,0.000000000,-0.044128000,0.000000000,0.000000000,1720621574.171551228,,,,,,,,,,,
1720621574.181460,0.028028000,0.000000000,0.000000000,-1.204665000,0.000000000,0.000000000,0.994136000,0.000000000,0.000000000,0.044800000,0.000000000,0.000000000,0.237376000,0.000000000,0.000000000,-0.044000000,0.000000000,0.000000000,1720621574.178551197,,,,,,,,,,,
1720621574.182002,0.028028000,0.000000000,0.000000000,-1.204665000,0.000000000,0.000000000,0.994136000,0.000000000,0.000000000,0.044800000,0.000000000,0.000000000,0.237376000,0.000000000,0.000000000,-0.044000000,0.000000000,0.000000000,1720621574.179551125,,,,,,,,,,,
1720621574.186343,0.028028000,0.000000000,0.000000000,-1.198197000,0.000000000,0.000000000,0.994136000,0.000000000,0.000000000,0.044704000,0.000000000,0.000000000,0.237792000,0.000000000,0.000000000,-0.044512000,0.000000000,0.000000000,1720621574.183551311,,,,,,,,,,,
1720621574.193052,0.028028000,0.000000000,0.000000000,-1.210594000,0.000000000,0.000000000,0.994136000,0.000000000,0.000000000,0.044640000,0.000000000,0.000000000,0.237792000,0.000000000,0.000000000,-0.045056000,0.000000000,0.000000000,1720621574.190551281,,,,,,,,,,,
1720621574.194046,0.028028000,0.000000000,0.000000000,-1.210594000,0.000000000,0.000000000,0.994136000,0.000000000,0.000000000,0.044640000,0.000000000,0.000000000,0.237792000,0.000000000,0.000000000,-0.045056000,0.000000000,0.000000000,1720621574.191551208,,,,,,,,,,,
1720621574.197987,0.028028000,0.000000000,0.000000000,-1.206282000,0.000000000,0.000000000,0.994136000,0.000000000,0.000000000,0.044704000,0.000000000,0.000000000,0.237664000,0.000000000,0.000000000,-0.043392000,0.000000000,0.000000000,1720621574.195551157,,,,,,,,,,,
1720621574.205722,0.028028000,0.000000000,0.000000000,-1.206282000,0.000000000,0.000000000,0.994136000,0.000000000,0.000000000,0.044704000,0.000000000,0.000000000,0.237792000,0.000000000,0.000000000,-0.043520000,0.000000000,0.000000000,1720621574.202551126,,,,,,,,,,,
1720621574.206883,0.028028000,0.000000000,0.000000000,-1.206282000,0.000000000,0.000000000,0.994136000,0.000000000,0.000000000,0.044704000,0.000000000,0.000000000,0.237792000,0.000000000,0.000000000,-0.043520000,0.000000000,0.000000000,1720621574.203551292,,,,,,,,,,,
1720621574.210878,0.028028000,0.000000000,0.000000000,-1.206282000,0.000000000,0.000000000,0.994136000,0.000000000,0.000000000,0.044704000,0.000000000,0.000000000,0.237920000,0.000000000,0.000000000,-0.045184000,0.000000000,0.000000000,1720621574.207551241,,,,,,,,,,,
1720621574.217777,0.028028000,0.000000000,0.000000000,-1.205204000,0.000000000,0.000000000,0.994136000,0.000000000,0.000000000,0.044704000,0.000000000,0.000000000,0.238240000,0.000000000,0.000000000,-0.045792000,0.000000000,0.000000000,1720621574.214551210,,,,,,,,,,,
1720621574.218502,0.028028000,0.000000000,0.000000000,-1.205204000,0.000000000,0.000000000,0.994136000,0.000000000,0.000000000,0.044704000,0.000000000,0.000000000,0.238240000,0.000000000,0.000000000,-0.045792000,0.000000000,0.000000000,1720621574.215551138,,,,,,,,,,,
1720621574.222358,0.028028000,0.000000000,0.000000000,-1.205204000,0.000000000,0.000000000,0.994136000,0.000000000,0.000000000,0.044704000,0.000000000,0.000000000,0.238048000,0.000000000,0.000000000,-0.043584000,0.000000000,0.000000000,1720621574.219551325,,,,,,,,,,,
1720621574.229673,0.028028000,0.000000000,0.000000000,-1.204665000,0.000000000,0.000000000,0.994136000,0.000000000,0.000000000,0.044704000,0.000000000,0.000000000,0.237536000,0.000000000,0.000000000,-0.044192000,0.000000000,0.000000000,1720621574.226551294,,,,,,,,,,,
1720621574.231082,0.028028000,0.000000000,0.000000000,-1.204665000,0.000000000,0.000000000,0.994136000,0.000000000,0.000000000,0.044704000,0.000000000,0.000000000,0.237536000,0.000000000,0.000000000,-0.044192000,0.000000000,0.000000000,1720621574.227551222,,,,,,,,,,,
1720621574.232489,0.028028000,0.000000000,0.000000000,-1.196580000,0.000000000,0.000000000,0.994136000,0.000000000,0.000000000,0.044704000,0.000000000,0.000000000,0.237920000,0.000000000,0.000000000,-0.044512000,0.000000000,0.000000000,1720621574.229551315,,,,,,,,,,,
1720621574.233733,0.028028000,0.000000000,0.000000000,-1.196580000,0.000000000,0.000000000,0.994136000,0.000000000,0.000000000,0.044704000,0.000000000,0.000000000,0.237920000,0.000000000,0.000000000,-0.044512000,0.000000000,0.000000000,1720621574.230551243,,,,,,,,,,,
1720621574.234532,0.028028000,0.000000000,0.000000000,-1.196580000,0.000000000,0.000000000,0.994136000,0.000000000,0.000000000,0.044704000,0.000000000,0.000000000,0.237920000,0.000000000,0.000000000,-0.044512000,0.000000000,0.000000000,1720621574.231551170,,,,,,,,,,,
1720621574.237455,0.028028000,0.000000000,0.000000000,-1.201970000,0.000000000,0.000000000,0.994136000,0.000000000,0.000000000,0.044704000,0.000000000,0.000000000,0.237184000,0.000000000,0.000000000,-0.043392000,0.000000000,0.000000000,1720621574.234551191,,,,,,,,,,,
1720621574.245774,0.028028000,0.000000000,0.000000000,-1.201970000,0.000000000,0.000000000,0.994136000,0.000000000,0.000000000,0.044704000,0.000000000,0.000000000,0.237792000,0.000000000,0.000000000,-0.043072000,0.000000000,0.000000000,1720621574.242551327,,,,,,,,,,,
1720621574.247040,0.028028000,0.000000000,0.000000000,-1.201970000,0.000000000,0.000000000,0.994136000,0.000000000,0.000000000,0.044704000,0.000000000,0.000000000,0.237792000,0.000000000,0.000000000,-0.043072000,0.000000000,0.000000000,1720621574.243551254,,,,,,,,,,,
1720621574.248272,0.028028000,0.000000000,0.000000000,-1.189573000,0.000000000,0.000000000,0.994136000,0.000000000,0.000000000,0.044704000,0.000000000,0.000000000,0.237728000,0.000000000,0.000000000,-0.045120000,0.000000000,0.000000000,1720621574.245551348,,,,,,,,,,,
1720621574.257753,0.028028000,0.000000000,0.000000000,-1.203587000,0.000000000,0.000000000,0.994136000,0.000000000,0.000000000,0.044704000,0.000000000,0.000000000,0.237376000,0.000000000,0.000000000,-0.044576000,0.000000000,0.000000000,1720621574.254551172,,,,,,,,,,,
1720621574.258465,0.028028000,0.000000000,0.000000000,-1.203587000,0.000000000,0.000000000,0.994136000,0.000000000,0.000000000,0.044704000,0.000000000,0.000000000,0.237376000,0.000000000,0.000000000,-0.044576000,0.000000000,0.000000000,1720621574.255551338,,,,,,,,,,,
1720621574.261625,0.028028000,0.000000000,0.000000000,-1.203587000,0.000000000,0.000000000,0.994136000,0.000000000,0.000000000,0.044704000,0.000000000,0.000000000,0.237376000,0.000000000,0.000000000,-0.043712000,0.000000000,0.000000000,1720621574.256551266,,,,,,,,,,,
1720621574.269983,0.028028000,0.000000000,0.000000000,-1.215984000,0.000000000,0.000000000,0.994136000,0.000000000,0.000000000,0.044704000,0.000000000,0.000000000,0.237920000,0.000000000,0.000000000,-0.043840000,0.000000000,0.000000000,1720621574.266551256,,,,,,,,,,,
1720621574.271066,0.028028000,0.000000000,0.000000000,-1.215984000,0.000000000,0.000000000,0.994136000,0.000000000,0.000000000,0.044704000,0.000000000,0.000000000,0.237920000,0.000000000,0.000000000,-0.043840000,0.000000000,0.000000000,1720621574.267551184,,,,,,,,,,,
1720621574.272302,0.028028000,0.000000000,0.000000000,-1.207899000,0.000000000,0.000000000,0.994136000,0.000000000,0.000000000,0.044800000,0.000000000,0.000000000,0.237920000,0.000000000,0.000000000,-0.044512000,0.000000000,0.000000000,1720621574.269551277,,,,,,,,,,,
1720621574.284073,0.028028000,0.000000000,0.000000000,-1.219218000,0.000000000,0.000000000,0.994136000,0.000000000,0.000000000,0.044800000,0.000000000,0.000000000,0.238112000,0.000000000,0.000000000,-0.044128000,0.000000000,0.000000000,1720621574.281551123,,,,,,,,,,,
1720621574.292556,0.028028000,0.000000000,0.000000000,-1.210594000,0.000000000,0.000000000,0.994136000,0.000000000,0.000000000,0.044800000,0.000000000,0.000000000,0.238176000,0.000000000,0.000000000,-0.043264000,0.000000000,0.000000000,1720621574.289551258,,,,,,,,,,,
1720621574.302092,0.028028000,0.000000000,0.000000000,-1.207899000,0.000000000,0.000000000,0.994136000,0.000000000,0.000000000,0.044800000,0.000000000,0.000000000,0.237728000,0.000000000,0.000000000,-0.043008000,0.000000000,0.000000000,1720621574.298551321,,,,,,,,,,,
1720621574.302527,0.028028000,0.000000000,0.000000000,-1.207899000,0.000000000,0.000000000,0.994136000,0.000000000,0.000000000,0.044800000,0.000000000,0.000000000,0.237728000,0.000000000,0.000000000,-0.043008000,0.000000000,0.000000000,1720621574.299551249,,,,,,,,,,,
1720621574.304518,0.028028000,0.000000000,0.000000000,-1.207360000,0.000000000,0.000000000,0.994136000,0.000000000,0.000000000,0.044800000,0.000000000,0.000000000,0.237312000,0.000000000,0.000000000,-0.045056000,0.000000000,0.000000000,1720621574.301551342,,,,,,,,,,,
1720621574.314220,0.028028000,0.000000000,0.000000000,-1.206282000,0.000000000,0.000000000,0.994136000,0.000000000,0.000000000,0.044704000,0.000000000,0.000000000,0.238176000,0.000000000,0.000000000,-0.045376000,0.000000000,0.000000000,1720621574.310551167,,,,,,,,,,,
1720621574.314630,0.028028000,0.000000000,0.000000000,-1.206282000,0.000000000,0.000000000,0.994136000,0.000000000,0.000000000,0.044704000,0.000000000,0.000000000,0.238176000,0.000000000,0.000000000,-0.045376000,0.000000000,0.000000000,1720621574.311551332,,,,,,,,,,,
1720621574.317053,0.028028000,0.000000000,0.000000000,-1.205204000,0.000000000,0.000000000,0.994136000,0.000000000,0.000000000,0.044704000,0.000000000,0.000000000,0.238048000,0.000000000,0.000000000,-0.043008000,0.000000000,0.000000000,1720621574.313551188,,,,,,,,,,,
1720621574.326061,0.028028000,0.000000000,0.000000000,-1.204665000,0.000000000,0.000000000,0.994136000,0.000000000,0.000000000,0.044704000,0.000000000,0.000000000,0.237792000,0.000000000,0.000000000,-0.042848000,0.000000000,0.000000000,1720621574.322551250,,,,,,,,,,,
1720621574.326922,0.028028000,0.000000000,0.000000000,-1.204665000,0.000000000,0.000000000,0.994136000,0.000000000,0.000000000,0.044704000,0.000000000,0.000000000,0.237792000,0.000000000,0.000000000,-0.042848000,0.000000000,0.000000000,1720621574.323551178,,,,,,,,,,,
1720621574.328989,,,,,,,,,,,,,,,,,,,,1720621574.322551250,-1.186824000,3.141592654,0.000000015,0.829037542,-0.000000022,-0.000000054,0.559192949,1.395152983,0.001110973,1.481517837
1720621574.329876,0.028028000,0.000000000,0.000000000,-1.203587000,0.000000000,0.000000000,0.994136000,0.000000000,0.000000000,0.044704000,0.000000000,0.000000000,0.237792000,0.000000000,0.000000000,-0.045056000,0.000000000,0.000000000,1720621574.326551199,,,,,,,,,,,
1720621574.337977,0.028028000,0.000000000,0.000000000,-1.203587000,0.000000000,0.000000000,0.994136000,0.000000000,0.000000000,0.044704000,0.000000000,0.000000000,0.237664000,0.000000000,0.000000000,-0.044800000,0.000000000,0.000000000,1720621574.334551334,,,,,,,,,,,
1720621574.338745,0.028028000,0.000000000,0.000000000,-1.203587000,0.000000000,0.000000000,0.994136000,0.000000000,0.000000000,0.044704000,0.000000000,0.000000000,0.237664000,0.000000000,0.000000000,-0.044800000,0.000000000,0.000000000,1720621574.335551262,,,,,,,,,,,
1720621574.341993,0.028028000,0.000000000,0.000000000,-1.203587000,0.000000000,0.000000000,0.994136000,0.000000000,0.000000000,0.044704000,0.000000000,0.000000000,0.237792000,0.000000000,0.000000000,-0.043136000,0.000000000,0.000000000,1720621574.338551283,,,,,,,,,,,
1720621574.349978,0.028028000,0.000000000,0.000000000,-1.204665000,0.000000000,0.000000000,0.994136000,0.000000000,0.000000000,0.044704000,0.000000000,0.000000000,0.237792000,0.000000000,0.000000000,-0.043392000,0.000000000,0.000000000,1720621574.346551180,,,,,,,,,,,
1720621574.351225,0.028028000,0.000000000,0.000000000,-1.204665000,0.000000000,0.000000000,0.994136000,0.000000000,0.000000000,0.044704000,0.000000000,0.000000000,0.237792000,0.000000000,0.000000000,-0.043392000,0.000000000,0.000000000,1720621574.347551346,,,,,,,,,,,
1720621574.352536,0.028028000,0.000000000,0.000000000,-1.204665000,0.000000000,0.000000000,0.994136000,0.000000000,0.000000000,0.044704000,0.000000000,0.000000000,0.237920000,0.000000000,0.000000000,-0.044800000,0.000000000,0.000000000,1720621574.349551201,,,,,,,,,,,
1720621574.362221,0.028028000,0.000000000,0.000000000,-1.217062000,0.000000000,0.000000000,0.994136000,0.000000000,0.000000000,0.044704000,0.000000000,0.000000000,0.237792000,0.000000000,0.000000000,-0.045056000,0.000000000,0.000000000,1720621574.358551264,,,,,,,,,,,
1720621574.362662,0.028028000,0.000000000,0.000000000,-1.217062000,0.000000000,0.000000000,0.994136000,0.000000000,0.000000000,0.044704000,0.000000000,0.000000000,0.237792000,0.000000000,0.000000000,-0.045056000,0.000000000,0.000000000,1720621574.359551191,,,,,,,,,,,
1720621574.365818,0.028028000,0.000000000,0.000000000,-1.207360000,0.000000000,0.000000000,0.994136000,0.000000000,0.000000000,0.044704000,0.000000000,0.000000000,0.237856000,0.000000000,0.000000000,-0.043584000,0.000000000,0.000000000,1720621574.360551119,,,,,,,,,,,
1720621574.374051,0.028028000,0.000000000,0.000000000,-1.210594000,0.000000000,0.000000000,0.994136000,0.000000000,0.000000000,0.044704000,0.000000000,0.000000000,0.237856000,0.000000000,0.000000000,-0.043392000,0.000000000,0.000000000,1720621574.370551348,,,,,,,,,,,
1720621574.374873,0.028028000,0.000000000,0.000000000,-1.210594000,0.000000000,0.000000000,0.994136000,0.000000000,0.000000000,0.044704000,0.000000000,0.000000000,0.237856000,0.000000000,0.000000000,-0.043392000,0.000000000,0.000000000,1720621574.371551275,,,,,,,,,,,
1720621574.376336,0.028028000,0.000000000,0.000000000,-1.207360000,0.000000000,0.000000000,0.994136000,0.000000000,0.000000000,0.044704000,0.000000000,0.000000000,0.237248000,0.000000000,0.000000000,-0.045056000,0.000000000,0.000000000,1720621574.372551203,,,,,,,,,,,
1720621574.377080,0.028028000,0.000000000,0.000000000,-1.207360000,0.000000000,0.000000000,0.994136000,0.000000000,0.000000000,0.044704000,0.000000000,0.000000000,0.237248000,0.000000000,0.000000000,-0.045056000,0.000000000,0.000000000,1720621574.373551130,,,,,,,,,,,
1720621574.379156,,,,,,,,,,,,,,,,,,,,1720621574.372551203,-1.186824000,3.141592654,0.000000015,0.829037542,-0.000000022,-0.000000054,0.559192949,1.395152983,0.001110973,1.481517837
1720621574.380817,0.028028000,0.000000000,0.000000000,-1.207360000,0.000000000,0.000000000,0.994136000,0.000000000,0.000000000,0.044704000,0.000000000,0.000000000,0.237728000,0.000000000,0.000000000,-0.043328000,0.000000000,0.000000000,1720621574.377551317,,,,,,,,,,,
1720621574.388409,0.028028000,0.000000000,0.000000000,-1.207360000,0.000000000,0.000000000,0.994136000,0.000000000,0.000000000,0.045056000,0.000000000,0.000000000,0.237248000,0.000000000,0.000000000,-0.044928000,0.000000000,0.000000000,1720621574.384551287,,,,,,,,,,,
1720621574.388444,0.028028000,0.000000000,0.000000000,-1.207360000,0.000000000,0.000000000,0.994136000,0.000000000,0.000000000,0.045056000,0.000000000,0.000000000,0.237248000,0.000000000,0.000000000,-0.044928000,0.000000000,0.000000000,1720621574.385551214,,,,,,,,,,,
1720621574.392698,0.028028000,0.000000000,0.000000000,-1.213289000,0.000000000,0.000000000,0.994136000,0.000000000,0.000000000,0.044704000,0.000000000,0.000000000,0.238048000,0.000000000,0.000000000,-0.043008000,0.000000000,0.000000000,1720621574.389551163,,,,,,,,,,,
1720621574.400518,0.028028000,0.000000000,0.000000000,-1.213289000,0.000000000,0.000000000,0.994136000,0.000000000,0.000000000,0.044704000,0.000000000,0.000000000,0.237472000,0.000000000,0.000000000,-0.043712000,0.000000000,0.000000000,1720621574.396551132,,,,,,,,,,,
1720621574.407173,0.028028000,0.000000000,0.000000000,-1.213289000,0.000000000,0.000000000,0.994136000,0.000000000,0.000000000,0.044704000,0.000000000,0.000000000,0.237472000,0.000000000,0.000000000,-0.043712000,0.000000000,0.000000000,1720621574.399551153,,,,,,,,,,,
1720621574.412437,0.028028000,0.000000000,0.000000000,-1.207899000,0.000000000,0.000000000,0.994136000,0.000000000,0.000000000,0.044640000,0.000000000,0.000000000,0.237728000,0.000000000,0.000000000,-0.044704000,0.000000000,0.000000000,1720621574.408551216,,,,,,,,,,,
1720621574.422153,0.028028000,0.000000000,0.000000000,-1.207899000,0.000000000,0.000000000,0.994136000,0.000000000,0.000000000,0.044384000,0.000000000,0.000000000,0.237376000,0.000000000,0.000000000,-0.044384000,0.000000000,0.000000000,1720621574.418551207,,,,,,,,,,,
1720621574.422836,0.028028000,0.000000000,0.000000000,-1.207899000,0.000000000,0.000000000,0.994136000,0.000000000,0.000000000,0.044384000,0.000000000,0.000000000,0.237376000,0.000000000,0.000000000,-0.044384000,0.000000000,0.000000000,1720621574.419551134,,,,,,,,,,,
1720621574.424958,0.028028000,0.000000000,0.000000000,-1.207360000,0.000000000,0.000000000,0.994136000,0.000000000,0.000000000,0.044800000,0.000000000,0.000000000,0.237472000,0.000000000,0.000000000,-0.043936000,0.000000000,0.000000000,1720621574.421551228,,,,,,,,,,,
1720621574.425985,0.028028000,0.000000000,0.000000000,-1.207360000,0.000000000,0.000000000,0.994136000,0.000000000,0.000000000,0.044800000,0.000000000,0.000000000,0.237472000,0.000000000,0.000000000,-0.043936000,0.000000000,0.000000000,1720621574.422551155,,,,,,,,,,,
1720621574.428359,0.028028000,0.000000000,0.000000000,-1.207360000,0.000000000,0.000000000,0.994136000,0.000000000,0.000000000,0.044800000,0.000000000,0.000000000,0.237472000,0.000000000,0.000000000,-0.043936000,0.000000000,0.000000000,1720621574.423551321,,,,,,,,,,,
1720621574.429131,,,,,,,,,,,,,,,,,,,,1720621574.422551155,-1.186824000,3.141592654,0.000000015,0.829037542,-0.000000022,-0.000000054,0.559192949,1.395152983,0.001110973,1.481517837
1720621574.438869,0.028028000,0.000000000,0.000000000,-1.200892000,0.000000000,0.000000000,0.994136000,0.000000000,0.000000000,0.044800000,0.000000000,0.000000000,0.237536000,0.000000000,0.000000000,-0.044256000,0.000000000,0.000000000,1720621574.433551311,,,,,,,,,,,
1720621574.449730,0.028028000,0.000000000,0.000000000,-1.200892000,0.000000000,0.000000000,0.994136000,0.000000000,0.000000000,0.044704000,0.000000000,0.000000000,0.237376000,0.000000000,0.000000000,-0.044704000,0.000000000,0.000000000,1720621574.446551323,,,,,,,,,,,
1720621574.458925,0.028028000,0.000000000,0.000000000,-1.201970000,0.000000000,0.000000000,0.994136000,0.000000000,0.000000000,0.044704000,0.000000000,0.000000000,0.237728000,0.000000000,0.000000000,-0.044000000,0.000000000,0.000000000,1720621574.453551292,,,,,,,,,,,
1720621574.468467,0.028028000,0.000000000,0.000000000,-1.203587000,0.000000000,0.000000000,0.994136000,0.000000000,0.000000000,0.044704000,0.000000000,0.000000000,0.237920000,0.000000000,0.000000000,-0.044192000,0.000000000,0.000000000,1720621574.464551210,,,,,,,,,,,
1720621574.481074,0.028028000,0.000000000,0.000000000,-1.205204000,0.000000000,0.000000000,0.994136000,0.000000000,0.000000000,0.044704000,0.000000000,0.000000000,0.237920000,0.000000000,0.000000000,-0.043520000,0.000000000,0.000000000,1720621574.477551222,,,,,,,,,,,
1720621574.488305,0.028028000,0.000000000,0.000000000,-1.210594000,0.000000000,0.000000000,0.994136000,0.000000000,0.000000000,0.044704000,0.000000000,0.000000000,0.237376000,0.000000000,0.000000000,-0.044640000,0.000000000,0.000000000,1720621574.484551191,,,,,,,,,,,
1720621574.489085,,,,,,,,,,,,,,,,,,,,1720621574.477551222,-1.186824000,3.141592654,0.000000015,0.829037542,-0.000000022,-0.000000054,0.559192949,1.395152983,0.001110973,1.481517837
1720621574.500872,0.028028000,0.000000000,0.000000000,-1.207360000,0.000000000,0.000000000,0.994136000,0.000000000,0.000000000,0.044704000,0.000000000,0.000000000,0.237792000,0.000000000,0.000000000,-0.044128000,0.000000000,0.000000000,1720621574.497551203,,,,,,,,,,,
1720621574.508434,0.028028000,0.000000000,0.000000000,-1.206282000,0.000000000,0.000000000,0.994136000,0.000000000,0.000000000,0.044704000,0.000000000,0.000000000,0.237792000,0.000000000,0.000000000,-0.044576000,0.000000000,0.000000000,1720621574.504551172,,,,,,,,,,,
1720621574.518873,0.028028000,0.000000000,0.000000000,-1.202509000,0.000000000,0.000000000,0.994136000,0.000000000,0.000000000,0.044704000,0.000000000,0.000000000,0.237376000,0.000000000,0.000000000,-0.044256000,0.000000000,0.000000000,1720621574.513551235,,,,,,,,,,,
1720621574.530096,0.028028000,0.000000000,0.000000000,-1.201970000,0.000000000,0.000000000,0.994136000,0.000000000,0.000000000,0.044704000,0.000000000,0.000000000,0.237120000,0.000000000,0.000000000,-0.044320000,0.000000000,0.000000000,1720621574.526551247,,,,,,,,,,,
1720621574.537938,0.028028000,0.000000000,0.000000000,-1.210594000,0.000000000,0.000000000,0.994136000,0.000000000,0.000000000,0.044704000,0.000000000,0.000000000,0.237600000,0.000000000,0.000000000,-0.044064000,0.000000000,0.000000000,1720621574.534551144,,,,,,,,,,,
1720621574.539119,,,,,,,,,,,,,,,,,,,,1720621574.534551144,-1.186824000,3.141592654,0.000000015,0.829037542,-0.000000022,-0.000000054,0.559192949,1.395152983,0.001110973,1.481517837
1720621574.551023,0.027170000,0.000000000,0.000000000,-1.207360000,0.000000000,0.000000000,0.994136000,0.000000000,0.000000000,0.044640000,0.000000000,0.000000000,0.236864000,0.000000000,0.000000000,-0.043776000,0.000000000,0.000000000,1720621574.547551155,,,,,,,,,,,
1720621574.558245,0.027170000,0.000000000,0.000000000,-1.207360000,0.000000000,0.000000000,0.994136000,0.000000000,0.000000000,0.044640000,0.000000000,0.000000000,0.237728000,0.000000000,0.000000000,-0.043392000,0.000000000,0.000000000,1720621574.554551125,,,,,,,,,,,
1720621574.559182,0.027170000,0.000000000,0.000000000,-1.207360000,0.000000000,0.000000000,0.994136000,0.000000000,0.000000000,0.044640000,0.000000000,0.000000000,0.237728000,0.000000000,0.000000000,-0.043392000,0.000000000,0.000000000,1720621574.555551291,,,,,,,,,,,
1720621574.563167,0.027170000,0.000000000,0.000000000,-1.207360000,0.000000000,0.000000000,0.994136000,0.000000000,0.000000000,0.044640000,0.000000000,0.000000000,0.237056000,0.000000000,0.000000000,-0.045312000,0.000000000,0.000000000,1720621574.559551239,,,,,,,,,,,
1720621574.570351,0.027170000,0.000000000,0.000000000,-1.206282000,0.000000000,0.000000000,0.994136000,0.000000000,0.000000000,0.044384000,0.000000000,0.000000000,0.238048000,0.000000000,0.000000000,-0.045184000,0.000000000,0.000000000,1720621574.566551208,,,,,,,,,,,
1720621574.571158,0.027170000,0.000000000,0.000000000,-1.206282000,0.000000000,0.000000000,0.994136000,0.000000000,0.000000000,0.044384000,0.000000000,0.000000000,0.238048000,0.000000000,0.000000000,-0.045184000,0.000000000,0.000000000,1720621574.567551136,,,,,,,,,,,
1720621574.582185,0.027170000,0.000000000,0.000000000,-1.204665000,0.000000000,0.000000000,0.994136000,0.000000000,0.000000000,0.044640000,0.000000000,0.000000000,0.237856000,0.000000000,0.000000000,-0.044576000,0.000000000,0.000000000,1720621574.573551178,,,,,,,,,,,
1720621574.583172,0.027170000,0.000000000,0.000000000,-1.203587000,0.000000000,0.000000000,0.994136000,0.000000000,0.000000000,0.044704000,0.000000000,0.000000000,0.237792000,0.000000000,0.000000000,-0.043840000,0.000000000,0.000000000,1720621574.579551220,,,,,,,,,,,
1720621574.585222,0.027170000,0.000000000,0.000000000,-1.200892000,0.000000000,0.000000000,0.994136000,0.000000000,0.000000000,0.044704000,0.000000000,0.000000000,0.237856000,0.000000000,0.000000000,-0.044320000,0.000000000,0.000000000,1720621574.581551313,,,,,,,,,,,
1720621574.588920,0.027170000,0.000000000,0.000000000,-1.201970000,0.000000000,0.000000000,0.994136000,0.000000000,0.000000000,0.044800000,0.000000000,0.000000000,0.237376000,0.000000000,0.000000000,-0.043776000,0.000000000,0.000000000,1720621574.585551262,,,,,,,,,,,
1720621574.599163,,,,,,,,,,,,,,,,,,,,1720621574.585551262,-1.186824000,3.141592654,0.000000015,0.829037542,-0.000000022,-0.000000054,0.559192949,1.395152983,0.001110973,1.481517837
1720621574.602020,0.027170000,0.000000000,0.000000000,-1.211672000,0.000000000,0.000000000,0.994136000,0.000000000,0.000000000,0.044800000,0.000000000,0.000000000,0.237728000,0.000000000,0.000000000,-0.043840000,0.000000000,0.000000000,1720621574.593551159,,,,,,,,,,,
1720621574.608440,0.027170000,0.000000000,0.000000000,-1.205204000,0.000000000,0.000000000,0.994136000,0.000000000,0.000000000,0.044800000,0.000000000,0.000000000,0.237856000,0.000000000,0.000000000,-0.044640000,0.000000000,0.000000000,1720621574.604551315,,,,,,,,,,,
1720621574.609043,0.027170000,0.000000000,0.000000000,-1.205204000,0.000000000,0.000000000,0.994136000,0.000000000,0.000000000,0.044800000,0.000000000,0.000000000,0.237856000,0.000000000,0.000000000,-0.044640000,0.000000000,0.000000000,1720621574.605551243,,,,,,,,,,,
1720621574.610295,0.027170000,0.000000000,0.000000000,-1.205204000,0.000000000,0.000000000,0.994136000,0.000000000,0.000000000,0.044800000,0.000000000,0.000000000,0.237856000,0.000000000,0.000000000,-0.044640000,0.000000000,0.000000000,1720621574.606551170,,,,,,,,,,,
1720621574.614666,0.027170000,0.000000000,0.000000000,-1.212211000,0.000000000,0.000000000,0.994136000,0.000000000,0.000000000,0.044704000,0.000000000,0.000000000,0.237728000,0.000000000,0.000000000,-0.044256000,0.000000000,0.000000000,1720621574.610551119,,,,,,,,,,,
1720621574.621271,0.027170000,0.000000000,0.000000000,-1.209516000,0.000000000,0.000000000,0.994136000,0.000000000,0.000000000,0.044704000,0.000000000,0.000000000,0.237664000,0.000000000,0.000000000,-0.044928000,0.000000000,0.000000000,1720621574.617551327,,,,,,,,,,,
1720621574.622264,0.027170000,0.000000000,0.000000000,-1.209516000,0.000000000,0.000000000,0.994136000,0.000000000,0.000000000,0.044704000,0.000000000,0.000000000,0.237664000,0.000000000,0.000000000,-0.044928000,0.000000000,0.000000000,1720621574.618551254,,,,,,,,,,,
1720621574.626021,0.027170000,0.000000000,0.000000000,-1.207360000,0.000000000,0.000000000,0.994136000,0.000000000,0.000000000,0.044704000,0.000000000,0.000000000,0.237728000,0.000000000,0.000000000,-0.043328000,0.000000000,0.000000000,1720621574.622551203,,,,,,,,,,,
1720621574.633363,0.027170000,0.000000000,0.000000000,-1.206282000,0.000000000,0.000000000,0.994136000,0.000000000,0.000000000,0.044704000,0.000000000,0.000000000,0.238048000,0.000000000,0.000000000,-0.042848000,0.000000000,0.000000000,1720621574.629551172,,,,,,,,,,,
1720621574.634737,0.027170000,0.000000000,0.000000000,-1.206282000,0.000000000,0.000000000,0.994136000,0.000000000,0.000000000,0.044704000,0.000000000,0.000000000,0.238048000,0.000000000,0.000000000,-0.042848000,0.000000000,0.000000000,1720621574.630551338,,,,,,,,,,,
1720621574.638178,0.027170000,0.000000000,0.000000000,-1.202509000,0.000000000,0.000000000,0.994136000,0.000000000,0.000000000,0.045056000,0.000000000,0.000000000,0.237664000,0.000000000,0.000000000,-0.045056000,0.000000000,0.000000000,1720621574.634551287,,,,,,,,,,,
1720621574.645650,0.027170000,0.000000000,0.000000000,-1.201970000,0.000000000,0.000000000,0.994136000,0.000000000,0.000000000,0.044704000,0.000000000,0.000000000,0.236864000,0.000000000,0.000000000,-0.045440000,0.000000000,0.000000000,1720621574.641551256,,,,,,,,,,,
1720621574.646258,0.027170000,0.000000000,0.000000000,-1.201970000,0.000000000,0.000000000,0.994136000,0.000000000,0.000000000,0.044704000,0.000000000,0.000000000,0.236864000,0.000000000,0.000000000,-0.045440000,0.000000000,0.000000000,1720621574.642551184,,,,,,,,,,,
1720621574.649105,,,,,,,,,,,,,,,,,,,,1720621574.641551256,-1.186824000,3.141592654,0.000000015,0.829037542,-0.000000022,-0.000000054,0.559192949,1.395152983,0.001110973,1.481517837
1720621574.651074,0.027170000,0.000000000,0.000000000,-1.201970000,0.000000000,0.000000000,0.994136000,0.000000000,0.000000000,0.044704000,0.000000000,0.000000000,0.237376000,0.000000000,0.000000000,-0.042720000,0.000000000,0.000000000,1720621574.647551298,,,,,,,,,,,
1720621574.658854,0.027170000,0.000000000,0.000000000,-1.201970000,0.000000000,0.000000000,0.994136000,0.000000000,0.000000000,0.044704000,0.000000000,0.000000000,0.237920000,0.000000000,0.000000000,-0.043328000,0.000000000,0.000000000,1720621574.654551268,,,,,,,,,,,
1720621574.659136,0.027170000,0.000000000,0.000000000,-1.201970000,0.000000000,0.000000000,0.994136000,0.000000000,0.000000000,0.044704000,0.000000000,0.000000000,0.237920000,0.000000000,0.000000000,-0.043328000,0.000000000,0.000000000,1720621574.655551195,,,,,,,,,,,
1720621574.665272,0.027170000,0.000000000,0.000000000,-1.203587000,0.000000000,0.000000000,0.994136000,0.000000000,0.000000000,0.044704000,0.000000000,0.000000000,0.237792000,0.000000000,0.000000000,-0.043840000,0.000000000,0.000000000,1720621574.661551237,,,,,,,,,,,
1720621574.672284,0.027170000,0.000000000,0.000000000,-1.204665000,0.000000000,0.000000000,0.994136000,0.000000000,0.000000000,0.044704000,0.000000000,0.000000000,0.237312000,0.000000000,0.000000000,-0.044448000,0.000000000,0.000000000,1720621574.667551279,,,,,,,,,,,
1720621574.681584,0.027170000,0.000000000,0.000000000,-1.205204000,0.000000000,0.000000000,0.994136000,0.000000000,0.000000000,0.044704000,0.000000000,0.000000000,0.237664000,0.000000000,0.000000000,-0.044512000,0.000000000,0.000000000,1720621574.677551270,,,,,,,,,,,
1720621574.682439,0.027170000,0.000000000,0.000000000,-1.205204000,0.000000000,0.000000000,0.994136000,0.000000000,0.000000000,0.044704000,0.000000000,0.000000000,0.237664000,0.000000000,0.000000000,-0.044512000,0.000000000,0.000000000,1720621574.678551197,,,,,,,,,,,
1720621574.683085,0.027170000,0.000000000,0.000000000,-1.205204000,0.000000000,0.000000000,0.994136000,0.000000000,0.000000000,0.044704000,0.000000000,0.000000000,0.237664000,0.000000000,0.000000000,-0.044512000,0.000000000,0.000000000,1720621574.679551125,,,,,,,,,,,
1720621574.685587,0.027170000,0.000000000,0.000000000,-1.205204000,0.000000000,0.000000000,0.994136000,0.000000000,0.000000000,0.044704000,0.000000000,0.000000000,0.237856000,0.000000000,0.000000000,-0.043456000,0.000000000,0.000000000,1720621574.681551218,,,,,,,,,,,
1720621574.689219,0.027170000,0.000000000,0.000000000,-1.236466000,0.000000000,0.000000000,0.994136000,0.000000000,0.000000000,0.044704000,0.000000000,0.000000000,0.237728000,0.000000000,0.000000000,-0.044928000,0.000000000,0.000000000,1720621574.685551167,,,,,,,,,,,
1720621574.697871,0.027170000,0.000000000,0.000000000,-1.204665000,0.000000000,0.000000000,0.994136000,0.000000000,0.000000000,0.044704000,0.000000000,0.000000000,0.238528000,0.000000000,0.000000000,-0.044256000,0.000000000,0.000000000,1720621574.693551302,,,,,,,,,,,
1720621574.699001,,,,,,,,,,,,,,,,,,,,1720621574.693551302,-1.186824000,3.141592654,0.000000015,0.829037542,-0.000000022,-0.000000054,0.559192949,1.395152983,0.001110973,1.481517837
1720621574.701000,0.027170000,0.000000000,0.000000000,-1.204665000,0.000000000,0.000000000,0.994136000,0.000000000,0.000000000,0.044704000,0.000000000,0.000000000,0.237600000,0.000000000,0.000000000,-0.044128000,0.000000000,0.000000000,1720621574.697551250,,,,,,,,,,,
1720621574.709727,0.027170000,0.000000000,0.000000000,-1.203587000,0.000000000,0.000000000,0.994136000,0.000000000,0.000000000,0.044704000,0.000000000,0.000000000,0.237792000,0.000000000,0.000000000,-0.044384000,0.000000000,0.000000000,1720621574.705551147,,,,,,,,,,,
1720621574.713365,0.027170000,0.000000000,0.000000000,-1.203587000,0.000000000,0.000000000,0.994136000,0.000000000,0.000000000,0.044704000,0.000000000,0.000000000,0.237920000,0.000000000,0.000000000,-0.043584000,0.000000000,0.000000000,1720621574.709551334,,,,,,,,,,,
1720621574.721762,0.027170000,0.000000000,0.000000000,-1.200892000,0.000000000,0.000000000,0.996710000,0.000000000,0.000000000,0.044704000,0.000000000,0.000000000,0.237248000,0.000000000,0.000000000,-0.043648000,0.000000000,0.000000000,1720621574.717551231,,,,,,,,,,,
1720621574.725201,0.027170000,0.000000000,0.000000000,-1.208977000,0.000000000,0.000000000,0.993564000,0.000000000,0.000000000,0.044704000,0.000000000,0.000000000,0.237536000,0.000000000,0.000000000,-0.044256000,0.000000000,0.000000000,1720621574.721551180,,,,,,,,,,,
1720621574.733726,0.027170000,0.000000000,0.000000000,-1.206282000,0.000000000,0.000000000,0.993564000,0.000000000,0.000000000,0.044800000,0.000000000,0.000000000,0.238336000,0.000000000,0.000000000,-0.043584000,0.000000000,0.000000000,1720621574.729551315,,,,,,,,,,,
1720621574.737488,0.027170000,0.000000000,0.000000000,-1.181488000,0.000000000,0.000000000,0.993564000,0.000000000,0.000000000,0.044800000,0.000000000,0.000000000,0.237856000,0.000000000,0.000000000,-0.044576000,0.000000000,0.000000000,1720621574.733551264,,,,,,,,,,,
1720621574.745685,0.027170000,0.000000000,0.000000000,-1.207360000,0.000000000,0.000000000,0.994136000,0.000000000,0.000000000,0.044704000,0.000000000,0.000000000,0.237856000,0.000000000,0.000000000,-0.044000000,0.000000000,0.000000000,1720621574.741551161,,,,,,,,,,,
1720621574.749217,0.027170000,0.000000000,0.000000000,-1.207360000,0.000000000,0.000000000,0.994136000,0.000000000,0.000000000,0.044704000,0.000000000,0.000000000,0.237600000,0.000000000,0.000000000,-0.044576000,0.000000000,0.000000000,1720621574.745551348,,,,,,,,,,,
1720621574.757977,0.027170000,0.000000000,0.000000000,-1.207360000,0.000000000,0.000000000,0.994136000,0.000000000,0.000000000,0.044704000,0.000000000,0.000000000,0.237792000,0.000000000,0.000000000,-0.044576000,0.000000000,0.000000000,1720621574.753551245,,,,,,,,,,,
1720621574.759304,,,,,,,,,,,,,,,,,,,,1720621574.745551348,-1.186824000,3.141592654,0.000000015,0.829037542,-0.000000022,-0.000000054,0.559192949,1.395152983,0.001110973,1.481517837
1720621574.761309,0.027170000,0.000000000,0.000000000,-1.207360000,0.000000000,0.000000000,0.994136000,0.000000000,0.000000000,0.044704000,0.000000000,0.000000000,0.238240000,0.000000000,0.000000000,-0.044320000,0.000000000,0.000000000,1720621574.757551193,,,,,,,,,,,
1720621574.769019,0.027170000,0.000000000,0.000000000,-1.205204000,0.000000000,0.000000000,0.994136000,0.000000000,0.000000000,0.044640000,0.000000000,0.000000000,0.237792000,0.000000000,0.000000000,-0.044384000,0.000000000,0.000000000,1720621574.764551163,,,,,,,,,,,
1720621574.772409,0.027170000,0.000000000,0.000000000,-1.204665000,0.000000000,0.000000000,0.994136000,0.000000000,0.000000000,0.044704000,0.000000000,0.000000000,0.236864000,0.000000000,0.000000000,-0.043584000,0.000000000,0.000000000,1720621574.768551111,,,,,,,,,,,
1720621574.780381,0.027170000,0.000000000,0.000000000,-1.203587000,0.000000000,0.000000000,0.994136000,0.000000000,0.000000000,0.044704000,0.000000000,0.000000000,0.237472000,0.000000000,0.000000000,-0.044128000,0.000000000,0.000000000,1720621574.776551247,,,,,,,,,,,
1720621574.789769,0.027170000,0.000000000,0.000000000,-1.203587000,0.000000000,0.000000000,0.994136000,0.000000000,0.000000000,0.044800000,0.000000000,0.000000000,0.238112000,0.000000000,0.000000000,-0.043840000,0.000000000,0.000000000,1720621574.785551310,,,,,,,,,,,
1720621574.790502,0.027170000,0.000000000,0.000000000,-1.203587000,0.000000000,0.000000000,0.994136000,0.000000000,0.000000000,0.044800000,0.000000000,0.000000000,0.238112000,0.000000000,0.000000000,-0.043840000,0.000000000,0.000000000,1720621574.786551237,,,,,,,,,,,
1720621574.793353,0.027170000,0.000000000,0.000000000,-1.203587000,0.000000000,0.000000000,0.994136000,0.000000000,0.000000000,0.044800000,0.000000000,0.000000000,0.237376000,0.000000000,0.000000000,-0.044992000,0.000000000,0.000000000,1720621574.787551165,,,,,,,,,,,
1720621574.801907,0.027170000,0.000000000,0.000000000,-1.203587000,0.000000000,0.000000000,0.994136000,0.000000000,0.000000000,0.044800000,0.000000000,0.000000000,0.237312000,0.000000000,0.000000000,-0.044928000,0.000000000,0.000000000,1720621574.797551155,,,,,,,,,,,
1720621574.802684,0.027170000,0.000000000,0.000000000,-1.203587000,0.000000000,0.000000000,0.994136000,0.000000000,0.000000000,0.044800000,0.000000000,0.000000000,0.237312000,0.000000000,0.000000000,-0.044928000,0.000000000,0.000000000,1720621574.798551321,,,,,,,,,,,
1720621574.805614,0.027170000,0.000000000,0.000000000,-1.203587000,0.000000000,0.000000000,0.994136000,0.000000000,0.000000000,0.044800000,0.000000000,0.000000000,0.237664000,0.000000000,0.000000000,-0.043072000,0.000000000,0.000000000,1720621574.801551342,,,,,,,,,,,
1720621574.809003,,,,,,,,,,,,,,,,,,,,1720621574.797551155,-1.186824000,3.141592654,0.000000015,0.829037542,-0.000000022,-0.000000054,0.559192949,1.395152983,0.001110973,1.481517837
1720621574.813857,0.027170000,0.000000000,0.000000000,-1.203587000,0.000000000,0.000000000,0.994136000,0.000000000,0.000000000,0.044800000,0.000000000,0.000000000,0.237600000,0.000000000,0.000000000,-0.043776000,0.000000000,0.000000000,1720621574.809551239,,,,,,,,,,,
1720621574.815074,0.027170000,0.000000000,0.000000000,-1.203587000,0.000000000,0.000000000,0.994136000,0.000000000,0.000000000,0.044800000,0.000000000,0.000000000,0.237600000,0.000000000,0.000000000,-0.043776000,0.000000000,0.000000000,1720621574.810551167,,,,,,,,,,,
1720621574.816428,0.027170000,0.000000000,0.000000000,-1.203587000,0.000000000,0.000000000,0.994136000,0.000000000,0.000000000,0.044800000,0.000000000,0.000000000,0.237312000,0.000000000,0.000000000,-0.044512000,0.000000000,0.000000000,1720621574.812551260,,,,,,,,,,,
1720621574.825990,0.027170000,0.000000000,0.000000000,-1.206282000,0.000000000,0.000000000,0.994136000,0.000000000,0.000000000,0.044800000,0.000000000,0.000000000,0.237792000,0.000000000,0.000000000,-0.044128000,0.000000000,0.000000000,1720621574.821551323,,,,,,,,,,,
1720621574.826326,0.027170000,0.000000000,0.000000000,-1.206282000,0.000000000,0.000000000,0.994136000,0.000000000,0.000000000,0.044800000,0.000000000,0.000000000,0.237792000,0.000000000,0.000000000,-0.044128000,0.000000000,0.000000000,1720621574.822551250,,,,,,,,,,,
1720621574.828655,0.027170000,0.000000000,0.000000000,-1.200892000,0.000000000,0.000000000,0.994136000,0.000000000,0.000000000,0.044800000,0.000000000,0.000000000,0.237792000,0.000000000,0.000000000,-0.043840000,0.000000000,0.000000000,1720621574.824551344,,,,,,,,,,,
1720621574.838056,0.027170000,0.000000000,0.000000000,-1.205204000,0.000000000,0.000000000,0.994136000,0.000000000,0.000000000,0.044448000,0.000000000,0.000000000,0.237984000,0.000000000,0.000000000,-0.044384000,0.000000000,0.000000000,1720621574.833551168,,,,,,,,,,,
1720621574.839149,0.027170000,0.000000000,0.000000000,-1.205204000,0.000000000,0.000000000,0.994136000,0.000000000,0.000000000,0.044448000,0.000000000,0.000000000,0.237984000,0.000000000,0.000000000,-0.044384000,0.000000000,0.000000000,1720621574.834551334,,,,,,,,,,,
1720621574.840502,0.027170000,0.000000000,0.000000000,-1.205204000,0.000000000,0.000000000,0.994136000,0.000000000,0.000000000,0.044704000,0.000000000,0.000000000,0.237792000,0.000000000,0.000000000,-0.044000000,0.000000000,0.000000000,1720621574.836551189,,,,,,,,,,,
1720621574.849976,0.027170000,0.000000000,0.000000000,-1.202509000,0.000000000,0.000000000,0.994136000,0.000000000,0.000000000,0.044704000,0.000000000,0.000000000,0.238592000,0.000000000,0.000000000,-0.043776000,0.000000000,0.000000000,1720621574.845551252,,,,,,,,,,,
1720621574.850530,0.027170000,0.000000000,0.000000000,-1.202509000,0.000000000,0.000000000,0.994136000,0.000000000,0.000000000,0.044704000,0.000000000,0.000000000,0.238592000,0.000000000,0.000000000,-0.043776000,0.000000000,0.000000000,1720621574.846551180,,,,,,,,,,,
1720621574.853563,0.027170000,0.000000000,0.000000000,-1.170708000,0.000000000,0.000000000,0.994136000,0.000000000,0.000000000,0.044800000,0.000000000,0.000000000,0.237376000,0.000000000,0.000000000,-0.044928000,0.000000000,0.000000000,1720621574.849551201,,,,,,,,,,,
1720621574.859229,,,,,,,,,,,,,,,,,,,,1720621574.849551201,-1.186824000,3.141592654,0.000000015,0.829037542,-0.000000022,-0.000000054,0.559192949,1.395152983,0.001110973,1.481517837
1720621574.861852,0.027170000,0.000000000,0.000000000,-1.210594000,0.000000000,0.000000000,0.994136000,0.000000000,0.000000000,0.044704000,0.000000000,0.000000000,0.237920000,0.000000000,0.000000000,-0.044800000,0.000000000,0.000000000,1720621574.857551336,,,,,,,,,,,
1720621574.862701,0.027170000,0.000000000,0.000000000,-1.210594000,0.000000000,0.000000000,0.994136000,0.000000000,0.000000000,0.044704000,0.000000000,0.000000000,0.237920000,0.000000000,0.000000000,-0.044800000,0.000000000,0.000000000,1720621574.858551264,,,,,,,,,,,
1720621574.865715,0.027170000,0.000000000,0.000000000,-1.206282000,0.000000000,0.000000000,0.994136000,0.000000000,0.000000000,0.044704000,0.000000000,0.000000000,0.237792000,0.000000000,0.000000000,-0.044256000,0.000000000,0.000000000,1720621574.861551285,,,,,,,,,,,
1720621574.874040,0.027170000,0.000000000,0.000000000,-1.202509000,0.000000000,0.000000000,0.994136000,0.000000000,0.000000000,0.044704000,0.000000000,0.000000000,0.238336000,0.000000000,0.000000000,-0.044800000,0.000000000,0.000000000,1720621574.869551182,,,,,,,,,,,
1720621574.876391,0.027170000,0.000000000,0.000000000,-1.202509000,0.000000000,0.000000000,0.994136000,0.000000000,0.000000000,0.044704000,0.000000000,0.000000000,0.238336000,0.000000000,0.000000000,-0.044800000,0.000000000,0.000000000,1720621574.870551348,,,,,,,,,,,
1720621574.885505,0.027170000,0.000000000,0.000000000,-1.206282000,0.000000000,0.000000000,0.994136000,0.000000000,0.000000000,0.044704000,0.000000000,0.000000000,0.237600000,0.000000000,0.000000000,-0.043456000,0.000000000,0.000000000,1720621574.880551338,,,,,,,,,,,
1720621574.896555,0.027170000,0.000000000,0.000000000,-1.204665000,0.000000000,0.000000000,0.994136000,0.000000000,0.000000000,0.044800000,0.000000000,0.000000000,0.237856000,0.000000000,0.000000000,-0.045632000,0.000000000,0.000000000,1720621574.892551184,,,,,,,,,,,
1720621574.912397,0.027170000,0.000000000,0.000000000,-1.205204000,0.000000000,0.000000000,0.994136000,0.000000000,0.000000000,0.044800000,0.000000000,0.000000000,0.237536000,0.000000000,0.000000000,-0.043584000,0.000000000,0.000000000,1720621574.903551340,,,,,,,,,,,
1720621574.916233,0.027170000,0.000000000,0.000000000,-1.240778000,0.000000000,0.000000000,0.994136000,0.000000000,0.000000000,0.044800000,0.000000000,0.000000000,0.237984000,0.000000000,0.000000000,-0.043008000,0.000000000,0.000000000,1720621574.911551237,,,,,,,,,,,
